(VECTRIC POST REV.)
(4943E22A0867EDC45D91771F33798195)
T1M6
G17
G0Z1.0000
G0X0.0000A-89.8757S19000M3
G0X1.9749A-45.0000
G0Z0.2000
G1Z-0.0071F6.5
G1X1.9749A-45.0020 F380.0
X1.9161A-50.0800 F380.0
X1.8577A-55.3040 F380.0
X1.7998A-60.6539 F380.0
X1.7422A-66.1096 F380.0
X1.6279A-77.2578 F380.0
X1.5141A-88.5872 F380.0
X1.4005A-99.9367 F380.0
X1.3435A-105.5687 F380.0
X1.2863A-111.1451 F380.0
X1.2289A-116.6460 F380.0
X1.1711A-122.0512 F380.0
X1.1130A-127.3405 F380.0
X1.0544A-132.4937 F380.0
X0.9953A-137.4907 F380.0
X0.9356A-142.3114 F380.0
X0.8752A-146.9356 F380.0
X0.8448A-149.1677 F380.0
X0.8141A-151.3431 F380.0
X0.7833A-153.4594 F380.0
X0.7523A-155.5139 F380.0
X0.7210A-157.5042 F380.0
X0.6895A-159.4277 F380.0
X0.6578A-161.2819 F380.0
X0.6258A-163.0644 F380.0
X0.5936A-164.7725 F380.0
X0.5611A-166.4038 F380.0
X0.5284A-167.9558 F380.0
X0.4954A-169.4259 F380.0
X0.4621A-170.8115 F380.0
X0.4285A-172.1103 F380.0
X0.3946A-173.3197 F380.0
X0.3604A-174.4371 F380.0
X0.3259A-175.4601 F380.0
X0.2911A-176.3860 F380.0
X0.2559A-177.2125 F380.0
X0.2204A-177.9369 F380.0
X0.1845A-178.5568 F380.0
X0.1483A-179.0696 F380.0
X0.1117A-179.4729 F50.0
X0.0748A-179.7641 F50.0
X0.0374A-179.9406 F50.0
X-0.0003A-180.0000 F50.0
X0.0000
G1Z-0.0143F6.5
G1X-0.0003F21.0
X0.0374A-179.9406 F50.0
X0.0748A-179.7641 F50.0
X0.1117A-179.4729 F50.0
X0.1483A-179.0696 F50.0
X0.1845A-178.5568 F380.0
X0.2204A-177.9369 F380.0
X0.2559A-177.2125 F380.0
X0.2911A-176.3860 F380.0
X0.3259A-175.4601 F380.0
X0.3604A-174.4371 F380.0
X0.3946A-173.3197 F380.0
X0.4285A-172.1103 F380.0
X0.4621A-170.8115 F380.0
X0.4954A-169.4259 F380.0
X0.5284A-167.9558 F380.0
X0.5611A-166.4038 F380.0
X0.5936A-164.7725 F380.0
X0.6258A-163.0644 F380.0
X0.6578A-161.2819 F380.0
X0.6895A-159.4277 F380.0
X0.7210A-157.5042 F380.0
X0.7523A-155.5139 F380.0
X0.7833A-153.4594 F380.0
X0.8141A-151.3431 F380.0
X0.8448A-149.1677 F380.0
X0.8752A-146.9356 F380.0
X0.9356A-142.3114 F380.0
X0.9953A-137.4907 F380.0
X1.0544A-132.4937 F380.0
X1.1130A-127.3405 F380.0
X1.1711A-122.0512 F380.0
X1.2289A-116.6460 F380.0
X1.2863A-111.1451 F380.0
X1.3435A-105.5687 F380.0
X1.4005A-99.9367 F380.0
X1.5141A-88.5872 F380.0
X1.6279A-77.2578 F380.0
X1.7422A-66.1096 F380.0
X1.7998A-60.6539 F380.0
X1.8577A-55.3040 F380.0
X1.9161A-50.0800 F380.0
X1.9749A-45.0020 F380.0
X1.9749A-45.0000 F50.0
G1Z-0.0214F6.5
G1X1.9749A-45.0020 F380.0
X1.9161A-50.0800 F380.0
X1.8577A-55.3040 F380.0
X1.7998A-60.6539 F380.0
X1.7422A-66.1096 F380.0
X1.6279A-77.2578 F380.0
X1.5141A-88.5872 F380.0
X1.4005A-99.9367 F380.0
X1.3435A-105.5687 F380.0
X1.2863A-111.1451 F380.0
X1.2289A-116.6460 F380.0
X1.1711A-122.0512 F380.0
X1.1130A-127.3405 F380.0
X1.0544A-132.4937 F380.0
X0.9953A-137.4907 F380.0
X0.9356A-142.3114 F380.0
X0.8752A-146.9356 F380.0
X0.8448A-149.1677 F380.0
X0.8141A-151.3431 F380.0
X0.7833A-153.4594 F380.0
X0.7523A-155.5139 F380.0
X0.7210A-157.5042 F380.0
X0.6895A-159.4277 F380.0
X0.6578A-161.2819 F380.0
X0.6258A-163.0644 F380.0
X0.5936A-164.7725 F380.0
X0.5611A-166.4038 F380.0
X0.5284A-167.9558 F380.0
X0.4954A-169.4259 F380.0
X0.4621A-170.8115 F380.0
X0.4285A-172.1103 F380.0
X0.3946A-173.3197 F380.0
X0.3604A-174.4371 F380.0
X0.3259A-175.4601 F380.0
X0.2911A-176.3860 F380.0
X0.2559A-177.2125 F380.0
X0.2204A-177.9369 F380.0
X0.1845A-178.5568 F380.0
X0.1483A-179.0696 F380.0
X0.1117A-179.4729 F50.0
X0.0748A-179.7641 F50.0
X0.0374A-179.9406 F50.0
X-0.0003A-180.0000 F50.0
X0.0000
G1Z-0.0286F6.5
G1X-0.0003F21.0
X0.0374A-179.9406 F50.0
X0.0748A-179.7641 F50.0
X0.1117A-179.4729 F50.0
X0.1483A-179.0696 F50.0
X0.1845A-178.5568 F380.0
X0.2204A-177.9369 F380.0
X0.2559A-177.2125 F380.0
X0.2911A-176.3860 F380.0
X0.3259A-175.4601 F380.0
X0.3604A-174.4371 F380.0
X0.3946A-173.3197 F380.0
X0.4285A-172.1103 F380.0
X0.4621A-170.8115 F380.0
X0.4954A-169.4259 F380.0
X0.5284A-167.9558 F380.0
X0.5611A-166.4038 F380.0
X0.5936A-164.7725 F380.0
X0.6258A-163.0644 F380.0
X0.6578A-161.2819 F380.0
X0.6895A-159.4277 F380.0
X0.7210A-157.5042 F380.0
X0.7523A-155.5139 F380.0
X0.7833A-153.4594 F380.0
X0.8141A-151.3431 F380.0
X0.8448A-149.1677 F380.0
X0.8752A-146.9356 F380.0
X0.9356A-142.3114 F380.0
X0.9953A-137.4907 F380.0
X1.0544A-132.4937 F380.0
X1.1130A-127.3405 F380.0
X1.1711A-122.0512 F380.0
X1.2289A-116.6460 F380.0
X1.2863A-111.1451 F380.0
X1.3435A-105.5687 F380.0
X1.4005A-99.9367 F380.0
X1.5141A-88.5872 F380.0
X1.6279A-77.2578 F380.0
X1.7422A-66.1096 F380.0
X1.7998A-60.6539 F380.0
X1.8577A-55.3040 F380.0
X1.9161A-50.0800 F380.0
X1.9749A-45.0020 F380.0
X1.9749A-45.0000 F50.0
G1Z-0.0357F6.5
G1X1.9749A-45.0020 F380.0
X1.9161A-50.0800 F380.0
X1.8577A-55.3040 F380.0
X1.7998A-60.6539 F380.0
X1.7422A-66.1096 F380.0
X1.6279A-77.2578 F380.0
X1.5141A-88.5872 F380.0
X1.4005A-99.9367 F380.0
X1.3435A-105.5687 F380.0
X1.2863A-111.1451 F380.0
X1.2289A-116.6460 F380.0
X1.1711A-122.0512 F380.0
X1.1130A-127.3405 F380.0
X1.0544A-132.4937 F380.0
X0.9953A-137.4907 F380.0
X0.9356A-142.3114 F380.0
X0.8752A-146.9356 F380.0
X0.8448A-149.1677 F380.0
X0.8141A-151.3431 F380.0
X0.7833A-153.4594 F380.0
X0.7523A-155.5139 F380.0
X0.7210A-157.5042 F380.0
X0.6895A-159.4277 F380.0
X0.6578A-161.2819 F380.0
X0.6258A-163.0644 F380.0
X0.5936A-164.7725 F380.0
X0.5611A-166.4038 F380.0
X0.5284A-167.9558 F380.0
X0.4954A-169.4259 F380.0
X0.4621A-170.8115 F380.0
X0.4285A-172.1103 F380.0
X0.3946A-173.3197 F380.0
X0.3604A-174.4371 F380.0
X0.3259A-175.4601 F380.0
X0.2911A-176.3860 F380.0
X0.2559A-177.2125 F380.0
X0.2204A-177.9369 F380.0
X0.1845A-178.5568 F380.0
X0.1483A-179.0696 F380.0
X0.1117A-179.4729 F50.0
X0.0748A-179.7641 F50.0
X0.0374A-179.9406 F50.0
X-0.0003A-180.0000 F50.0
X0.0000
G1Z-0.0429F6.5
G1X-0.0003F21.0
X0.0374A-179.9406 F50.0
X0.0748A-179.7641 F50.0
X0.1117A-179.4729 F50.0
X0.1483A-179.0696 F50.0
X0.1845A-178.5568 F380.0
X0.2204A-177.9369 F380.0
X0.2559A-177.2125 F380.0
X0.2911A-176.3860 F380.0
X0.3259A-175.4601 F380.0
X0.3604A-174.4371 F380.0
X0.3946A-173.3197 F380.0
X0.4285A-172.1103 F380.0
X0.4621A-170.8115 F380.0
X0.4954A-169.4259 F380.0
X0.5284A-167.9558 F380.0
X0.5611A-166.4038 F380.0
X0.5936A-164.7725 F380.0
X0.6258A-163.0644 F380.0
X0.6578A-161.2819 F380.0
X0.6895A-159.4277 F380.0
X0.7210A-157.5042 F380.0
X0.7523A-155.5139 F380.0
X0.7833A-153.4594 F380.0
X0.8141A-151.3431 F380.0
X0.8448A-149.1677 F380.0
X0.8752A-146.9356 F380.0
X0.9356A-142.3114 F380.0
X0.9953A-137.4907 F380.0
X1.0544A-132.4937 F380.0
X1.1130A-127.3405 F380.0
X1.1711A-122.0512 F380.0
X1.2289A-116.6460 F380.0
X1.2863A-111.1451 F380.0
X1.3435A-105.5687 F380.0
X1.4005A-99.9367 F380.0
X1.5141A-88.5872 F380.0
X1.6279A-77.2578 F380.0
X1.7422A-66.1096 F380.0
X1.7998A-60.6539 F380.0
X1.8577A-55.3040 F380.0
X1.9161A-50.0800 F380.0
X1.9749A-45.0020 F380.0
X1.9749A-45.0000 F50.0
G1Z-0.0500F6.5
G1X1.9749A-45.0020 F380.0
X1.9161A-50.0800 F380.0
X1.8577A-55.3040 F380.0
X1.7998A-60.6539 F380.0
X1.7422A-66.1096 F380.0
X1.6279A-77.2578 F380.0
X1.5141A-88.5872 F380.0
X1.4005A-99.9367 F380.0
X1.3435A-105.5687 F380.0
X1.2863A-111.1451 F380.0
X1.2289A-116.6460 F380.0
X1.1711A-122.0512 F380.0
X1.1130A-127.3405 F380.0
X1.0544A-132.4937 F380.0
X0.9953A-137.4907 F380.0
X0.9356A-142.3114 F380.0
X0.8752A-146.9356 F380.0
X0.8448A-149.1677 F380.0
X0.8141A-151.3431 F380.0
X0.7833A-153.4594 F380.0
X0.7523A-155.5139 F380.0
X0.7210A-157.5042 F380.0
X0.6895A-159.4277 F380.0
X0.6578A-161.2819 F380.0
X0.6258A-163.0644 F380.0
X0.5936A-164.7725 F380.0
X0.5611A-166.4038 F380.0
X0.5284A-167.9558 F380.0
X0.4954A-169.4259 F380.0
X0.4621A-170.8115 F380.0
X0.4285A-172.1103 F380.0
X0.3946A-173.3197 F380.0
X0.3604A-174.4371 F380.0
X0.3259A-175.4601 F380.0
X0.2911A-176.3860 F380.0
X0.2559A-177.2125 F380.0
X0.2204A-177.9369 F380.0
X0.1845A-178.5568 F380.0
X0.1483A-179.0696 F380.0
X0.1117A-179.4729 F50.0
X0.0748A-179.7641 F50.0
X0.0374A-179.9406 F50.0
X-0.0003A-180.0000 F50.0
X0.0000
G1Z-0.0571F6.5
G1X-0.0003F21.0
X0.0374A-179.9406 F50.0
X0.0748A-179.7641 F50.0
X0.1117A-179.4729 F50.0
X0.1483A-179.0696 F50.0
X0.1845A-178.5568 F380.0
X0.2204A-177.9369 F380.0
X0.2559A-177.2125 F380.0
X0.2911A-176.3860 F380.0
X0.3259A-175.4601 F380.0
X0.3604A-174.4371 F380.0
X0.3946A-173.3197 F380.0
X0.4285A-172.1103 F380.0
X0.4621A-170.8115 F380.0
X0.4954A-169.4259 F380.0
X0.5284A-167.9558 F380.0
X0.5611A-166.4038 F380.0
X0.5936A-164.7725 F380.0
X0.6258A-163.0644 F380.0
X0.6578A-161.2819 F380.0
X0.6895A-159.4277 F380.0
X0.7210A-157.5042 F380.0
X0.7523A-155.5139 F380.0
X0.7833A-153.4594 F380.0
X0.8141A-151.3431 F380.0
X0.8448A-149.1677 F380.0
X0.8752A-146.9356 F380.0
X0.9356A-142.3114 F380.0
X0.9953A-137.4907 F380.0
X1.0544A-132.4937 F380.0
X1.1130A-127.3405 F380.0
X1.1711A-122.0512 F380.0
X1.2289A-116.6460 F380.0
X1.2863A-111.1451 F380.0
X1.3435A-105.5687 F380.0
X1.4005A-99.9367 F380.0
X1.5141A-88.5872 F380.0
X1.6279A-77.2578 F380.0
X1.7422A-66.1096 F380.0
X1.7998A-60.6539 F380.0
X1.8577A-55.3040 F380.0
X1.9161A-50.0800 F380.0
X1.9749A-45.0020 F380.0
X1.9749A-45.0000 F50.0
G1Z-0.0643F6.5
G1X1.9749A-45.0020 F380.0
X1.9161A-50.0800 F380.0
X1.8577A-55.3040 F380.0
X1.7998A-60.6539 F380.0
X1.7422A-66.1096 F380.0
X1.6279A-77.2578 F380.0
X1.5141A-88.5872 F380.0
X1.4005A-99.9367 F380.0
X1.3435A-105.5687 F380.0
X1.2863A-111.1451 F380.0
X1.2289A-116.6460 F380.0
X1.1711A-122.0512 F380.0
X1.1130A-127.3405 F380.0
X1.0544A-132.4937 F380.0
X0.9953A-137.4907 F380.0
X0.9356A-142.3114 F380.0
X0.8752A-146.9356 F380.0
X0.8448A-149.1677 F380.0
X0.8141A-151.3431 F380.0
X0.7833A-153.4594 F380.0
X0.7523A-155.5139 F380.0
X0.7210A-157.5042 F380.0
X0.6895A-159.4277 F380.0
X0.6578A-161.2819 F380.0
X0.6258A-163.0644 F380.0
X0.5936A-164.7725 F380.0
X0.5611A-166.4038 F380.0
X0.5284A-167.9558 F380.0
X0.4954A-169.4259 F380.0
X0.4621A-170.8115 F380.0
X0.4285A-172.1103 F380.0
X0.3946A-173.3197 F380.0
X0.3604A-174.4371 F380.0
X0.3259A-175.4601 F380.0
X0.2911A-176.3860 F380.0
X0.2559A-177.2125 F380.0
X0.2204A-177.9369 F380.0
X0.1845A-178.5568 F380.0
X0.1483A-179.0696 F380.0
X0.1117A-179.4729 F50.0
X0.0748A-179.7641 F50.0
X0.0374A-179.9406 F50.0
X-0.0003A-180.0000 F50.0
X0.0000
G1Z-0.0714F6.5
G1X-0.0003F21.0
X0.0374A-179.9406 F50.0
X0.0748A-179.7641 F50.0
X0.1117A-179.4729 F50.0
X0.1483A-179.0696 F50.0
X0.1845A-178.5568 F380.0
X0.2204A-177.9369 F380.0
X0.2559A-177.2125 F380.0
X0.2911A-176.3860 F380.0
X0.3259A-175.4601 F380.0
X0.3604A-174.4371 F380.0
X0.3946A-173.3197 F380.0
X0.4285A-172.1103 F380.0
X0.4621A-170.8115 F380.0
X0.4954A-169.4259 F380.0
X0.5284A-167.9558 F380.0
X0.5611A-166.4038 F380.0
X0.5936A-164.7725 F380.0
X0.6258A-163.0644 F380.0
X0.6578A-161.2819 F380.0
X0.6895A-159.4277 F380.0
X0.7210A-157.5042 F380.0
X0.7523A-155.5139 F380.0
X0.7833A-153.4594 F380.0
X0.8141A-151.3431 F380.0
X0.8448A-149.1677 F380.0
X0.8752A-146.9356 F380.0
X0.9356A-142.3114 F380.0
X0.9953A-137.4907 F380.0
X1.0544A-132.4937 F380.0
X1.1130A-127.3405 F380.0
X1.1711A-122.0512 F380.0
X1.2289A-116.6460 F380.0
X1.2863A-111.1451 F380.0
X1.3435A-105.5687 F380.0
X1.4005A-99.9367 F380.0
X1.5141A-88.5872 F380.0
X1.6279A-77.2578 F380.0
X1.7422A-66.1096 F380.0
X1.7998A-60.6539 F380.0
X1.8577A-55.3040 F380.0
X1.9161A-50.0800 F380.0
X1.9749A-45.0020 F380.0
X1.9749A-45.0000 F50.0
G1Z-0.0786F6.5
G1X1.9749A-45.0020 F380.0
X1.9161A-50.0800 F380.0
X1.8577A-55.3040 F380.0
X1.7998A-60.6539 F380.0
X1.7422A-66.1096 F380.0
X1.6279A-77.2578 F380.0
X1.5141A-88.5872 F380.0
X1.4005A-99.9367 F380.0
X1.3435A-105.5687 F380.0
X1.2863A-111.1451 F380.0
X1.2289A-116.6460 F380.0
X1.1711A-122.0512 F380.0
X1.1130A-127.3405 F380.0
X1.0544A-132.4937 F380.0
X0.9953A-137.4907 F380.0
X0.9356A-142.3114 F380.0
X0.8752A-146.9356 F380.0
X0.8448A-149.1677 F380.0
X0.8141A-151.3431 F380.0
X0.7833A-153.4594 F380.0
X0.7523A-155.5139 F380.0
X0.7210A-157.5042 F380.0
X0.6895A-159.4277 F380.0
X0.6578A-161.2819 F380.0
X0.6258A-163.0644 F380.0
X0.5936A-164.7725 F380.0
X0.5611A-166.4038 F380.0
X0.5284A-167.9558 F380.0
X0.4954A-169.4259 F380.0
X0.4621A-170.8115 F380.0
X0.4285A-172.1103 F380.0
X0.3946A-173.3197 F380.0
X0.3604A-174.4371 F380.0
X0.3259A-175.4601 F380.0
X0.2911A-176.3860 F380.0
X0.2559A-177.2125 F380.0
X0.2204A-177.9369 F380.0
X0.1845A-178.5568 F380.0
X0.1483A-179.0696 F380.0
X0.1117A-179.4729 F50.0
X0.0748A-179.7641 F50.0
X0.0374A-179.9406 F50.0
X-0.0003A-180.0000 F50.0
X0.0000
G1Z-0.0857F6.5
G1X-0.0003F21.0
X0.0374A-179.9406 F50.0
X0.0748A-179.7641 F50.0
X0.1117A-179.4729 F50.0
X0.1483A-179.0696 F50.0
X0.1845A-178.5568 F380.0
X0.2204A-177.9369 F380.0
X0.2559A-177.2125 F380.0
X0.2911A-176.3860 F380.0
X0.3259A-175.4601 F380.0
X0.3604A-174.4371 F380.0
X0.3946A-173.3197 F380.0
X0.4285A-172.1103 F380.0
X0.4621A-170.8115 F380.0
X0.4954A-169.4259 F380.0
X0.5284A-167.9558 F380.0
X0.5611A-166.4038 F380.0
X0.5936A-164.7725 F380.0
X0.6258A-163.0644 F380.0
X0.6578A-161.2819 F380.0
X0.6895A-159.4277 F380.0
X0.7210A-157.5042 F380.0
X0.7523A-155.5139 F380.0
X0.7833A-153.4594 F380.0
X0.8141A-151.3431 F380.0
X0.8448A-149.1677 F380.0
X0.8752A-146.9356 F380.0
X0.9356A-142.3114 F380.0
X0.9953A-137.4907 F380.0
X1.0544A-132.4937 F380.0
X1.1130A-127.3405 F380.0
X1.1711A-122.0512 F380.0
X1.2289A-116.6460 F380.0
X1.2863A-111.1451 F380.0
X1.3435A-105.5687 F380.0
X1.4005A-99.9367 F380.0
X1.5141A-88.5872 F380.0
X1.6279A-77.2578 F380.0
X1.7422A-66.1096 F380.0
X1.7998A-60.6539 F380.0
X1.8577A-55.3040 F380.0
X1.9161A-50.0800 F380.0
X1.9749A-45.0020 F380.0
X1.9749A-45.0000 F50.0
G1Z-0.0929F6.5
G1X1.9749A-45.0020 F380.0
X1.9161A-50.0800 F380.0
X1.8577A-55.3040 F380.0
X1.7998A-60.6539 F380.0
X1.7422A-66.1096 F380.0
X1.6279A-77.2578 F380.0
X1.5141A-88.5872 F380.0
X1.4005A-99.9367 F380.0
X1.3435A-105.5687 F380.0
X1.2863A-111.1451 F380.0
X1.2289A-116.6460 F380.0
X1.1711A-122.0512 F380.0
X1.1130A-127.3405 F380.0
X1.0544A-132.4937 F380.0
X0.9953A-137.4907 F380.0
X0.9356A-142.3114 F380.0
X0.8752A-146.9356 F380.0
X0.8448A-149.1677 F380.0
X0.8141A-151.3431 F380.0
X0.7833A-153.4594 F380.0
X0.7523A-155.5139 F380.0
X0.7210A-157.5042 F380.0
X0.6895A-159.4277 F380.0
X0.6578A-161.2819 F380.0
X0.6258A-163.0644 F380.0
X0.5936A-164.7725 F380.0
X0.5611A-166.4038 F380.0
X0.5284A-167.9558 F380.0
X0.4954A-169.4259 F380.0
X0.4621A-170.8115 F380.0
X0.4285A-172.1103 F380.0
X0.3946A-173.3197 F380.0
X0.3604A-174.4371 F380.0
X0.3259A-175.4601 F380.0
X0.2911A-176.3860 F380.0
X0.2559A-177.2125 F380.0
X0.2204A-177.9369 F380.0
X0.1845A-178.5568 F380.0
X0.1483A-179.0696 F380.0
X0.1117A-179.4729 F50.0
X0.0748A-179.7641 F50.0
X0.0374A-179.9406 F50.0
X-0.0003A-180.0000 F50.0
X0.0000
G1Z-0.1000F6.5
G1X-0.0003F21.0
X0.0374A-179.9406 F50.0
X0.0748A-179.7641 F50.0
X0.1117A-179.4729 F50.0
X0.1483A-179.0696 F50.0
X0.1845A-178.5568 F380.0
X0.2204A-177.9369 F380.0
X0.2559A-177.2125 F380.0
X0.2911A-176.3860 F380.0
X0.3259A-175.4601 F380.0
X0.3604A-174.4371 F380.0
X0.3946A-173.3197 F380.0
X0.4285A-172.1103 F380.0
X0.4621A-170.8115 F380.0
X0.4954A-169.4259 F380.0
X0.5284A-167.9558 F380.0
X0.5611A-166.4038 F380.0
X0.5936A-164.7725 F380.0
X0.6258A-163.0644 F380.0
X0.6578A-161.2819 F380.0
X0.6895A-159.4277 F380.0
X0.7210A-157.5042 F380.0
X0.7523A-155.5139 F380.0
X0.7833A-153.4594 F380.0
X0.8141A-151.3431 F380.0
X0.8448A-149.1677 F380.0
X0.8752A-146.9356 F380.0
X0.9356A-142.3114 F380.0
X0.9953A-137.4907 F380.0
X1.0544A-132.4937 F380.0
X1.1130A-127.3405 F380.0
X1.1711A-122.0512 F380.0
X1.2289A-116.6460 F380.0
X1.2863A-111.1451 F380.0
X1.3435A-105.5687 F380.0
X1.4005A-99.9367 F380.0
X1.5141A-88.5872 F380.0
X1.6279A-77.2578 F380.0
X1.7422A-66.1096 F380.0
X1.7998A-60.6539 F380.0
X1.8577A-55.3040 F380.0
X1.9161A-50.0800 F380.0
X1.9749A-45.0020 F380.0
X1.9749A-45.0000 F50.0
G0Z0.2000
G0X1.9749A-135.0000
G1Z-0.0071F6.5
G1X1.9749A-135.0011 F380.0
X1.9161A-140.0790 F380.0
X1.8577A-145.3030 F380.0
X1.7998A-150.6529 F380.0
X1.7422A-156.1086 F380.0
X1.6279A-167.2567 F380.0
X1.5141A-178.5862 F380.0
X1.4005A-189.9357 F380.0
X1.3435A-195.5677 F380.0
X1.2863A-201.1442 F380.0
X1.2289A-206.6451 F380.0
X1.1712A-212.0502 F380.0
X1.1130A-217.3395 F380.0
X1.0545A-222.4928 F380.0
X0.9954A-227.4898 F380.0
X0.9357A-232.3105 F380.0
X0.8753A-236.9347 F380.0
X0.8449A-239.1669 F380.0
X0.8142A-241.3423 F380.0
X0.7834A-243.4585 F380.0
X0.7523A-245.5131 F380.0
X0.7211A-247.5034 F380.0
X0.6896A-249.4269 F380.0
X0.6579A-251.2811 F380.0
X0.6259A-253.0636 F380.0
X0.5937A-254.7717 F380.0
X0.5613A-256.4031 F380.0
X0.5286A-257.9550 F380.0
X0.4956A-259.4251 F380.0
X0.4623A-260.8108 F380.0
X0.4287A-262.1096 F380.0
X0.3948A-263.3190 F380.0
X0.3606A-264.4364 F380.0
X0.3261A-265.4593 F380.0
X0.2913A-266.3853 F380.0
X0.2562A-267.2118 F380.0
X0.2207A-267.9362 F380.0
X0.1848A-268.5561 F380.0
X0.1486A-269.0689 F380.0
X0.1120A-269.4722 F50.0
X0.0751A-269.7634 F50.0
X0.0377A-269.9399 F50.0
X0.0000A-269.9993 F50.0
G1Z-0.0143F6.5
G1X0.0377A-269.9399 F50.0
X0.0751A-269.7634 F50.0
X0.1120A-269.4722 F50.0
X0.1486A-269.0689 F50.0
X0.1848A-268.5561 F380.0
X0.2207A-267.9362 F380.0
X0.2562A-267.2118 F380.0
X0.2913A-266.3853 F380.0
X0.3261A-265.4593 F380.0
X0.3606A-264.4364 F380.0
X0.3948A-263.3190 F380.0
X0.4287A-262.1096 F380.0
X0.4623A-260.8108 F380.0
X0.4956A-259.4251 F380.0
X0.5286A-257.9550 F380.0
X0.5613A-256.4031 F380.0
X0.5937A-254.7717 F380.0
X0.6259A-253.0636 F380.0
X0.6579A-251.2811 F380.0
X0.6896A-249.4269 F380.0
X0.7211A-247.5034 F380.0
X0.7523A-245.5131 F380.0
X0.7834A-243.4585 F380.0
X0.8142A-241.3423 F380.0
X0.8449A-239.1669 F380.0
X0.8753A-236.9347 F380.0
X0.9357A-232.3105 F380.0
X0.9954A-227.4898 F380.0
X1.0545A-222.4928 F380.0
X1.1130A-217.3395 F380.0
X1.1712A-212.0502 F380.0
X1.2289A-206.6451 F380.0
X1.2863A-201.1442 F380.0
X1.3435A-195.5677 F380.0
X1.4005A-189.9357 F380.0
X1.5141A-178.5862 F380.0
X1.6279A-167.2567 F380.0
X1.7422A-156.1086 F380.0
X1.7998A-150.6529 F380.0
X1.8577A-145.3030 F380.0
X1.9161A-140.0790 F380.0
X1.9749A-135.0011 F380.0
X1.9749A-135.0000 F50.0
G1Z-0.0214F6.5
G1X1.9749A-135.0011 F380.0
X1.9161A-140.0790 F380.0
X1.8577A-145.3030 F380.0
X1.7998A-150.6529 F380.0
X1.7422A-156.1086 F380.0
X1.6279A-167.2567 F380.0
X1.5141A-178.5862 F380.0
X1.4005A-189.9357 F380.0
X1.3435A-195.5677 F380.0
X1.2863A-201.1442 F380.0
X1.2289A-206.6451 F380.0
X1.1712A-212.0502 F380.0
X1.1130A-217.3395 F380.0
X1.0545A-222.4928 F380.0
X0.9954A-227.4898 F380.0
X0.9357A-232.3105 F380.0
X0.8753A-236.9347 F380.0
X0.8449A-239.1669 F380.0
X0.8142A-241.3423 F380.0
X0.7834A-243.4585 F380.0
X0.7523A-245.5131 F380.0
X0.7211A-247.5034 F380.0
X0.6896A-249.4269 F380.0
X0.6579A-251.2811 F380.0
X0.6259A-253.0636 F380.0
X0.5937A-254.7717 F380.0
X0.5613A-256.4031 F380.0
X0.5286A-257.9550 F380.0
X0.4956A-259.4251 F380.0
X0.4623A-260.8108 F380.0
X0.4287A-262.1096 F380.0
X0.3948A-263.3190 F380.0
X0.3606A-264.4364 F380.0
X0.3261A-265.4593 F380.0
X0.2913A-266.3853 F380.0
X0.2562A-267.2118 F380.0
X0.2207A-267.9362 F380.0
X0.1848A-268.5561 F380.0
X0.1486A-269.0689 F380.0
X0.1120A-269.4722 F50.0
X0.0751A-269.7634 F50.0
X0.0377A-269.9399 F50.0
X0.0000A-269.9993 F50.0
G1Z-0.0286F6.5
G1X0.0377A-269.9399 F50.0
X0.0751A-269.7634 F50.0
X0.1120A-269.4722 F50.0
X0.1486A-269.0689 F50.0
X0.1848A-268.5561 F380.0
X0.2207A-267.9362 F380.0
X0.2562A-267.2118 F380.0
X0.2913A-266.3853 F380.0
X0.3261A-265.4593 F380.0
X0.3606A-264.4364 F380.0
X0.3948A-263.3190 F380.0
X0.4287A-262.1096 F380.0
X0.4623A-260.8108 F380.0
X0.4956A-259.4251 F380.0
X0.5286A-257.9550 F380.0
X0.5613A-256.4031 F380.0
X0.5937A-254.7717 F380.0
X0.6259A-253.0636 F380.0
X0.6579A-251.2811 F380.0
X0.6896A-249.4269 F380.0
X0.7211A-247.5034 F380.0
X0.7523A-245.5131 F380.0
X0.7834A-243.4585 F380.0
X0.8142A-241.3423 F380.0
X0.8449A-239.1669 F380.0
X0.8753A-236.9347 F380.0
X0.9357A-232.3105 F380.0
X0.9954A-227.4898 F380.0
X1.0545A-222.4928 F380.0
X1.1130A-217.3395 F380.0
X1.1712A-212.0502 F380.0
X1.2289A-206.6451 F380.0
X1.2863A-201.1442 F380.0
X1.3435A-195.5677 F380.0
X1.4005A-189.9357 F380.0
X1.5141A-178.5862 F380.0
X1.6279A-167.2567 F380.0
X1.7422A-156.1086 F380.0
X1.7998A-150.6529 F380.0
X1.8577A-145.3030 F380.0
X1.9161A-140.0790 F380.0
X1.9749A-135.0011 F380.0
X1.9749A-135.0000 F50.0
G1Z-0.0357F6.5
G1X1.9749A-135.0011 F380.0
X1.9161A-140.0790 F380.0
X1.8577A-145.3030 F380.0
X1.7998A-150.6529 F380.0
X1.7422A-156.1086 F380.0
X1.6279A-167.2567 F380.0
X1.5141A-178.5862 F380.0
X1.4005A-189.9357 F380.0
X1.3435A-195.5677 F380.0
X1.2863A-201.1442 F380.0
X1.2289A-206.6451 F380.0
X1.1712A-212.0502 F380.0
X1.1130A-217.3395 F380.0
X1.0545A-222.4928 F380.0
X0.9954A-227.4898 F380.0
X0.9357A-232.3105 F380.0
X0.8753A-236.9347 F380.0
X0.8449A-239.1669 F380.0
X0.8142A-241.3423 F380.0
X0.7834A-243.4585 F380.0
X0.7523A-245.5131 F380.0
X0.7211A-247.5034 F380.0
X0.6896A-249.4269 F380.0
X0.6579A-251.2811 F380.0
X0.6259A-253.0636 F380.0
X0.5937A-254.7717 F380.0
X0.5613A-256.4031 F380.0
X0.5286A-257.9550 F380.0
X0.4956A-259.4251 F380.0
X0.4623A-260.8108 F380.0
X0.4287A-262.1096 F380.0
X0.3948A-263.3190 F380.0
X0.3606A-264.4364 F380.0
X0.3261A-265.4593 F380.0
X0.2913A-266.3853 F380.0
X0.2562A-267.2118 F380.0
X0.2207A-267.9362 F380.0
X0.1848A-268.5561 F380.0
X0.1486A-269.0689 F380.0
X0.1120A-269.4722 F50.0
X0.0751A-269.7634 F50.0
X0.0377A-269.9399 F50.0
X0.0000A-269.9993 F50.0
G1Z-0.0429F6.5
G1X0.0377A-269.9399 F50.0
X0.0751A-269.7634 F50.0
X0.1120A-269.4722 F50.0
X0.1486A-269.0689 F50.0
X0.1848A-268.5561 F380.0
X0.2207A-267.9362 F380.0
X0.2562A-267.2118 F380.0
X0.2913A-266.3853 F380.0
X0.3261A-265.4593 F380.0
X0.3606A-264.4364 F380.0
X0.3948A-263.3190 F380.0
X0.4287A-262.1096 F380.0
X0.4623A-260.8108 F380.0
X0.4956A-259.4251 F380.0
X0.5286A-257.9550 F380.0
X0.5613A-256.4031 F380.0
X0.5937A-254.7717 F380.0
X0.6259A-253.0636 F380.0
X0.6579A-251.2811 F380.0
X0.6896A-249.4269 F380.0
X0.7211A-247.5034 F380.0
X0.7523A-245.5131 F380.0
X0.7834A-243.4585 F380.0
X0.8142A-241.3423 F380.0
X0.8449A-239.1669 F380.0
X0.8753A-236.9347 F380.0
X0.9357A-232.3105 F380.0
X0.9954A-227.4898 F380.0
X1.0545A-222.4928 F380.0
X1.1130A-217.3395 F380.0
X1.1712A-212.0502 F380.0
X1.2289A-206.6451 F380.0
X1.2863A-201.1442 F380.0
X1.3435A-195.5677 F380.0
X1.4005A-189.9357 F380.0
X1.5141A-178.5862 F380.0
X1.6279A-167.2567 F380.0
X1.7422A-156.1086 F380.0
X1.7998A-150.6529 F380.0
X1.8577A-145.3030 F380.0
X1.9161A-140.0790 F380.0
X1.9749A-135.0011 F380.0
X1.9749A-135.0000 F50.0
G1Z-0.0500F6.5
G1X1.9749A-135.0011 F380.0
X1.9161A-140.0790 F380.0
X1.8577A-145.3030 F380.0
X1.7998A-150.6529 F380.0
X1.7422A-156.1086 F380.0
X1.6279A-167.2567 F380.0
X1.5141A-178.5862 F380.0
X1.4005A-189.9357 F380.0
X1.3435A-195.5677 F380.0
X1.2863A-201.1442 F380.0
X1.2289A-206.6451 F380.0
X1.1712A-212.0502 F380.0
X1.1130A-217.3395 F380.0
X1.0545A-222.4928 F380.0
X0.9954A-227.4898 F380.0
X0.9357A-232.3105 F380.0
X0.8753A-236.9347 F380.0
X0.8449A-239.1669 F380.0
X0.8142A-241.3423 F380.0
X0.7834A-243.4585 F380.0
X0.7523A-245.5131 F380.0
X0.7211A-247.5034 F380.0
X0.6896A-249.4269 F380.0
X0.6579A-251.2811 F380.0
X0.6259A-253.0636 F380.0
X0.5937A-254.7717 F380.0
X0.5613A-256.4031 F380.0
X0.5286A-257.9550 F380.0
X0.4956A-259.4251 F380.0
X0.4623A-260.8108 F380.0
X0.4287A-262.1096 F380.0
X0.3948A-263.3190 F380.0
X0.3606A-264.4364 F380.0
X0.3261A-265.4593 F380.0
X0.2913A-266.3853 F380.0
X0.2562A-267.2118 F380.0
X0.2207A-267.9362 F380.0
X0.1848A-268.5561 F380.0
X0.1486A-269.0689 F380.0
X0.1120A-269.4722 F50.0
X0.0751A-269.7634 F50.0
X0.0377A-269.9399 F50.0
X0.0000A-269.9993 F50.0
G1Z-0.0571F6.5
G1X0.0377A-269.9399 F50.0
X0.0751A-269.7634 F50.0
X0.1120A-269.4722 F50.0
X0.1486A-269.0689 F50.0
X0.1848A-268.5561 F380.0
X0.2207A-267.9362 F380.0
X0.2562A-267.2118 F380.0
X0.2913A-266.3853 F380.0
X0.3261A-265.4593 F380.0
X0.3606A-264.4364 F380.0
X0.3948A-263.3190 F380.0
X0.4287A-262.1096 F380.0
X0.4623A-260.8108 F380.0
X0.4956A-259.4251 F380.0
X0.5286A-257.9550 F380.0
X0.5613A-256.4031 F380.0
X0.5937A-254.7717 F380.0
X0.6259A-253.0636 F380.0
X0.6579A-251.2811 F380.0
X0.6896A-249.4269 F380.0
X0.7211A-247.5034 F380.0
X0.7523A-245.5131 F380.0
X0.7834A-243.4585 F380.0
X0.8142A-241.3423 F380.0
X0.8449A-239.1669 F380.0
X0.8753A-236.9347 F380.0
X0.9357A-232.3105 F380.0
X0.9954A-227.4898 F380.0
X1.0545A-222.4928 F380.0
X1.1130A-217.3395 F380.0
X1.1712A-212.0502 F380.0
X1.2289A-206.6451 F380.0
X1.2863A-201.1442 F380.0
X1.3435A-195.5677 F380.0
X1.4005A-189.9357 F380.0
X1.5141A-178.5862 F380.0
X1.6279A-167.2567 F380.0
X1.7422A-156.1086 F380.0
X1.7998A-150.6529 F380.0
X1.8577A-145.3030 F380.0
X1.9161A-140.0790 F380.0
X1.9749A-135.0011 F380.0
X1.9749A-135.0000 F50.0
G1Z-0.0643F6.5
G1X1.9749A-135.0011 F380.0
X1.9161A-140.0790 F380.0
X1.8577A-145.3030 F380.0
X1.7998A-150.6529 F380.0
X1.7422A-156.1086 F380.0
X1.6279A-167.2567 F380.0
X1.5141A-178.5862 F380.0
X1.4005A-189.9357 F380.0
X1.3435A-195.5677 F380.0
X1.2863A-201.1442 F380.0
X1.2289A-206.6451 F380.0
X1.1712A-212.0502 F380.0
X1.1130A-217.3395 F380.0
X1.0545A-222.4928 F380.0
X0.9954A-227.4898 F380.0
X0.9357A-232.3105 F380.0
X0.8753A-236.9347 F380.0
X0.8449A-239.1669 F380.0
X0.8142A-241.3423 F380.0
X0.7834A-243.4585 F380.0
X0.7523A-245.5131 F380.0
X0.7211A-247.5034 F380.0
X0.6896A-249.4269 F380.0
X0.6579A-251.2811 F380.0
X0.6259A-253.0636 F380.0
X0.5937A-254.7717 F380.0
X0.5613A-256.4031 F380.0
X0.5286A-257.9550 F380.0
X0.4956A-259.4251 F380.0
X0.4623A-260.8108 F380.0
X0.4287A-262.1096 F380.0
X0.3948A-263.3190 F380.0
X0.3606A-264.4364 F380.0
X0.3261A-265.4593 F380.0
X0.2913A-266.3853 F380.0
X0.2562A-267.2118 F380.0
X0.2207A-267.9362 F380.0
X0.1848A-268.5561 F380.0
X0.1486A-269.0689 F380.0
X0.1120A-269.4722 F50.0
X0.0751A-269.7634 F50.0
X0.0377A-269.9399 F50.0
X0.0000A-269.9993 F50.0
G1Z-0.0714F6.5
G1X0.0377A-269.9399 F50.0
X0.0751A-269.7634 F50.0
X0.1120A-269.4722 F50.0
X0.1486A-269.0689 F50.0
X0.1848A-268.5561 F380.0
X0.2207A-267.9362 F380.0
X0.2562A-267.2118 F380.0
X0.2913A-266.3853 F380.0
X0.3261A-265.4593 F380.0
X0.3606A-264.4364 F380.0
X0.3948A-263.3190 F380.0
X0.4287A-262.1096 F380.0
X0.4623A-260.8108 F380.0
X0.4956A-259.4251 F380.0
X0.5286A-257.9550 F380.0
X0.5613A-256.4031 F380.0
X0.5937A-254.7717 F380.0
X0.6259A-253.0636 F380.0
X0.6579A-251.2811 F380.0
X0.6896A-249.4269 F380.0
X0.7211A-247.5034 F380.0
X0.7523A-245.5131 F380.0
X0.7834A-243.4585 F380.0
X0.8142A-241.3423 F380.0
X0.8449A-239.1669 F380.0
X0.8753A-236.9347 F380.0
X0.9357A-232.3105 F380.0
X0.9954A-227.4898 F380.0
X1.0545A-222.4928 F380.0
X1.1130A-217.3395 F380.0
X1.1712A-212.0502 F380.0
X1.2289A-206.6451 F380.0
X1.2863A-201.1442 F380.0
X1.3435A-195.5677 F380.0
X1.4005A-189.9357 F380.0
X1.5141A-178.5862 F380.0
X1.6279A-167.2567 F380.0
X1.7422A-156.1086 F380.0
X1.7998A-150.6529 F380.0
X1.8577A-145.3030 F380.0
X1.9161A-140.0790 F380.0
X1.9749A-135.0011 F380.0
X1.9749A-135.0000 F50.0
G1Z-0.0786F6.5
G1X1.9749A-135.0011 F380.0
X1.9161A-140.0790 F380.0
X1.8577A-145.3030 F380.0
X1.7998A-150.6529 F380.0
X1.7422A-156.1086 F380.0
X1.6279A-167.2567 F380.0
X1.5141A-178.5862 F380.0
X1.4005A-189.9357 F380.0
X1.3435A-195.5677 F380.0
X1.2863A-201.1442 F380.0
X1.2289A-206.6451 F380.0
X1.1712A-212.0502 F380.0
X1.1130A-217.3395 F380.0
X1.0545A-222.4928 F380.0
X0.9954A-227.4898 F380.0
X0.9357A-232.3105 F380.0
X0.8753A-236.9347 F380.0
X0.8449A-239.1669 F380.0
X0.8142A-241.3423 F380.0
X0.7834A-243.4585 F380.0
X0.7523A-245.5131 F380.0
X0.7211A-247.5034 F380.0
X0.6896A-249.4269 F380.0
X0.6579A-251.2811 F380.0
X0.6259A-253.0636 F380.0
X0.5937A-254.7717 F380.0
X0.5613A-256.4031 F380.0
X0.5286A-257.9550 F380.0
X0.4956A-259.4251 F380.0
X0.4623A-260.8108 F380.0
X0.4287A-262.1096 F380.0
X0.3948A-263.3190 F380.0
X0.3606A-264.4364 F380.0
X0.3261A-265.4593 F380.0
X0.2913A-266.3853 F380.0
X0.2562A-267.2118 F380.0
X0.2207A-267.9362 F380.0
X0.1848A-268.5561 F380.0
X0.1486A-269.0689 F380.0
X0.1120A-269.4722 F50.0
X0.0751A-269.7634 F50.0
X0.0377A-269.9399 F50.0
X0.0000A-269.9993 F50.0
G1Z-0.0857F6.5
G1X0.0377A-269.9399 F50.0
X0.0751A-269.7634 F50.0
X0.1120A-269.4722 F50.0
X0.1486A-269.0689 F50.0
X0.1848A-268.5561 F380.0
X0.2207A-267.9362 F380.0
X0.2562A-267.2118 F380.0
X0.2913A-266.3853 F380.0
X0.3261A-265.4593 F380.0
X0.3606A-264.4364 F380.0
X0.3948A-263.3190 F380.0
X0.4287A-262.1096 F380.0
X0.4623A-260.8108 F380.0
X0.4956A-259.4251 F380.0
X0.5286A-257.9550 F380.0
X0.5613A-256.4031 F380.0
X0.5937A-254.7717 F380.0
X0.6259A-253.0636 F380.0
X0.6579A-251.2811 F380.0
X0.6896A-249.4269 F380.0
X0.7211A-247.5034 F380.0
X0.7523A-245.5131 F380.0
X0.7834A-243.4585 F380.0
X0.8142A-241.3423 F380.0
X0.8449A-239.1669 F380.0
X0.8753A-236.9347 F380.0
X0.9357A-232.3105 F380.0
X0.9954A-227.4898 F380.0
X1.0545A-222.4928 F380.0
X1.1130A-217.3395 F380.0
X1.1712A-212.0502 F380.0
X1.2289A-206.6451 F380.0
X1.2863A-201.1442 F380.0
X1.3435A-195.5677 F380.0
X1.4005A-189.9357 F380.0
X1.5141A-178.5862 F380.0
X1.6279A-167.2567 F380.0
X1.7422A-156.1086 F380.0
X1.7998A-150.6529 F380.0
X1.8577A-145.3030 F380.0
X1.9161A-140.0790 F380.0
X1.9749A-135.0011 F380.0
X1.9749A-135.0000 F50.0
G1Z-0.0929F6.5
G1X1.9749A-135.0011 F380.0
X1.9161A-140.0790 F380.0
X1.8577A-145.3030 F380.0
X1.7998A-150.6529 F380.0
X1.7422A-156.1086 F380.0
X1.6279A-167.2567 F380.0
X1.5141A-178.5862 F380.0
X1.4005A-189.9357 F380.0
X1.3435A-195.5677 F380.0
X1.2863A-201.1442 F380.0
X1.2289A-206.6451 F380.0
X1.1712A-212.0502 F380.0
X1.1130A-217.3395 F380.0
X1.0545A-222.4928 F380.0
X0.9954A-227.4898 F380.0
X0.9357A-232.3105 F380.0
X0.8753A-236.9347 F380.0
X0.8449A-239.1669 F380.0
X0.8142A-241.3423 F380.0
X0.7834A-243.4585 F380.0
X0.7523A-245.5131 F380.0
X0.7211A-247.5034 F380.0
X0.6896A-249.4269 F380.0
X0.6579A-251.2811 F380.0
X0.6259A-253.0636 F380.0
X0.5937A-254.7717 F380.0
X0.5613A-256.4031 F380.0
X0.5286A-257.9550 F380.0
X0.4956A-259.4251 F380.0
X0.4623A-260.8108 F380.0
X0.4287A-262.1096 F380.0
X0.3948A-263.3190 F380.0
X0.3606A-264.4364 F380.0
X0.3261A-265.4593 F380.0
X0.2913A-266.3853 F380.0
X0.2562A-267.2118 F380.0
X0.2207A-267.9362 F380.0
X0.1848A-268.5561 F380.0
X0.1486A-269.0689 F380.0
X0.1120A-269.4722 F50.0
X0.0751A-269.7634 F50.0
X0.0377A-269.9399 F50.0
X0.0000A-269.9993 F50.0
G1Z-0.1000F6.5
G1X0.0377A-269.9399 F50.0
X0.0751A-269.7634 F50.0
X0.1120A-269.4722 F50.0
X0.1486A-269.0689 F50.0
X0.1848A-268.5561 F380.0
X0.2207A-267.9362 F380.0
X0.2562A-267.2118 F380.0
X0.2913A-266.3853 F380.0
X0.3261A-265.4593 F380.0
X0.3606A-264.4364 F380.0
X0.3948A-263.3190 F380.0
X0.4287A-262.1096 F380.0
X0.4623A-260.8108 F380.0
X0.4956A-259.4251 F380.0
X0.5286A-257.9550 F380.0
X0.5613A-256.4031 F380.0
X0.5937A-254.7717 F380.0
X0.6259A-253.0636 F380.0
X0.6579A-251.2811 F380.0
X0.6896A-249.4269 F380.0
X0.7211A-247.5034 F380.0
X0.7523A-245.5131 F380.0
X0.7834A-243.4585 F380.0
X0.8142A-241.3423 F380.0
X0.8449A-239.1669 F380.0
X0.8753A-236.9347 F380.0
X0.9357A-232.3105 F380.0
X0.9954A-227.4898 F380.0
X1.0545A-222.4928 F380.0
X1.1130A-217.3395 F380.0
X1.1712A-212.0502 F380.0
X1.2289A-206.6451 F380.0
X1.2863A-201.1442 F380.0
X1.3435A-195.5677 F380.0
X1.4005A-189.9357 F380.0
X1.5141A-178.5862 F380.0
X1.6279A-167.2567 F380.0
X1.7422A-156.1086 F380.0
X1.7998A-150.6529 F380.0
X1.8577A-145.3030 F380.0
X1.9161A-140.0790 F380.0
X1.9749A-135.0011 F380.0
X1.9749A-135.0000 F50.0
G0Z0.2000
G0X1.9749A-225.0000
G1Z-0.0071F6.5
G1X1.9749A-225.0022 F380.0
X1.9161A-230.0801 F380.0
X1.8577A-235.3041 F380.0
X1.7998A-240.6540 F380.0
X1.7422A-246.1097 F380.0
X1.6279A-257.2578 F380.0
X1.5141A-268.5871 F380.0
X1.4005A-279.9365 F380.0
X1.3435A-285.5684 F380.0
X1.2863A-291.1448 F380.0
X1.2289A-296.6456 F380.0
X1.1712A-302.0507 F380.0
X1.1131A-307.3399 F380.0
X1.0545A-312.4930 F380.0
X0.9954A-317.4900 F380.0
X0.9357A-322.3106 F380.0
X0.8753A-326.9348 F380.0
X0.8449A-329.1668 F380.0
X0.8142A-331.3422 F380.0
X0.7834A-333.4584 F380.0
X0.7524A-335.5129 F380.0
X0.7211A-337.5031 F380.0
X0.6896A-339.4266 F380.0
X0.6579A-341.2809 F380.0
X0.6260A-343.0633 F380.0
X0.5938A-344.7714 F380.0
X0.5613A-346.4027 F380.0
X0.5286A-347.9546 F380.0
X0.4956A-349.4247 F380.0
X0.4623A-350.8103 F380.0
X0.4287A-352.1091 F380.0
X0.3948A-353.3184 F380.0
X0.3607A-354.4358 F380.0
X0.3262A-355.4588 F380.0
X0.2913A-356.3847 F380.0
X0.2562A-357.2111 F380.0
X0.2207A-357.9356 F380.0
X0.1848A-358.5555 F380.0
X0.1486A-359.0683 F380.0
X0.1120A-359.4715 F50.0
X0.0751A-359.7627 F50.0
X0.0377A-359.9392 F50.0
X0.0000A-359.9986 F50.0
G1Z-0.0143F6.5
G1X0.0377A-359.9392 F50.0
X0.0751A-359.7627 F50.0
X0.1120A-359.4715 F50.0
X0.1486A-359.0683 F50.0
X0.1848A-358.5555 F380.0
X0.2207A-357.9356 F380.0
X0.2562A-357.2111 F380.0
X0.2913A-356.3847 F380.0
X0.3262A-355.4588 F380.0
X0.3607A-354.4358 F380.0
X0.3948A-353.3184 F380.0
X0.4287A-352.1091 F380.0
X0.4623A-350.8103 F380.0
X0.4956A-349.4247 F380.0
X0.5286A-347.9546 F380.0
X0.5613A-346.4027 F380.0
X0.5938A-344.7714 F380.0
X0.6260A-343.0633 F380.0
X0.6579A-341.2809 F380.0
X0.6896A-339.4266 F380.0
X0.7211A-337.5031 F380.0
X0.7524A-335.5129 F380.0
X0.7834A-333.4584 F380.0
X0.8142A-331.3422 F380.0
X0.8449A-329.1668 F380.0
X0.8753A-326.9348 F380.0
X0.9357A-322.3106 F380.0
X0.9954A-317.4900 F380.0
X1.0545A-312.4930 F380.0
X1.1131A-307.3399 F380.0
X1.1712A-302.0507 F380.0
X1.2289A-296.6456 F380.0
X1.2863A-291.1448 F380.0
X1.3435A-285.5684 F380.0
X1.4005A-279.9365 F380.0
X1.5141A-268.5871 F380.0
X1.6279A-257.2578 F380.0
X1.7422A-246.1097 F380.0
X1.7998A-240.6540 F380.0
X1.8577A-235.3041 F380.0
X1.9161A-230.0801 F380.0
X1.9749A-225.0022 F380.0
X1.9749A-225.0000 F50.0
G1Z-0.0214F6.5
G1X1.9749A-225.0022 F380.0
X1.9161A-230.0801 F380.0
X1.8577A-235.3041 F380.0
X1.7998A-240.6540 F380.0
X1.7422A-246.1097 F380.0
X1.6279A-257.2578 F380.0
X1.5141A-268.5871 F380.0
X1.4005A-279.9365 F380.0
X1.3435A-285.5684 F380.0
X1.2863A-291.1448 F380.0
X1.2289A-296.6456 F380.0
X1.1712A-302.0507 F380.0
X1.1131A-307.3399 F380.0
X1.0545A-312.4930 F380.0
X0.9954A-317.4900 F380.0
X0.9357A-322.3106 F380.0
X0.8753A-326.9348 F380.0
X0.8449A-329.1668 F380.0
X0.8142A-331.3422 F380.0
X0.7834A-333.4584 F380.0
X0.7524A-335.5129 F380.0
X0.7211A-337.5031 F380.0
X0.6896A-339.4266 F380.0
X0.6579A-341.2809 F380.0
X0.6260A-343.0633 F380.0
X0.5938A-344.7714 F380.0
X0.5613A-346.4027 F380.0
X0.5286A-347.9546 F380.0
X0.4956A-349.4247 F380.0
X0.4623A-350.8103 F380.0
X0.4287A-352.1091 F380.0
X0.3948A-353.3184 F380.0
X0.3607A-354.4358 F380.0
X0.3262A-355.4588 F380.0
X0.2913A-356.3847 F380.0
X0.2562A-357.2111 F380.0
X0.2207A-357.9356 F380.0
X0.1848A-358.5555 F380.0
X0.1486A-359.0683 F380.0
X0.1120A-359.4715 F50.0
X0.0751A-359.7627 F50.0
X0.0377A-359.9392 F50.0
X0.0000A-359.9986 F50.0
G1Z-0.0286F6.5
G1X0.0377A-359.9392 F50.0
X0.0751A-359.7627 F50.0
X0.1120A-359.4715 F50.0
X0.1486A-359.0683 F50.0
X0.1848A-358.5555 F380.0
X0.2207A-357.9356 F380.0
X0.2562A-357.2111 F380.0
X0.2913A-356.3847 F380.0
X0.3262A-355.4588 F380.0
X0.3607A-354.4358 F380.0
X0.3948A-353.3184 F380.0
X0.4287A-352.1091 F380.0
X0.4623A-350.8103 F380.0
X0.4956A-349.4247 F380.0
X0.5286A-347.9546 F380.0
X0.5613A-346.4027 F380.0
X0.5938A-344.7714 F380.0
X0.6260A-343.0633 F380.0
X0.6579A-341.2809 F380.0
X0.6896A-339.4266 F380.0
X0.7211A-337.5031 F380.0
X0.7524A-335.5129 F380.0
X0.7834A-333.4584 F380.0
X0.8142A-331.3422 F380.0
X0.8449A-329.1668 F380.0
X0.8753A-326.9348 F380.0
X0.9357A-322.3106 F380.0
X0.9954A-317.4900 F380.0
X1.0545A-312.4930 F380.0
X1.1131A-307.3399 F380.0
X1.1712A-302.0507 F380.0
X1.2289A-296.6456 F380.0
X1.2863A-291.1448 F380.0
X1.3435A-285.5684 F380.0
X1.4005A-279.9365 F380.0
X1.5141A-268.5871 F380.0
X1.6279A-257.2578 F380.0
X1.7422A-246.1097 F380.0
X1.7998A-240.6540 F380.0
X1.8577A-235.3041 F380.0
X1.9161A-230.0801 F380.0
X1.9749A-225.0022 F380.0
X1.9749A-225.0000 F50.0
G1Z-0.0357F6.5
G1X1.9749A-225.0022 F380.0
X1.9161A-230.0801 F380.0
X1.8577A-235.3041 F380.0
X1.7998A-240.6540 F380.0
X1.7422A-246.1097 F380.0
X1.6279A-257.2578 F380.0
X1.5141A-268.5871 F380.0
X1.4005A-279.9365 F380.0
X1.3435A-285.5684 F380.0
X1.2863A-291.1448 F380.0
X1.2289A-296.6456 F380.0
X1.1712A-302.0507 F380.0
X1.1131A-307.3399 F380.0
X1.0545A-312.4930 F380.0
X0.9954A-317.4900 F380.0
X0.9357A-322.3106 F380.0
X0.8753A-326.9348 F380.0
X0.8449A-329.1668 F380.0
X0.8142A-331.3422 F380.0
X0.7834A-333.4584 F380.0
X0.7524A-335.5129 F380.0
X0.7211A-337.5031 F380.0
X0.6896A-339.4266 F380.0
X0.6579A-341.2809 F380.0
X0.6260A-343.0633 F380.0
X0.5938A-344.7714 F380.0
X0.5613A-346.4027 F380.0
X0.5286A-347.9546 F380.0
X0.4956A-349.4247 F380.0
X0.4623A-350.8103 F380.0
X0.4287A-352.1091 F380.0
X0.3948A-353.3184 F380.0
X0.3607A-354.4358 F380.0
X0.3262A-355.4588 F380.0
X0.2913A-356.3847 F380.0
X0.2562A-357.2111 F380.0
X0.2207A-357.9356 F380.0
X0.1848A-358.5555 F380.0
X0.1486A-359.0683 F380.0
X0.1120A-359.4715 F50.0
X0.0751A-359.7627 F50.0
X0.0377A-359.9392 F50.0
X0.0000A-359.9986 F50.0
G1Z-0.0429F6.5
G1X0.0377A-359.9392 F50.0
X0.0751A-359.7627 F50.0
X0.1120A-359.4715 F50.0
X0.1486A-359.0683 F50.0
X0.1848A-358.5555 F380.0
X0.2207A-357.9356 F380.0
X0.2562A-357.2111 F380.0
X0.2913A-356.3847 F380.0
X0.3262A-355.4588 F380.0
X0.3607A-354.4358 F380.0
X0.3948A-353.3184 F380.0
X0.4287A-352.1091 F380.0
X0.4623A-350.8103 F380.0
X0.4956A-349.4247 F380.0
X0.5286A-347.9546 F380.0
X0.5613A-346.4027 F380.0
X0.5938A-344.7714 F380.0
X0.6260A-343.0633 F380.0
X0.6579A-341.2809 F380.0
X0.6896A-339.4266 F380.0
X0.7211A-337.5031 F380.0
X0.7524A-335.5129 F380.0
X0.7834A-333.4584 F380.0
X0.8142A-331.3422 F380.0
X0.8449A-329.1668 F380.0
X0.8753A-326.9348 F380.0
X0.9357A-322.3106 F380.0
X0.9954A-317.4900 F380.0
X1.0545A-312.4930 F380.0
X1.1131A-307.3399 F380.0
X1.1712A-302.0507 F380.0
X1.2289A-296.6456 F380.0
X1.2863A-291.1448 F380.0
X1.3435A-285.5684 F380.0
X1.4005A-279.9365 F380.0
X1.5141A-268.5871 F380.0
X1.6279A-257.2578 F380.0
X1.7422A-246.1097 F380.0
X1.7998A-240.6540 F380.0
X1.8577A-235.3041 F380.0
X1.9161A-230.0801 F380.0
X1.9749A-225.0022 F380.0
X1.9749A-225.0000 F50.0
G1Z-0.0500F6.5
G1X1.9749A-225.0022 F380.0
X1.9161A-230.0801 F380.0
X1.8577A-235.3041 F380.0
X1.7998A-240.6540 F380.0
X1.7422A-246.1097 F380.0
X1.6279A-257.2578 F380.0
X1.5141A-268.5871 F380.0
X1.4005A-279.9365 F380.0
X1.3435A-285.5684 F380.0
X1.2863A-291.1448 F380.0
X1.2289A-296.6456 F380.0
X1.1712A-302.0507 F380.0
X1.1131A-307.3399 F380.0
X1.0545A-312.4930 F380.0
X0.9954A-317.4900 F380.0
X0.9357A-322.3106 F380.0
X0.8753A-326.9348 F380.0
X0.8449A-329.1668 F380.0
X0.8142A-331.3422 F380.0
X0.7834A-333.4584 F380.0
X0.7524A-335.5129 F380.0
X0.7211A-337.5031 F380.0
X0.6896A-339.4266 F380.0
X0.6579A-341.2809 F380.0
X0.6260A-343.0633 F380.0
X0.5938A-344.7714 F380.0
X0.5613A-346.4027 F380.0
X0.5286A-347.9546 F380.0
X0.4956A-349.4247 F380.0
X0.4623A-350.8103 F380.0
X0.4287A-352.1091 F380.0
X0.3948A-353.3184 F380.0
X0.3607A-354.4358 F380.0
X0.3262A-355.4588 F380.0
X0.2913A-356.3847 F380.0
X0.2562A-357.2111 F380.0
X0.2207A-357.9356 F380.0
X0.1848A-358.5555 F380.0
X0.1486A-359.0683 F380.0
X0.1120A-359.4715 F50.0
X0.0751A-359.7627 F50.0
X0.0377A-359.9392 F50.0
X0.0000A-359.9986 F50.0
G1Z-0.0571F6.5
G1X0.0377A-359.9392 F50.0
X0.0751A-359.7627 F50.0
X0.1120A-359.4715 F50.0
X0.1486A-359.0683 F50.0
X0.1848A-358.5555 F380.0
X0.2207A-357.9356 F380.0
X0.2562A-357.2111 F380.0
X0.2913A-356.3847 F380.0
X0.3262A-355.4588 F380.0
X0.3607A-354.4358 F380.0
X0.3948A-353.3184 F380.0
X0.4287A-352.1091 F380.0
X0.4623A-350.8103 F380.0
X0.4956A-349.4247 F380.0
X0.5286A-347.9546 F380.0
X0.5613A-346.4027 F380.0
X0.5938A-344.7714 F380.0
X0.6260A-343.0633 F380.0
X0.6579A-341.2809 F380.0
X0.6896A-339.4266 F380.0
X0.7211A-337.5031 F380.0
X0.7524A-335.5129 F380.0
X0.7834A-333.4584 F380.0
X0.8142A-331.3422 F380.0
X0.8449A-329.1668 F380.0
X0.8753A-326.9348 F380.0
X0.9357A-322.3106 F380.0
X0.9954A-317.4900 F380.0
X1.0545A-312.4930 F380.0
X1.1131A-307.3399 F380.0
X1.1712A-302.0507 F380.0
X1.2289A-296.6456 F380.0
X1.2863A-291.1448 F380.0
X1.3435A-285.5684 F380.0
X1.4005A-279.9365 F380.0
X1.5141A-268.5871 F380.0
X1.6279A-257.2578 F380.0
X1.7422A-246.1097 F380.0
X1.7998A-240.6540 F380.0
X1.8577A-235.3041 F380.0
X1.9161A-230.0801 F380.0
X1.9749A-225.0022 F380.0
X1.9749A-225.0000 F50.0
G1Z-0.0643F6.5
G1X1.9749A-225.0022 F380.0
X1.9161A-230.0801 F380.0
X1.8577A-235.3041 F380.0
X1.7998A-240.6540 F380.0
X1.7422A-246.1097 F380.0
X1.6279A-257.2578 F380.0
X1.5141A-268.5871 F380.0
X1.4005A-279.9365 F380.0
X1.3435A-285.5684 F380.0
X1.2863A-291.1448 F380.0
X1.2289A-296.6456 F380.0
X1.1712A-302.0507 F380.0
X1.1131A-307.3399 F380.0
X1.0545A-312.4930 F380.0
X0.9954A-317.4900 F380.0
X0.9357A-322.3106 F380.0
X0.8753A-326.9348 F380.0
X0.8449A-329.1668 F380.0
X0.8142A-331.3422 F380.0
X0.7834A-333.4584 F380.0
X0.7524A-335.5129 F380.0
X0.7211A-337.5031 F380.0
X0.6896A-339.4266 F380.0
X0.6579A-341.2809 F380.0
X0.6260A-343.0633 F380.0
X0.5938A-344.7714 F380.0
X0.5613A-346.4027 F380.0
X0.5286A-347.9546 F380.0
X0.4956A-349.4247 F380.0
X0.4623A-350.8103 F380.0
X0.4287A-352.1091 F380.0
X0.3948A-353.3184 F380.0
X0.3607A-354.4358 F380.0
X0.3262A-355.4588 F380.0
X0.2913A-356.3847 F380.0
X0.2562A-357.2111 F380.0
X0.2207A-357.9356 F380.0
X0.1848A-358.5555 F380.0
X0.1486A-359.0683 F380.0
X0.1120A-359.4715 F50.0
X0.0751A-359.7627 F50.0
X0.0377A-359.9392 F50.0
X0.0000A-359.9986 F50.0
G1Z-0.0714F6.5
G1X0.0377A-359.9392 F50.0
X0.0751A-359.7627 F50.0
X0.1120A-359.4715 F50.0
X0.1486A-359.0683 F50.0
X0.1848A-358.5555 F380.0
X0.2207A-357.9356 F380.0
X0.2562A-357.2111 F380.0
X0.2913A-356.3847 F380.0
X0.3262A-355.4588 F380.0
X0.3607A-354.4358 F380.0
X0.3948A-353.3184 F380.0
X0.4287A-352.1091 F380.0
X0.4623A-350.8103 F380.0
X0.4956A-349.4247 F380.0
X0.5286A-347.9546 F380.0
X0.5613A-346.4027 F380.0
X0.5938A-344.7714 F380.0
X0.6260A-343.0633 F380.0
X0.6579A-341.2809 F380.0
X0.6896A-339.4266 F380.0
X0.7211A-337.5031 F380.0
X0.7524A-335.5129 F380.0
X0.7834A-333.4584 F380.0
X0.8142A-331.3422 F380.0
X0.8449A-329.1668 F380.0
X0.8753A-326.9348 F380.0
X0.9357A-322.3106 F380.0
X0.9954A-317.4900 F380.0
X1.0545A-312.4930 F380.0
X1.1131A-307.3399 F380.0
X1.1712A-302.0507 F380.0
X1.2289A-296.6456 F380.0
X1.2863A-291.1448 F380.0
X1.3435A-285.5684 F380.0
X1.4005A-279.9365 F380.0
X1.5141A-268.5871 F380.0
X1.6279A-257.2578 F380.0
X1.7422A-246.1097 F380.0
X1.7998A-240.6540 F380.0
X1.8577A-235.3041 F380.0
X1.9161A-230.0801 F380.0
X1.9749A-225.0022 F380.0
X1.9749A-225.0000 F50.0
G1Z-0.0786F6.5
G1X1.9749A-225.0022 F380.0
X1.9161A-230.0801 F380.0
X1.8577A-235.3041 F380.0
X1.7998A-240.6540 F380.0
X1.7422A-246.1097 F380.0
X1.6279A-257.2578 F380.0
X1.5141A-268.5871 F380.0
X1.4005A-279.9365 F380.0
X1.3435A-285.5684 F380.0
X1.2863A-291.1448 F380.0
X1.2289A-296.6456 F380.0
X1.1712A-302.0507 F380.0
X1.1131A-307.3399 F380.0
X1.0545A-312.4930 F380.0
X0.9954A-317.4900 F380.0
X0.9357A-322.3106 F380.0
X0.8753A-326.9348 F380.0
X0.8449A-329.1668 F380.0
X0.8142A-331.3422 F380.0
X0.7834A-333.4584 F380.0
X0.7524A-335.5129 F380.0
X0.7211A-337.5031 F380.0
X0.6896A-339.4266 F380.0
X0.6579A-341.2809 F380.0
X0.6260A-343.0633 F380.0
X0.5938A-344.7714 F380.0
X0.5613A-346.4027 F380.0
X0.5286A-347.9546 F380.0
X0.4956A-349.4247 F380.0
X0.4623A-350.8103 F380.0
X0.4287A-352.1091 F380.0
X0.3948A-353.3184 F380.0
X0.3607A-354.4358 F380.0
X0.3262A-355.4588 F380.0
X0.2913A-356.3847 F380.0
X0.2562A-357.2111 F380.0
X0.2207A-357.9356 F380.0
X0.1848A-358.5555 F380.0
X0.1486A-359.0683 F380.0
X0.1120A-359.4715 F50.0
X0.0751A-359.7627 F50.0
X0.0377A-359.9392 F50.0
X0.0000A-359.9986 F50.0
G1Z-0.0857F6.5
G1X0.0377A-359.9392 F50.0
X0.0751A-359.7627 F50.0
X0.1120A-359.4715 F50.0
X0.1486A-359.0683 F50.0
X0.1848A-358.5555 F380.0
X0.2207A-357.9356 F380.0
X0.2562A-357.2111 F380.0
X0.2913A-356.3847 F380.0
X0.3262A-355.4588 F380.0
X0.3607A-354.4358 F380.0
X0.3948A-353.3184 F380.0
X0.4287A-352.1091 F380.0
X0.4623A-350.8103 F380.0
X0.4956A-349.4247 F380.0
X0.5286A-347.9546 F380.0
X0.5613A-346.4027 F380.0
X0.5938A-344.7714 F380.0
X0.6260A-343.0633 F380.0
X0.6579A-341.2809 F380.0
X0.6896A-339.4266 F380.0
X0.7211A-337.5031 F380.0
X0.7524A-335.5129 F380.0
X0.7834A-333.4584 F380.0
X0.8142A-331.3422 F380.0
X0.8449A-329.1668 F380.0
X0.8753A-326.9348 F380.0
X0.9357A-322.3106 F380.0
X0.9954A-317.4900 F380.0
X1.0545A-312.4930 F380.0
X1.1131A-307.3399 F380.0
X1.1712A-302.0507 F380.0
X1.2289A-296.6456 F380.0
X1.2863A-291.1448 F380.0
X1.3435A-285.5684 F380.0
X1.4005A-279.9365 F380.0
X1.5141A-268.5871 F380.0
X1.6279A-257.2578 F380.0
X1.7422A-246.1097 F380.0
X1.7998A-240.6540 F380.0
X1.8577A-235.3041 F380.0
X1.9161A-230.0801 F380.0
X1.9749A-225.0022 F380.0
X1.9749A-225.0000 F50.0
G1Z-0.0929F6.5
G1X1.9749A-225.0022 F380.0
X1.9161A-230.0801 F380.0
X1.8577A-235.3041 F380.0
X1.7998A-240.6540 F380.0
X1.7422A-246.1097 F380.0
X1.6279A-257.2578 F380.0
X1.5141A-268.5871 F380.0
X1.4005A-279.9365 F380.0
X1.3435A-285.5684 F380.0
X1.2863A-291.1448 F380.0
X1.2289A-296.6456 F380.0
X1.1712A-302.0507 F380.0
X1.1131A-307.3399 F380.0
X1.0545A-312.4930 F380.0
X0.9954A-317.4900 F380.0
X0.9357A-322.3106 F380.0
X0.8753A-326.9348 F380.0
X0.8449A-329.1668 F380.0
X0.8142A-331.3422 F380.0
X0.7834A-333.4584 F380.0
X0.7524A-335.5129 F380.0
X0.7211A-337.5031 F380.0
X0.6896A-339.4266 F380.0
X0.6579A-341.2809 F380.0
X0.6260A-343.0633 F380.0
X0.5938A-344.7714 F380.0
X0.5613A-346.4027 F380.0
X0.5286A-347.9546 F380.0
X0.4956A-349.4247 F380.0
X0.4623A-350.8103 F380.0
X0.4287A-352.1091 F380.0
X0.3948A-353.3184 F380.0
X0.3607A-354.4358 F380.0
X0.3262A-355.4588 F380.0
X0.2913A-356.3847 F380.0
X0.2562A-357.2111 F380.0
X0.2207A-357.9356 F380.0
X0.1848A-358.5555 F380.0
X0.1486A-359.0683 F380.0
X0.1120A-359.4715 F50.0
X0.0751A-359.7627 F50.0
X0.0377A-359.9392 F50.0
X0.0000A-359.9986 F50.0
G1Z-0.1000F6.5
G1X0.0377A-359.9392 F50.0
X0.0751A-359.7627 F50.0
X0.1120A-359.4715 F50.0
X0.1486A-359.0683 F50.0
X0.1848A-358.5555 F380.0
X0.2207A-357.9356 F380.0
X0.2562A-357.2111 F380.0
X0.2913A-356.3847 F380.0
X0.3262A-355.4588 F380.0
X0.3607A-354.4358 F380.0
X0.3948A-353.3184 F380.0
X0.4287A-352.1091 F380.0
X0.4623A-350.8103 F380.0
X0.4956A-349.4247 F380.0
X0.5286A-347.9546 F380.0
X0.5613A-346.4027 F380.0
X0.5938A-344.7714 F380.0
X0.6260A-343.0633 F380.0
X0.6579A-341.2809 F380.0
X0.6896A-339.4266 F380.0
X0.7211A-337.5031 F380.0
X0.7524A-335.5129 F380.0
X0.7834A-333.4584 F380.0
X0.8142A-331.3422 F380.0
X0.8449A-329.1668 F380.0
X0.8753A-326.9348 F380.0
X0.9357A-322.3106 F380.0
X0.9954A-317.4900 F380.0
X1.0545A-312.4930 F380.0
X1.1131A-307.3399 F380.0
X1.1712A-302.0507 F380.0
X1.2289A-296.6456 F380.0
X1.2863A-291.1448 F380.0
X1.3435A-285.5684 F380.0
X1.4005A-279.9365 F380.0
X1.5141A-268.5871 F380.0
X1.6279A-257.2578 F380.0
X1.7422A-246.1097 F380.0
X1.7998A-240.6540 F380.0
X1.8577A-235.3041 F380.0
X1.9161A-230.0801 F380.0
X1.9749A-225.0022 F380.0
X1.9749A-225.0000 F50.0
G0Z0.2000
G0X1.9749A-315.0000
G1Z-0.0071F6.5
G1X1.9749A-315.0009 F380.0
X1.9161A-320.0788 F380.0
X1.8577A-325.3027 F380.0
X1.7998A-330.6527 F380.0
X1.7422A-336.1084 F380.0
X1.6279A-347.2564 F380.0
X1.5141A-358.5858 F380.0
X1.4005A-369.9353 F380.0
X1.3435A-375.5672 F380.0
X1.2863A-381.1436 F380.0
X1.2289A-386.6445 F380.0
X1.1712A-392.0496 F380.0
X1.1131A-397.3388 F380.0
X1.0545A-402.4920 F380.0
X0.9954A-407.4890 F380.0
X0.9357A-412.3097 F380.0
X0.8753A-416.9338 F380.0
X0.8449A-419.1659 F380.0
X0.8142A-421.3413 F380.0
X0.7834A-423.4576 F380.0
X0.7524A-425.5120 F380.0
X0.7211A-427.5023 F380.0
X0.6896A-429.4258 F380.0
X0.6579A-431.2800 F380.0
X0.6260A-433.0625 F380.0
X0.5937A-434.7706 F380.0
X0.5613A-436.4019 F380.0
X0.5286A-437.9538 F380.0
X0.4956A-439.4239 F380.0
X0.4623A-440.8096 F380.0
X0.4287A-442.1083 F380.0
X0.3948A-443.3177 F380.0
X0.3606A-444.4351 F380.0
X0.3261A-445.4580 F380.0
X0.2913A-446.3840 F380.0
X0.2562A-447.2104 F380.0
X0.2207A-447.9348 F380.0
X0.1848A-448.5548 F380.0
X0.1486A-449.0676 F380.0
X0.1120A-449.4709 F50.0
X0.0751A-449.7620 F50.0
X0.0377A-449.9385 F50.0
X0.0000A-449.9979 F50.0
G1Z-0.0143F6.5
G1X0.0377A-449.9385 F50.0
X0.0751A-449.7620 F50.0
X0.1120A-449.4709 F50.0
X0.1486A-449.0676 F50.0
X0.1848A-448.5548 F380.0
X0.2207A-447.9348 F380.0
X0.2562A-447.2104 F380.0
X0.2913A-446.3840 F380.0
X0.3261A-445.4580 F380.0
X0.3606A-444.4351 F380.0
X0.3948A-443.3177 F380.0
X0.4287A-442.1083 F380.0
X0.4623A-440.8096 F380.0
X0.4956A-439.4239 F380.0
X0.5286A-437.9538 F380.0
X0.5613A-436.4019 F380.0
X0.5937A-434.7706 F380.0
X0.6260A-433.0625 F380.0
X0.6579A-431.2800 F380.0
X0.6896A-429.4258 F380.0
X0.7211A-427.5023 F380.0
X0.7524A-425.5120 F380.0
X0.7834A-423.4576 F380.0
X0.8142A-421.3413 F380.0
X0.8449A-419.1659 F380.0
X0.8753A-416.9338 F380.0
X0.9357A-412.3097 F380.0
X0.9954A-407.4890 F380.0
X1.0545A-402.4920 F380.0
X1.1131A-397.3388 F380.0
X1.1712A-392.0496 F380.0
X1.2289A-386.6445 F380.0
X1.2863A-381.1436 F380.0
X1.3435A-375.5672 F380.0
X1.4005A-369.9353 F380.0
X1.5141A-358.5858 F380.0
X1.6279A-347.2564 F380.0
X1.7422A-336.1084 F380.0
X1.7998A-330.6527 F380.0
X1.8577A-325.3027 F380.0
X1.9161A-320.0788 F380.0
X1.9749A-315.0009 F380.0
X1.9749A-315.0000 F50.0
G1Z-0.0214F6.5
G1X1.9749A-315.0009 F380.0
X1.9161A-320.0788 F380.0
X1.8577A-325.3027 F380.0
X1.7998A-330.6527 F380.0
X1.7422A-336.1084 F380.0
X1.6279A-347.2564 F380.0
X1.5141A-358.5858 F380.0
X1.4005A-369.9353 F380.0
X1.3435A-375.5672 F380.0
X1.2863A-381.1436 F380.0
X1.2289A-386.6445 F380.0
X1.1712A-392.0496 F380.0
X1.1131A-397.3388 F380.0
X1.0545A-402.4920 F380.0
X0.9954A-407.4890 F380.0
X0.9357A-412.3097 F380.0
X0.8753A-416.9338 F380.0
X0.8449A-419.1659 F380.0
X0.8142A-421.3413 F380.0
X0.7834A-423.4576 F380.0
X0.7524A-425.5120 F380.0
X0.7211A-427.5023 F380.0
X0.6896A-429.4258 F380.0
X0.6579A-431.2800 F380.0
X0.6260A-433.0625 F380.0
X0.5937A-434.7706 F380.0
X0.5613A-436.4019 F380.0
X0.5286A-437.9538 F380.0
X0.4956A-439.4239 F380.0
X0.4623A-440.8096 F380.0
X0.4287A-442.1083 F380.0
X0.3948A-443.3177 F380.0
X0.3606A-444.4351 F380.0
X0.3261A-445.4580 F380.0
X0.2913A-446.3840 F380.0
X0.2562A-447.2104 F380.0
X0.2207A-447.9348 F380.0
X0.1848A-448.5548 F380.0
X0.1486A-449.0676 F380.0
X0.1120A-449.4709 F50.0
X0.0751A-449.7620 F50.0
X0.0377A-449.9385 F50.0
X0.0000A-449.9979 F50.0
G1Z-0.0286F6.5
G1X0.0377A-449.9385 F50.0
X0.0751A-449.7620 F50.0
X0.1120A-449.4709 F50.0
X0.1486A-449.0676 F50.0
X0.1848A-448.5548 F380.0
X0.2207A-447.9348 F380.0
X0.2562A-447.2104 F380.0
X0.2913A-446.3840 F380.0
X0.3261A-445.4580 F380.0
X0.3606A-444.4351 F380.0
X0.3948A-443.3177 F380.0
X0.4287A-442.1083 F380.0
X0.4623A-440.8096 F380.0
X0.4956A-439.4239 F380.0
X0.5286A-437.9538 F380.0
X0.5613A-436.4019 F380.0
X0.5937A-434.7706 F380.0
X0.6260A-433.0625 F380.0
X0.6579A-431.2800 F380.0
X0.6896A-429.4258 F380.0
X0.7211A-427.5023 F380.0
X0.7524A-425.5120 F380.0
X0.7834A-423.4576 F380.0
X0.8142A-421.3413 F380.0
X0.8449A-419.1659 F380.0
X0.8753A-416.9338 F380.0
X0.9357A-412.3097 F380.0
X0.9954A-407.4890 F380.0
X1.0545A-402.4920 F380.0
X1.1131A-397.3388 F380.0
X1.1712A-392.0496 F380.0
X1.2289A-386.6445 F380.0
X1.2863A-381.1436 F380.0
X1.3435A-375.5672 F380.0
X1.4005A-369.9353 F380.0
X1.5141A-358.5858 F380.0
X1.6279A-347.2564 F380.0
X1.7422A-336.1084 F380.0
X1.7998A-330.6527 F380.0
X1.8577A-325.3027 F380.0
X1.9161A-320.0788 F380.0
X1.9749A-315.0009 F380.0
X1.9749A-315.0000 F50.0
G1Z-0.0357F6.5
G1X1.9749A-315.0009 F380.0
X1.9161A-320.0788 F380.0
X1.8577A-325.3027 F380.0
X1.7998A-330.6527 F380.0
X1.7422A-336.1084 F380.0
X1.6279A-347.2564 F380.0
X1.5141A-358.5858 F380.0
X1.4005A-369.9353 F380.0
X1.3435A-375.5672 F380.0
X1.2863A-381.1436 F380.0
X1.2289A-386.6445 F380.0
X1.1712A-392.0496 F380.0
X1.1131A-397.3388 F380.0
X1.0545A-402.4920 F380.0
X0.9954A-407.4890 F380.0
X0.9357A-412.3097 F380.0
X0.8753A-416.9338 F380.0
X0.8449A-419.1659 F380.0
X0.8142A-421.3413 F380.0
X0.7834A-423.4576 F380.0
X0.7524A-425.5120 F380.0
X0.7211A-427.5023 F380.0
X0.6896A-429.4258 F380.0
X0.6579A-431.2800 F380.0
X0.6260A-433.0625 F380.0
X0.5937A-434.7706 F380.0
X0.5613A-436.4019 F380.0
X0.5286A-437.9538 F380.0
X0.4956A-439.4239 F380.0
X0.4623A-440.8096 F380.0
X0.4287A-442.1083 F380.0
X0.3948A-443.3177 F380.0
X0.3606A-444.4351 F380.0
X0.3261A-445.4580 F380.0
X0.2913A-446.3840 F380.0
X0.2562A-447.2104 F380.0
X0.2207A-447.9348 F380.0
X0.1848A-448.5548 F380.0
X0.1486A-449.0676 F380.0
X0.1120A-449.4709 F50.0
X0.0751A-449.7620 F50.0
X0.0377A-449.9385 F50.0
X0.0000A-449.9979 F50.0
G1Z-0.0429F6.5
G1X0.0377A-449.9385 F50.0
X0.0751A-449.7620 F50.0
X0.1120A-449.4709 F50.0
X0.1486A-449.0676 F50.0
X0.1848A-448.5548 F380.0
X0.2207A-447.9348 F380.0
X0.2562A-447.2104 F380.0
X0.2913A-446.3840 F380.0
X0.3261A-445.4580 F380.0
X0.3606A-444.4351 F380.0
X0.3948A-443.3177 F380.0
X0.4287A-442.1083 F380.0
X0.4623A-440.8096 F380.0
X0.4956A-439.4239 F380.0
X0.5286A-437.9538 F380.0
X0.5613A-436.4019 F380.0
X0.5937A-434.7706 F380.0
X0.6260A-433.0625 F380.0
X0.6579A-431.2800 F380.0
X0.6896A-429.4258 F380.0
X0.7211A-427.5023 F380.0
X0.7524A-425.5120 F380.0
X0.7834A-423.4576 F380.0
X0.8142A-421.3413 F380.0
X0.8449A-419.1659 F380.0
X0.8753A-416.9338 F380.0
X0.9357A-412.3097 F380.0
X0.9954A-407.4890 F380.0
X1.0545A-402.4920 F380.0
X1.1131A-397.3388 F380.0
X1.1712A-392.0496 F380.0
X1.2289A-386.6445 F380.0
X1.2863A-381.1436 F380.0
X1.3435A-375.5672 F380.0
X1.4005A-369.9353 F380.0
X1.5141A-358.5858 F380.0
X1.6279A-347.2564 F380.0
X1.7422A-336.1084 F380.0
X1.7998A-330.6527 F380.0
X1.8577A-325.3027 F380.0
X1.9161A-320.0788 F380.0
X1.9749A-315.0009 F380.0
X1.9749A-315.0000 F50.0
G1Z-0.0500F6.5
G1X1.9749A-315.0009 F380.0
X1.9161A-320.0788 F380.0
X1.8577A-325.3027 F380.0
X1.7998A-330.6527 F380.0
X1.7422A-336.1084 F380.0
X1.6279A-347.2564 F380.0
X1.5141A-358.5858 F380.0
X1.4005A-369.9353 F380.0
X1.3435A-375.5672 F380.0
X1.2863A-381.1436 F380.0
X1.2289A-386.6445 F380.0
X1.1712A-392.0496 F380.0
X1.1131A-397.3388 F380.0
X1.0545A-402.4920 F380.0
X0.9954A-407.4890 F380.0
X0.9357A-412.3097 F380.0
X0.8753A-416.9338 F380.0
X0.8449A-419.1659 F380.0
X0.8142A-421.3413 F380.0
X0.7834A-423.4576 F380.0
X0.7524A-425.5120 F380.0
X0.7211A-427.5023 F380.0
X0.6896A-429.4258 F380.0
X0.6579A-431.2800 F380.0
X0.6260A-433.0625 F380.0
X0.5937A-434.7706 F380.0
X0.5613A-436.4019 F380.0
X0.5286A-437.9538 F380.0
X0.4956A-439.4239 F380.0
X0.4623A-440.8096 F380.0
X0.4287A-442.1083 F380.0
X0.3948A-443.3177 F380.0
X0.3606A-444.4351 F380.0
X0.3261A-445.4580 F380.0
X0.2913A-446.3840 F380.0
X0.2562A-447.2104 F380.0
X0.2207A-447.9348 F380.0
X0.1848A-448.5548 F380.0
X0.1486A-449.0676 F380.0
X0.1120A-449.4709 F50.0
X0.0751A-449.7620 F50.0
X0.0377A-449.9385 F50.0
X0.0000A-449.9979 F50.0
G1Z-0.0571F6.5
G1X0.0377A-449.9385 F50.0
X0.0751A-449.7620 F50.0
X0.1120A-449.4709 F50.0
X0.1486A-449.0676 F50.0
X0.1848A-448.5548 F380.0
X0.2207A-447.9348 F380.0
X0.2562A-447.2104 F380.0
X0.2913A-446.3840 F380.0
X0.3261A-445.4580 F380.0
X0.3606A-444.4351 F380.0
X0.3948A-443.3177 F380.0
X0.4287A-442.1083 F380.0
X0.4623A-440.8096 F380.0
X0.4956A-439.4239 F380.0
X0.5286A-437.9538 F380.0
X0.5613A-436.4019 F380.0
X0.5937A-434.7706 F380.0
X0.6260A-433.0625 F380.0
X0.6579A-431.2800 F380.0
X0.6896A-429.4258 F380.0
X0.7211A-427.5023 F380.0
X0.7524A-425.5120 F380.0
X0.7834A-423.4576 F380.0
X0.8142A-421.3413 F380.0
X0.8449A-419.1659 F380.0
X0.8753A-416.9338 F380.0
X0.9357A-412.3097 F380.0
X0.9954A-407.4890 F380.0
X1.0545A-402.4920 F380.0
X1.1131A-397.3388 F380.0
X1.1712A-392.0496 F380.0
X1.2289A-386.6445 F380.0
X1.2863A-381.1436 F380.0
X1.3435A-375.5672 F380.0
X1.4005A-369.9353 F380.0
X1.5141A-358.5858 F380.0
X1.6279A-347.2564 F380.0
X1.7422A-336.1084 F380.0
X1.7998A-330.6527 F380.0
X1.8577A-325.3027 F380.0
X1.9161A-320.0788 F380.0
X1.9749A-315.0009 F380.0
X1.9749A-315.0000 F50.0
G1Z-0.0643F6.5
G1X1.9749A-315.0009 F380.0
X1.9161A-320.0788 F380.0
X1.8577A-325.3027 F380.0
X1.7998A-330.6527 F380.0
X1.7422A-336.1084 F380.0
X1.6279A-347.2564 F380.0
X1.5141A-358.5858 F380.0
X1.4005A-369.9353 F380.0
X1.3435A-375.5672 F380.0
X1.2863A-381.1436 F380.0
X1.2289A-386.6445 F380.0
X1.1712A-392.0496 F380.0
X1.1131A-397.3388 F380.0
X1.0545A-402.4920 F380.0
X0.9954A-407.4890 F380.0
X0.9357A-412.3097 F380.0
X0.8753A-416.9338 F380.0
X0.8449A-419.1659 F380.0
X0.8142A-421.3413 F380.0
X0.7834A-423.4576 F380.0
X0.7524A-425.5120 F380.0
X0.7211A-427.5023 F380.0
X0.6896A-429.4258 F380.0
X0.6579A-431.2800 F380.0
X0.6260A-433.0625 F380.0
X0.5937A-434.7706 F380.0
X0.5613A-436.4019 F380.0
X0.5286A-437.9538 F380.0
X0.4956A-439.4239 F380.0
X0.4623A-440.8096 F380.0
X0.4287A-442.1083 F380.0
X0.3948A-443.3177 F380.0
X0.3606A-444.4351 F380.0
X0.3261A-445.4580 F380.0
X0.2913A-446.3840 F380.0
X0.2562A-447.2104 F380.0
X0.2207A-447.9348 F380.0
X0.1848A-448.5548 F380.0
X0.1486A-449.0676 F380.0
X0.1120A-449.4709 F50.0
X0.0751A-449.7620 F50.0
X0.0377A-449.9385 F50.0
X0.0000A-449.9979 F50.0
G1Z-0.0714F6.5
G1X0.0377A-449.9385 F50.0
X0.0751A-449.7620 F50.0
X0.1120A-449.4709 F50.0
X0.1486A-449.0676 F50.0
X0.1848A-448.5548 F380.0
X0.2207A-447.9348 F380.0
X0.2562A-447.2104 F380.0
X0.2913A-446.3840 F380.0
X0.3261A-445.4580 F380.0
X0.3606A-444.4351 F380.0
X0.3948A-443.3177 F380.0
X0.4287A-442.1083 F380.0
X0.4623A-440.8096 F380.0
X0.4956A-439.4239 F380.0
X0.5286A-437.9538 F380.0
X0.5613A-436.4019 F380.0
X0.5937A-434.7706 F380.0
X0.6260A-433.0625 F380.0
X0.6579A-431.2800 F380.0
X0.6896A-429.4258 F380.0
X0.7211A-427.5023 F380.0
X0.7524A-425.5120 F380.0
X0.7834A-423.4576 F380.0
X0.8142A-421.3413 F380.0
X0.8449A-419.1659 F380.0
X0.8753A-416.9338 F380.0
X0.9357A-412.3097 F380.0
X0.9954A-407.4890 F380.0
X1.0545A-402.4920 F380.0
X1.1131A-397.3388 F380.0
X1.1712A-392.0496 F380.0
X1.2289A-386.6445 F380.0
X1.2863A-381.1436 F380.0
X1.3435A-375.5672 F380.0
X1.4005A-369.9353 F380.0
X1.5141A-358.5858 F380.0
X1.6279A-347.2564 F380.0
X1.7422A-336.1084 F380.0
X1.7998A-330.6527 F380.0
X1.8577A-325.3027 F380.0
X1.9161A-320.0788 F380.0
X1.9749A-315.0009 F380.0
X1.9749A-315.0000 F50.0
G1Z-0.0786F6.5
G1X1.9749A-315.0009 F380.0
X1.9161A-320.0788 F380.0
X1.8577A-325.3027 F380.0
X1.7998A-330.6527 F380.0
X1.7422A-336.1084 F380.0
X1.6279A-347.2564 F380.0
X1.5141A-358.5858 F380.0
X1.4005A-369.9353 F380.0
X1.3435A-375.5672 F380.0
X1.2863A-381.1436 F380.0
X1.2289A-386.6445 F380.0
X1.1712A-392.0496 F380.0
X1.1131A-397.3388 F380.0
X1.0545A-402.4920 F380.0
X0.9954A-407.4890 F380.0
X0.9357A-412.3097 F380.0
X0.8753A-416.9338 F380.0
X0.8449A-419.1659 F380.0
X0.8142A-421.3413 F380.0
X0.7834A-423.4576 F380.0
X0.7524A-425.5120 F380.0
X0.7211A-427.5023 F380.0
X0.6896A-429.4258 F380.0
X0.6579A-431.2800 F380.0
X0.6260A-433.0625 F380.0
X0.5937A-434.7706 F380.0
X0.5613A-436.4019 F380.0
X0.5286A-437.9538 F380.0
X0.4956A-439.4239 F380.0
X0.4623A-440.8096 F380.0
X0.4287A-442.1083 F380.0
X0.3948A-443.3177 F380.0
X0.3606A-444.4351 F380.0
X0.3261A-445.4580 F380.0
X0.2913A-446.3840 F380.0
X0.2562A-447.2104 F380.0
X0.2207A-447.9348 F380.0
X0.1848A-448.5548 F380.0
X0.1486A-449.0676 F380.0
X0.1120A-449.4709 F50.0
X0.0751A-449.7620 F50.0
X0.0377A-449.9385 F50.0
X0.0000A-449.9979 F50.0
G1Z-0.0857F6.5
G1X0.0377A-449.9385 F50.0
X0.0751A-449.7620 F50.0
X0.1120A-449.4709 F50.0
X0.1486A-449.0676 F50.0
X0.1848A-448.5548 F380.0
X0.2207A-447.9348 F380.0
X0.2562A-447.2104 F380.0
X0.2913A-446.3840 F380.0
X0.3261A-445.4580 F380.0
X0.3606A-444.4351 F380.0
X0.3948A-443.3177 F380.0
X0.4287A-442.1083 F380.0
X0.4623A-440.8096 F380.0
X0.4956A-439.4239 F380.0
X0.5286A-437.9538 F380.0
X0.5613A-436.4019 F380.0
X0.5937A-434.7706 F380.0
X0.6260A-433.0625 F380.0
X0.6579A-431.2800 F380.0
X0.6896A-429.4258 F380.0
X0.7211A-427.5023 F380.0
X0.7524A-425.5120 F380.0
X0.7834A-423.4576 F380.0
X0.8142A-421.3413 F380.0
X0.8449A-419.1659 F380.0
X0.8753A-416.9338 F380.0
X0.9357A-412.3097 F380.0
X0.9954A-407.4890 F380.0
X1.0545A-402.4920 F380.0
X1.1131A-397.3388 F380.0
X1.1712A-392.0496 F380.0
X1.2289A-386.6445 F380.0
X1.2863A-381.1436 F380.0
X1.3435A-375.5672 F380.0
X1.4005A-369.9353 F380.0
X1.5141A-358.5858 F380.0
X1.6279A-347.2564 F380.0
X1.7422A-336.1084 F380.0
X1.7998A-330.6527 F380.0
X1.8577A-325.3027 F380.0
X1.9161A-320.0788 F380.0
X1.9749A-315.0009 F380.0
X1.9749A-315.0000 F50.0
G1Z-0.0929F6.5
G1X1.9749A-315.0009 F380.0
X1.9161A-320.0788 F380.0
X1.8577A-325.3027 F380.0
X1.7998A-330.6527 F380.0
X1.7422A-336.1084 F380.0
X1.6279A-347.2564 F380.0
X1.5141A-358.5858 F380.0
X1.4005A-369.9353 F380.0
X1.3435A-375.5672 F380.0
X1.2863A-381.1436 F380.0
X1.2289A-386.6445 F380.0
X1.1712A-392.0496 F380.0
X1.1131A-397.3388 F380.0
X1.0545A-402.4920 F380.0
X0.9954A-407.4890 F380.0
X0.9357A-412.3097 F380.0
X0.8753A-416.9338 F380.0
X0.8449A-419.1659 F380.0
X0.8142A-421.3413 F380.0
X0.7834A-423.4576 F380.0
X0.7524A-425.5120 F380.0
X0.7211A-427.5023 F380.0
X0.6896A-429.4258 F380.0
X0.6579A-431.2800 F380.0
X0.6260A-433.0625 F380.0
X0.5937A-434.7706 F380.0
X0.5613A-436.4019 F380.0
X0.5286A-437.9538 F380.0
X0.4956A-439.4239 F380.0
X0.4623A-440.8096 F380.0
X0.4287A-442.1083 F380.0
X0.3948A-443.3177 F380.0
X0.3606A-444.4351 F380.0
X0.3261A-445.4580 F380.0
X0.2913A-446.3840 F380.0
X0.2562A-447.2104 F380.0
X0.2207A-447.9348 F380.0
X0.1848A-448.5548 F380.0
X0.1486A-449.0676 F380.0
X0.1120A-449.4709 F50.0
X0.0751A-449.7620 F50.0
X0.0377A-449.9385 F50.0
X0.0000A-449.9979 F50.0
G1Z-0.1000F6.5
G1X0.0377A-449.9385 F50.0
X0.0751A-449.7620 F50.0
X0.1120A-449.4709 F50.0
X0.1486A-449.0676 F50.0
X0.1848A-448.5548 F380.0
X0.2207A-447.9348 F380.0
X0.2562A-447.2104 F380.0
X0.2913A-446.3840 F380.0
X0.3261A-445.4580 F380.0
X0.3606A-444.4351 F380.0
X0.3948A-443.3177 F380.0
X0.4287A-442.1083 F380.0
X0.4623A-440.8096 F380.0
X0.4956A-439.4239 F380.0
X0.5286A-437.9538 F380.0
X0.5613A-436.4019 F380.0
X0.5937A-434.7706 F380.0
X0.6260A-433.0625 F380.0
X0.6579A-431.2800 F380.0
X0.6896A-429.4258 F380.0
X0.7211A-427.5023 F380.0
X0.7524A-425.5120 F380.0
X0.7834A-423.4576 F380.0
X0.8142A-421.3413 F380.0
X0.8449A-419.1659 F380.0
X0.8753A-416.9338 F380.0
X0.9357A-412.3097 F380.0
X0.9954A-407.4890 F380.0
X1.0545A-402.4920 F380.0
X1.1131A-397.3388 F380.0
X1.1712A-392.0496 F380.0
X1.2289A-386.6445 F380.0
X1.2863A-381.1436 F380.0
X1.3435A-375.5672 F380.0
X1.4005A-369.9353 F380.0
X1.5141A-358.5858 F380.0
X1.6279A-347.2564 F380.0
X1.7422A-336.1084 F380.0
X1.7998A-330.6527 F380.0
X1.8577A-325.3027 F380.0
X1.9161A-320.0788 F380.0
X1.9749A-315.0009 F380.0
X1.9749A-315.0000 F50.0
G0Z0.2000
G0X8.9975A-315.0026
G1Z-0.0071F6.5
G1X9.0002A-315.0028 F50.0
X9.0015A-315.0008 F50.0
X9.0002A-314.9987 F50.0
X8.9721A-315.0315 F50.0
X8.9443A-315.1292 F50.0
X8.9167A-315.2907 F50.0
X8.8893A-315.5151 F50.0
X8.8621A-315.8012 F50.0
X8.8351A-316.1482 F50.0
X8.8083A-316.5548 F50.0
X8.7817A-317.0202 F50.0
X8.7553A-317.5432 F380.0
X8.7291A-318.1230 F380.0
X8.7031A-318.7583 F380.0
X8.6773A-319.4482 F380.0
X8.6516A-320.1916 F380.0
X8.6261A-320.9876 F380.0
X8.5757A-322.7331 F380.0
X8.5259A-324.6763 F380.0
X8.4767A-326.8090 F380.0
X8.4282A-329.1230 F380.0
X8.3802A-331.6101 F380.0
X8.3328A-334.2619 F380.0
X8.2859A-337.0703 F380.0
X8.2395A-340.0269 F380.0
X8.1936A-343.1237 F380.0
X8.1481A-346.3523 F380.0
X8.1031A-349.7045 F380.0
X8.0584A-353.1721 F380.0
X8.0141A-356.7468 F380.0
X7.9701A-360.4203 F380.0
X7.9264A-364.1845 F380.0
X7.8830A-368.0311 F380.0
X7.8398A-371.9519 F380.0
X7.7541A-379.9828 F380.0
X7.6691A-388.2116 F380.0
X7.5002A-404.9987 F380.0
X7.4158A-413.4252 F380.0
X7.3312A-421.7858 F380.0
X7.2462A-430.0146 F380.0
X7.2035A-434.0589 F380.0
X7.1605A-438.0456 F380.0
X7.1174A-441.9663 F380.0
X7.0740A-445.8129 F380.0
X7.0303A-449.5771 F380.0
X6.9863A-453.2507 F380.0
X6.9420A-456.8253 F380.0
X6.8973A-460.2929 F380.0
X6.8522A-463.6451 F380.0
X6.8068A-466.8737 F380.0
X6.7608A-469.9705 F380.0
X6.7144A-472.9272 F380.0
X6.6676A-475.7356 F380.0
X6.6201A-478.3874 F380.0
X6.5722A-480.8744 F380.0
X6.5236A-483.1884 F380.0
X6.4745A-485.3211 F380.0
X6.4247A-487.2644 F380.0
X6.3742A-489.0098 F380.0
X6.3487A-489.8058 F380.0
X6.3231A-490.5493 F380.0
X6.2972A-491.2392 F380.0
X6.2712A-491.8745 F380.0
X6.2450A-492.4542 F380.0
X6.2186A-492.9772 F380.0
X6.1920A-493.4426 F50.0
X6.1652A-493.8493 F50.0
X6.1382A-494.1962 F50.0
X6.1111A-494.4823 F50.0
X6.0837A-494.7067 F50.0
X6.0560A-494.8683 F50.0
X6.0282A-494.9659 F50.0
X6.0002A-494.9987 F50.0
X5.9721A-494.9659 F50.0
X5.9443A-494.8683 F50.0
X5.9167A-494.7067 F50.0
X5.8893A-494.4823 F50.0
X5.8621A-494.1962 F50.0
X5.8351A-493.8493 F50.0
X5.8083A-493.4426 F50.0
X5.7817A-492.9772 F50.0
X5.7553A-492.4542 F380.0
X5.7291A-491.8745 F380.0
X5.7031A-491.2392 F380.0
X5.6773A-490.5493 F380.0
X5.6516A-489.8058 F380.0
X5.6261A-489.0098 F380.0
X5.5757A-487.2644 F380.0
X5.5259A-485.3211 F380.0
X5.4767A-483.1884 F380.0
X5.4282A-480.8744 F380.0
X5.3802A-478.3874 F380.0
X5.3328A-475.7356 F380.0
X5.2859A-472.9272 F380.0
X5.2395A-469.9705 F380.0
X5.1936A-466.8737 F380.0
X5.1481A-463.6451 F380.0
X5.1031A-460.2929 F380.0
X5.0584A-456.8253 F380.0
X5.0141A-453.2507 F380.0
X4.9701A-449.5771 F380.0
X4.9264A-445.8129 F380.0
X4.8830A-441.9663 F380.0
X4.8398A-438.0456 F380.0
X4.7541A-430.0146 F380.0
X4.6691A-421.7858 F380.0
X4.5002A-404.9987 F380.0
X4.4158A-396.5722 F380.0
X4.3312A-388.2116 F380.0
X4.2462A-379.9828 F380.0
X4.2035A-375.9385 F380.0
X4.1605A-371.9519 F380.0
X4.1174A-368.0311 F380.0
X4.0740A-364.1845 F380.0
X4.0303A-360.4203 F380.0
X3.9863A-356.7468 F380.0
X3.9420A-353.1721 F380.0
X3.8973A-349.7045 F380.0
X3.8522A-346.3523 F380.0
X3.8068A-343.1237 F380.0
X3.7608A-340.0269 F380.0
X3.7144A-337.0703 F380.0
X3.6676A-334.2619 F380.0
X3.6201A-331.6101 F380.0
X3.5722A-329.1230 F380.0
X3.5236A-326.8090 F380.0
X3.4745A-324.6763 F380.0
X3.4247A-322.7331 F380.0
X3.3742A-320.9876 F380.0
X3.3487A-320.1916 F380.0
X3.3231A-319.4482 F380.0
X3.2972A-318.7583 F380.0
X3.2712A-318.1230 F380.0
X3.2450A-317.5432 F380.0
X3.2186A-317.0202 F380.0
X3.1920A-316.5548 F50.0
X3.1652A-316.1482 F50.0
X3.1382A-315.8012 F50.0
X3.1111A-315.5151 F50.0
X3.0837A-315.2907 F50.0
X3.0560A-315.1292 F50.0
X3.0282A-315.0315 F50.0
X3.0002A-314.9987 F50.0
X2.9985A-315.0008 F50.0
X3.0002A-315.0028 F50.0
X3.0017A-315.0028 F50.0
G1Z-0.0143F6.5
G1X3.0002A-315.0028 F50.0
X2.9985A-315.0008 F50.0
X3.0002A-314.9987 F50.0
X3.0282A-315.0315 F50.0
X3.0560A-315.1292 F50.0
X3.0837A-315.2907 F50.0
X3.1111A-315.5151 F50.0
X3.1382A-315.8012 F50.0
X3.1652A-316.1482 F50.0
X3.1920A-316.5548 F50.0
X3.2186A-317.0202 F50.0
X3.2450A-317.5432 F380.0
X3.2712A-318.1230 F380.0
X3.2972A-318.7583 F380.0
X3.3231A-319.4482 F380.0
X3.3487A-320.1916 F380.0
X3.3742A-320.9876 F380.0
X3.4247A-322.7331 F380.0
X3.4745A-324.6763 F380.0
X3.5236A-326.8090 F380.0
X3.5722A-329.1230 F380.0
X3.6201A-331.6101 F380.0
X3.6676A-334.2619 F380.0
X3.7144A-337.0703 F380.0
X3.7608A-340.0269 F380.0
X3.8068A-343.1237 F380.0
X3.8522A-346.3523 F380.0
X3.8973A-349.7045 F380.0
X3.9420A-353.1721 F380.0
X3.9863A-356.7468 F380.0
X4.0303A-360.4203 F380.0
X4.0740A-364.1845 F380.0
X4.1174A-368.0311 F380.0
X4.1605A-371.9519 F380.0
X4.2035A-375.9385 F380.0
X4.2462A-379.9828 F380.0
X4.3312A-388.2116 F380.0
X4.4158A-396.5722 F380.0
X4.5002A-404.9987 F380.0
X4.6691A-421.7858 F380.0
X4.7541A-430.0146 F380.0
X4.8398A-438.0456 F380.0
X4.8830A-441.9663 F380.0
X4.9264A-445.8129 F380.0
X4.9701A-449.5771 F380.0
X5.0141A-453.2507 F380.0
X5.0584A-456.8253 F380.0
X5.1031A-460.2929 F380.0
X5.1481A-463.6451 F380.0
X5.1936A-466.8737 F380.0
X5.2395A-469.9705 F380.0
X5.2859A-472.9272 F380.0
X5.3328A-475.7356 F380.0
X5.3802A-478.3874 F380.0
X5.4282A-480.8744 F380.0
X5.4767A-483.1884 F380.0
X5.5259A-485.3211 F380.0
X5.5757A-487.2644 F380.0
X5.6261A-489.0098 F380.0
X5.6516A-489.8058 F380.0
X5.6773A-490.5493 F380.0
X5.7031A-491.2392 F380.0
X5.7291A-491.8745 F380.0
X5.7553A-492.4542 F380.0
X5.7817A-492.9772 F380.0
X5.8083A-493.4426 F50.0
X5.8351A-493.8493 F50.0
X5.8621A-494.1962 F50.0
X5.8893A-494.4823 F50.0
X5.9167A-494.7067 F50.0
X5.9443A-494.8683 F50.0
X5.9721A-494.9659 F50.0
X6.0002A-494.9987 F50.0
X6.0282A-494.9659 F50.0
X6.0560A-494.8683 F50.0
X6.0837A-494.7067 F50.0
X6.1111A-494.4823 F50.0
X6.1382A-494.1962 F50.0
X6.1652A-493.8493 F50.0
X6.1920A-493.4426 F50.0
X6.2186A-492.9772 F50.0
X6.2450A-492.4542 F380.0
X6.2712A-491.8745 F380.0
X6.2972A-491.2392 F380.0
X6.3231A-490.5493 F380.0
X6.3487A-489.8058 F380.0
X6.3742A-489.0098 F380.0
X6.4247A-487.2644 F380.0
X6.4745A-485.3211 F380.0
X6.5236A-483.1884 F380.0
X6.5722A-480.8744 F380.0
X6.6201A-478.3874 F380.0
X6.6676A-475.7356 F380.0
X6.7144A-472.9272 F380.0
X6.7608A-469.9705 F380.0
X6.8068A-466.8737 F380.0
X6.8522A-463.6451 F380.0
X6.8973A-460.2929 F380.0
X6.9420A-456.8253 F380.0
X6.9863A-453.2507 F380.0
X7.0303A-449.5771 F380.0
X7.0740A-445.8129 F380.0
X7.1174A-441.9663 F380.0
X7.1605A-438.0456 F380.0
X7.2035A-434.0589 F380.0
X7.2462A-430.0146 F380.0
X7.3312A-421.7858 F380.0
X7.4158A-413.4252 F380.0
X7.5002A-404.9987 F380.0
X7.6691A-388.2116 F380.0
X7.7541A-379.9828 F380.0
X7.8398A-371.9519 F380.0
X7.8830A-368.0311 F380.0
X7.9264A-364.1845 F380.0
X7.9701A-360.4203 F380.0
X8.0141A-356.7468 F380.0
X8.0584A-353.1721 F380.0
X8.1031A-349.7045 F380.0
X8.1481A-346.3523 F380.0
X8.1936A-343.1237 F380.0
X8.2395A-340.0269 F380.0
X8.2859A-337.0703 F380.0
X8.3328A-334.2619 F380.0
X8.3802A-331.6101 F380.0
X8.4282A-329.1230 F380.0
X8.4767A-326.8090 F380.0
X8.5259A-324.6763 F380.0
X8.5757A-322.7331 F380.0
X8.6261A-320.9876 F380.0
X8.6516A-320.1916 F380.0
X8.6773A-319.4482 F380.0
X8.7031A-318.7583 F380.0
X8.7291A-318.1230 F380.0
X8.7553A-317.5432 F380.0
X8.7817A-317.0202 F380.0
X8.8083A-316.5548 F50.0
X8.8351A-316.1482 F50.0
X8.8621A-315.8012 F50.0
X8.8893A-315.5151 F50.0
X8.9167A-315.2907 F50.0
X8.9443A-315.1292 F50.0
X8.9721A-315.0315 F50.0
X9.0002A-314.9987 F50.0
X9.0015A-315.0008 F50.0
X9.0002A-315.0028 F50.0
X8.9975A-315.0026 F50.0
G1Z-0.0214F6.5
G1X9.0002A-315.0028 F50.0
X9.0015A-315.0008 F50.0
X9.0002A-314.9987 F50.0
X8.9721A-315.0315 F50.0
X8.9443A-315.1292 F50.0
X8.9167A-315.2907 F50.0
X8.8893A-315.5151 F50.0
X8.8621A-315.8012 F50.0
X8.8351A-316.1482 F50.0
X8.8083A-316.5548 F50.0
X8.7817A-317.0202 F50.0
X8.7553A-317.5432 F380.0
X8.7291A-318.1230 F380.0
X8.7031A-318.7583 F380.0
X8.6773A-319.4482 F380.0
X8.6516A-320.1916 F380.0
X8.6261A-320.9876 F380.0
X8.5757A-322.7331 F380.0
X8.5259A-324.6763 F380.0
X8.4767A-326.8090 F380.0
X8.4282A-329.1230 F380.0
X8.3802A-331.6101 F380.0
X8.3328A-334.2619 F380.0
X8.2859A-337.0703 F380.0
X8.2395A-340.0269 F380.0
X8.1936A-343.1237 F380.0
X8.1481A-346.3523 F380.0
X8.1031A-349.7045 F380.0
X8.0584A-353.1721 F380.0
X8.0141A-356.7468 F380.0
X7.9701A-360.4203 F380.0
X7.9264A-364.1845 F380.0
X7.8830A-368.0311 F380.0
X7.8398A-371.9519 F380.0
X7.7541A-379.9828 F380.0
X7.6691A-388.2116 F380.0
X7.5002A-404.9987 F380.0
X7.4158A-413.4252 F380.0
X7.3312A-421.7858 F380.0
X7.2462A-430.0146 F380.0
X7.2035A-434.0589 F380.0
X7.1605A-438.0456 F380.0
X7.1174A-441.9663 F380.0
X7.0740A-445.8129 F380.0
X7.0303A-449.5771 F380.0
X6.9863A-453.2507 F380.0
X6.9420A-456.8253 F380.0
X6.8973A-460.2929 F380.0
X6.8522A-463.6451 F380.0
X6.8068A-466.8737 F380.0
X6.7608A-469.9705 F380.0
X6.7144A-472.9272 F380.0
X6.6676A-475.7356 F380.0
X6.6201A-478.3874 F380.0
X6.5722A-480.8744 F380.0
X6.5236A-483.1884 F380.0
X6.4745A-485.3211 F380.0
X6.4247A-487.2644 F380.0
X6.3742A-489.0098 F380.0
X6.3487A-489.8058 F380.0
X6.3231A-490.5493 F380.0
X6.2972A-491.2392 F380.0
X6.2712A-491.8745 F380.0
X6.2450A-492.4542 F380.0
X6.2186A-492.9772 F380.0
X6.1920A-493.4426 F50.0
X6.1652A-493.8493 F50.0
X6.1382A-494.1962 F50.0
X6.1111A-494.4823 F50.0
X6.0837A-494.7067 F50.0
X6.0560A-494.8683 F50.0
X6.0282A-494.9659 F50.0
X6.0002A-494.9987 F50.0
X5.9721A-494.9659 F50.0
X5.9443A-494.8683 F50.0
X5.9167A-494.7067 F50.0
X5.8893A-494.4823 F50.0
X5.8621A-494.1962 F50.0
X5.8351A-493.8493 F50.0
X5.8083A-493.4426 F50.0
X5.7817A-492.9772 F50.0
X5.7553A-492.4542 F380.0
X5.7291A-491.8745 F380.0
X5.7031A-491.2392 F380.0
X5.6773A-490.5493 F380.0
X5.6516A-489.8058 F380.0
X5.6261A-489.0098 F380.0
X5.5757A-487.2644 F380.0
X5.5259A-485.3211 F380.0
X5.4767A-483.1884 F380.0
X5.4282A-480.8744 F380.0
X5.3802A-478.3874 F380.0
X5.3328A-475.7356 F380.0
X5.2859A-472.9272 F380.0
X5.2395A-469.9705 F380.0
X5.1936A-466.8737 F380.0
X5.1481A-463.6451 F380.0
X5.1031A-460.2929 F380.0
X5.0584A-456.8253 F380.0
X5.0141A-453.2507 F380.0
X4.9701A-449.5771 F380.0
X4.9264A-445.8129 F380.0
X4.8830A-441.9663 F380.0
X4.8398A-438.0456 F380.0
X4.7541A-430.0146 F380.0
X4.6691A-421.7858 F380.0
X4.5002A-404.9987 F380.0
X4.4158A-396.5722 F380.0
X4.3312A-388.2116 F380.0
X4.2462A-379.9828 F380.0
X4.2035A-375.9385 F380.0
X4.1605A-371.9519 F380.0
X4.1174A-368.0311 F380.0
X4.0740A-364.1845 F380.0
X4.0303A-360.4203 F380.0
X3.9863A-356.7468 F380.0
X3.9420A-353.1721 F380.0
X3.8973A-349.7045 F380.0
X3.8522A-346.3523 F380.0
X3.8068A-343.1237 F380.0
X3.7608A-340.0269 F380.0
X3.7144A-337.0703 F380.0
X3.6676A-334.2619 F380.0
X3.6201A-331.6101 F380.0
X3.5722A-329.1230 F380.0
X3.5236A-326.8090 F380.0
X3.4745A-324.6763 F380.0
X3.4247A-322.7331 F380.0
X3.3742A-320.9876 F380.0
X3.3487A-320.1916 F380.0
X3.3231A-319.4482 F380.0
X3.2972A-318.7583 F380.0
X3.2712A-318.1230 F380.0
X3.2450A-317.5432 F380.0
X3.2186A-317.0202 F380.0
X3.1920A-316.5548 F50.0
X3.1652A-316.1482 F50.0
X3.1382A-315.8012 F50.0
X3.1111A-315.5151 F50.0
X3.0837A-315.2907 F50.0
X3.0560A-315.1292 F50.0
X3.0282A-315.0315 F50.0
X3.0002A-314.9987 F50.0
X2.9985A-315.0008 F50.0
X3.0002A-315.0028 F50.0
X3.0017A-315.0028 F50.0
G1Z-0.0286F6.5
G1X3.0002A-315.0028 F50.0
X2.9985A-315.0008 F50.0
X3.0002A-314.9987 F50.0
X3.0282A-315.0315 F50.0
X3.0560A-315.1292 F50.0
X3.0837A-315.2907 F50.0
X3.1111A-315.5151 F50.0
X3.1382A-315.8012 F50.0
X3.1652A-316.1482 F50.0
X3.1920A-316.5548 F50.0
X3.2186A-317.0202 F50.0
X3.2450A-317.5432 F380.0
X3.2712A-318.1230 F380.0
X3.2972A-318.7583 F380.0
X3.3231A-319.4482 F380.0
X3.3487A-320.1916 F380.0
X3.3742A-320.9876 F380.0
X3.4247A-322.7331 F380.0
X3.4745A-324.6763 F380.0
X3.5236A-326.8090 F380.0
X3.5722A-329.1230 F380.0
X3.6201A-331.6101 F380.0
X3.6676A-334.2619 F380.0
X3.7144A-337.0703 F380.0
X3.7608A-340.0269 F380.0
X3.8068A-343.1237 F380.0
X3.8522A-346.3523 F380.0
X3.8973A-349.7045 F380.0
X3.9420A-353.1721 F380.0
X3.9863A-356.7468 F380.0
X4.0303A-360.4203 F380.0
X4.0740A-364.1845 F380.0
X4.1174A-368.0311 F380.0
X4.1605A-371.9519 F380.0
X4.2035A-375.9385 F380.0
X4.2462A-379.9828 F380.0
X4.3312A-388.2116 F380.0
X4.4158A-396.5722 F380.0
X4.5002A-404.9987 F380.0
X4.6691A-421.7858 F380.0
X4.7541A-430.0146 F380.0
X4.8398A-438.0456 F380.0
X4.8830A-441.9663 F380.0
X4.9264A-445.8129 F380.0
X4.9701A-449.5771 F380.0
X5.0141A-453.2507 F380.0
X5.0584A-456.8253 F380.0
X5.1031A-460.2929 F380.0
X5.1481A-463.6451 F380.0
X5.1936A-466.8737 F380.0
X5.2395A-469.9705 F380.0
X5.2859A-472.9272 F380.0
X5.3328A-475.7356 F380.0
X5.3802A-478.3874 F380.0
X5.4282A-480.8744 F380.0
X5.4767A-483.1884 F380.0
X5.5259A-485.3211 F380.0
X5.5757A-487.2644 F380.0
X5.6261A-489.0098 F380.0
X5.6516A-489.8058 F380.0
X5.6773A-490.5493 F380.0
X5.7031A-491.2392 F380.0
X5.7291A-491.8745 F380.0
X5.7553A-492.4542 F380.0
X5.7817A-492.9772 F380.0
X5.8083A-493.4426 F50.0
X5.8351A-493.8493 F50.0
X5.8621A-494.1962 F50.0
X5.8893A-494.4823 F50.0
X5.9167A-494.7067 F50.0
X5.9443A-494.8683 F50.0
X5.9721A-494.9659 F50.0
X6.0002A-494.9987 F50.0
X6.0282A-494.9659 F50.0
X6.0560A-494.8683 F50.0
X6.0837A-494.7067 F50.0
X6.1111A-494.4823 F50.0
X6.1382A-494.1962 F50.0
X6.1652A-493.8493 F50.0
X6.1920A-493.4426 F50.0
X6.2186A-492.9772 F50.0
X6.2450A-492.4542 F380.0
X6.2712A-491.8745 F380.0
X6.2972A-491.2392 F380.0
X6.3231A-490.5493 F380.0
X6.3487A-489.8058 F380.0
X6.3742A-489.0098 F380.0
X6.4247A-487.2644 F380.0
X6.4745A-485.3211 F380.0
X6.5236A-483.1884 F380.0
X6.5722A-480.8744 F380.0
X6.6201A-478.3874 F380.0
X6.6676A-475.7356 F380.0
X6.7144A-472.9272 F380.0
X6.7608A-469.9705 F380.0
X6.8068A-466.8737 F380.0
X6.8522A-463.6451 F380.0
X6.8973A-460.2929 F380.0
X6.9420A-456.8253 F380.0
X6.9863A-453.2507 F380.0
X7.0303A-449.5771 F380.0
X7.0740A-445.8129 F380.0
X7.1174A-441.9663 F380.0
X7.1605A-438.0456 F380.0
X7.2035A-434.0589 F380.0
X7.2462A-430.0146 F380.0
X7.3312A-421.7858 F380.0
X7.4158A-413.4252 F380.0
X7.5002A-404.9987 F380.0
X7.6691A-388.2116 F380.0
X7.7541A-379.9828 F380.0
X7.8398A-371.9519 F380.0
X7.8830A-368.0311 F380.0
X7.9264A-364.1845 F380.0
X7.9701A-360.4203 F380.0
X8.0141A-356.7468 F380.0
X8.0584A-353.1721 F380.0
X8.1031A-349.7045 F380.0
X8.1481A-346.3523 F380.0
X8.1936A-343.1237 F380.0
X8.2395A-340.0269 F380.0
X8.2859A-337.0703 F380.0
X8.3328A-334.2619 F380.0
X8.3802A-331.6101 F380.0
X8.4282A-329.1230 F380.0
X8.4767A-326.8090 F380.0
X8.5259A-324.6763 F380.0
X8.5757A-322.7331 F380.0
X8.6261A-320.9876 F380.0
X8.6516A-320.1916 F380.0
X8.6773A-319.4482 F380.0
X8.7031A-318.7583 F380.0
X8.7291A-318.1230 F380.0
X8.7553A-317.5432 F380.0
X8.7817A-317.0202 F380.0
X8.8083A-316.5548 F50.0
X8.8351A-316.1482 F50.0
X8.8621A-315.8012 F50.0
X8.8893A-315.5151 F50.0
X8.9167A-315.2907 F50.0
X8.9443A-315.1292 F50.0
X8.9721A-315.0315 F50.0
X9.0002A-314.9987 F50.0
X9.0015A-315.0008 F50.0
X9.0002A-315.0028 F50.0
X8.9975A-315.0026 F50.0
G1Z-0.0357F6.5
G1X9.0002A-315.0028 F50.0
X9.0015A-315.0008 F50.0
X9.0002A-314.9987 F50.0
X8.9721A-315.0315 F50.0
X8.9443A-315.1292 F50.0
X8.9167A-315.2907 F50.0
X8.8893A-315.5151 F50.0
X8.8621A-315.8012 F50.0
X8.8351A-316.1482 F50.0
X8.8083A-316.5548 F50.0
X8.7817A-317.0202 F50.0
X8.7553A-317.5432 F380.0
X8.7291A-318.1230 F380.0
X8.7031A-318.7583 F380.0
X8.6773A-319.4482 F380.0
X8.6516A-320.1916 F380.0
X8.6261A-320.9876 F380.0
X8.5757A-322.7331 F380.0
X8.5259A-324.6763 F380.0
X8.4767A-326.8090 F380.0
X8.4282A-329.1230 F380.0
X8.3802A-331.6101 F380.0
X8.3328A-334.2619 F380.0
X8.2859A-337.0703 F380.0
X8.2395A-340.0269 F380.0
X8.1936A-343.1237 F380.0
X8.1481A-346.3523 F380.0
X8.1031A-349.7045 F380.0
X8.0584A-353.1721 F380.0
X8.0141A-356.7468 F380.0
X7.9701A-360.4203 F380.0
X7.9264A-364.1845 F380.0
X7.8830A-368.0311 F380.0
X7.8398A-371.9519 F380.0
X7.7541A-379.9828 F380.0
X7.6691A-388.2116 F380.0
X7.5002A-404.9987 F380.0
X7.4158A-413.4252 F380.0
X7.3312A-421.7858 F380.0
X7.2462A-430.0146 F380.0
X7.2035A-434.0589 F380.0
X7.1605A-438.0456 F380.0
X7.1174A-441.9663 F380.0
X7.0740A-445.8129 F380.0
X7.0303A-449.5771 F380.0
X6.9863A-453.2507 F380.0
X6.9420A-456.8253 F380.0
X6.8973A-460.2929 F380.0
X6.8522A-463.6451 F380.0
X6.8068A-466.8737 F380.0
X6.7608A-469.9705 F380.0
X6.7144A-472.9272 F380.0
X6.6676A-475.7356 F380.0
X6.6201A-478.3874 F380.0
X6.5722A-480.8744 F380.0
X6.5236A-483.1884 F380.0
X6.4745A-485.3211 F380.0
X6.4247A-487.2644 F380.0
X6.3742A-489.0098 F380.0
X6.3487A-489.8058 F380.0
X6.3231A-490.5493 F380.0
X6.2972A-491.2392 F380.0
X6.2712A-491.8745 F380.0
X6.2450A-492.4542 F380.0
X6.2186A-492.9772 F380.0
X6.1920A-493.4426 F50.0
X6.1652A-493.8493 F50.0
X6.1382A-494.1962 F50.0
X6.1111A-494.4823 F50.0
X6.0837A-494.7067 F50.0
X6.0560A-494.8683 F50.0
X6.0282A-494.9659 F50.0
X6.0002A-494.9987 F50.0
X5.9721A-494.9659 F50.0
X5.9443A-494.8683 F50.0
X5.9167A-494.7067 F50.0
X5.8893A-494.4823 F50.0
X5.8621A-494.1962 F50.0
X5.8351A-493.8493 F50.0
X5.8083A-493.4426 F50.0
X5.7817A-492.9772 F50.0
X5.7553A-492.4542 F380.0
X5.7291A-491.8745 F380.0
X5.7031A-491.2392 F380.0
X5.6773A-490.5493 F380.0
X5.6516A-489.8058 F380.0
X5.6261A-489.0098 F380.0
X5.5757A-487.2644 F380.0
X5.5259A-485.3211 F380.0
X5.4767A-483.1884 F380.0
X5.4282A-480.8744 F380.0
X5.3802A-478.3874 F380.0
X5.3328A-475.7356 F380.0
X5.2859A-472.9272 F380.0
X5.2395A-469.9705 F380.0
X5.1936A-466.8737 F380.0
X5.1481A-463.6451 F380.0
X5.1031A-460.2929 F380.0
X5.0584A-456.8253 F380.0
X5.0141A-453.2507 F380.0
X4.9701A-449.5771 F380.0
X4.9264A-445.8129 F380.0
X4.8830A-441.9663 F380.0
X4.8398A-438.0456 F380.0
X4.7541A-430.0146 F380.0
X4.6691A-421.7858 F380.0
X4.5002A-404.9987 F380.0
X4.4158A-396.5722 F380.0
X4.3312A-388.2116 F380.0
X4.2462A-379.9828 F380.0
X4.2035A-375.9385 F380.0
X4.1605A-371.9519 F380.0
X4.1174A-368.0311 F380.0
X4.0740A-364.1845 F380.0
X4.0303A-360.4203 F380.0
X3.9863A-356.7468 F380.0
X3.9420A-353.1721 F380.0
X3.8973A-349.7045 F380.0
X3.8522A-346.3523 F380.0
X3.8068A-343.1237 F380.0
X3.7608A-340.0269 F380.0
X3.7144A-337.0703 F380.0
X3.6676A-334.2619 F380.0
X3.6201A-331.6101 F380.0
X3.5722A-329.1230 F380.0
X3.5236A-326.8090 F380.0
X3.4745A-324.6763 F380.0
X3.4247A-322.7331 F380.0
X3.3742A-320.9876 F380.0
X3.3487A-320.1916 F380.0
X3.3231A-319.4482 F380.0
X3.2972A-318.7583 F380.0
X3.2712A-318.1230 F380.0
X3.2450A-317.5432 F380.0
X3.2186A-317.0202 F380.0
X3.1920A-316.5548 F50.0
X3.1652A-316.1482 F50.0
X3.1382A-315.8012 F50.0
X3.1111A-315.5151 F50.0
X3.0837A-315.2907 F50.0
X3.0560A-315.1292 F50.0
X3.0282A-315.0315 F50.0
X3.0002A-314.9987 F50.0
X2.9985A-315.0008 F50.0
X3.0002A-315.0028 F50.0
X3.0017A-315.0028 F50.0
G1Z-0.0429F6.5
G1X3.0002A-315.0028 F50.0
X2.9985A-315.0008 F50.0
X3.0002A-314.9987 F50.0
X3.0282A-315.0315 F50.0
X3.0560A-315.1292 F50.0
X3.0837A-315.2907 F50.0
X3.1111A-315.5151 F50.0
X3.1382A-315.8012 F50.0
X3.1652A-316.1482 F50.0
X3.1920A-316.5548 F50.0
X3.2186A-317.0202 F50.0
X3.2450A-317.5432 F380.0
X3.2712A-318.1230 F380.0
X3.2972A-318.7583 F380.0
X3.3231A-319.4482 F380.0
X3.3487A-320.1916 F380.0
X3.3742A-320.9876 F380.0
X3.4247A-322.7331 F380.0
X3.4745A-324.6763 F380.0
X3.5236A-326.8090 F380.0
X3.5722A-329.1230 F380.0
X3.6201A-331.6101 F380.0
X3.6676A-334.2619 F380.0
X3.7144A-337.0703 F380.0
X3.7608A-340.0269 F380.0
X3.8068A-343.1237 F380.0
X3.8522A-346.3523 F380.0
X3.8973A-349.7045 F380.0
X3.9420A-353.1721 F380.0
X3.9863A-356.7468 F380.0
X4.0303A-360.4203 F380.0
X4.0740A-364.1845 F380.0
X4.1174A-368.0311 F380.0
X4.1605A-371.9519 F380.0
X4.2035A-375.9385 F380.0
X4.2462A-379.9828 F380.0
X4.3312A-388.2116 F380.0
X4.4158A-396.5722 F380.0
X4.5002A-404.9987 F380.0
X4.6691A-421.7858 F380.0
X4.7541A-430.0146 F380.0
X4.8398A-438.0456 F380.0
X4.8830A-441.9663 F380.0
X4.9264A-445.8129 F380.0
X4.9701A-449.5771 F380.0
X5.0141A-453.2507 F380.0
X5.0584A-456.8253 F380.0
X5.1031A-460.2929 F380.0
X5.1481A-463.6451 F380.0
X5.1936A-466.8737 F380.0
X5.2395A-469.9705 F380.0
X5.2859A-472.9272 F380.0
X5.3328A-475.7356 F380.0
X5.3802A-478.3874 F380.0
X5.4282A-480.8744 F380.0
X5.4767A-483.1884 F380.0
X5.5259A-485.3211 F380.0
X5.5757A-487.2644 F380.0
X5.6261A-489.0098 F380.0
X5.6516A-489.8058 F380.0
X5.6773A-490.5493 F380.0
X5.7031A-491.2392 F380.0
X5.7291A-491.8745 F380.0
X5.7553A-492.4542 F380.0
X5.7817A-492.9772 F380.0
X5.8083A-493.4426 F50.0
X5.8351A-493.8493 F50.0
X5.8621A-494.1962 F50.0
X5.8893A-494.4823 F50.0
X5.9167A-494.7067 F50.0
X5.9443A-494.8683 F50.0
X5.9721A-494.9659 F50.0
X6.0002A-494.9987 F50.0
X6.0282A-494.9659 F50.0
X6.0560A-494.8683 F50.0
X6.0837A-494.7067 F50.0
X6.1111A-494.4823 F50.0
X6.1382A-494.1962 F50.0
X6.1652A-493.8493 F50.0
X6.1920A-493.4426 F50.0
X6.2186A-492.9772 F50.0
X6.2450A-492.4542 F380.0
X6.2712A-491.8745 F380.0
X6.2972A-491.2392 F380.0
X6.3231A-490.5493 F380.0
X6.3487A-489.8058 F380.0
X6.3742A-489.0098 F380.0
X6.4247A-487.2644 F380.0
X6.4745A-485.3211 F380.0
X6.5236A-483.1884 F380.0
X6.5722A-480.8744 F380.0
X6.6201A-478.3874 F380.0
X6.6676A-475.7356 F380.0
X6.7144A-472.9272 F380.0
X6.7608A-469.9705 F380.0
X6.8068A-466.8737 F380.0
X6.8522A-463.6451 F380.0
X6.8973A-460.2929 F380.0
X6.9420A-456.8253 F380.0
X6.9863A-453.2507 F380.0
X7.0303A-449.5771 F380.0
X7.0740A-445.8129 F380.0
X7.1174A-441.9663 F380.0
X7.1605A-438.0456 F380.0
X7.2035A-434.0589 F380.0
X7.2462A-430.0146 F380.0
X7.3312A-421.7858 F380.0
X7.4158A-413.4252 F380.0
X7.5002A-404.9987 F380.0
X7.6691A-388.2116 F380.0
X7.7541A-379.9828 F380.0
X7.8398A-371.9519 F380.0
X7.8830A-368.0311 F380.0
X7.9264A-364.1845 F380.0
X7.9701A-360.4203 F380.0
X8.0141A-356.7468 F380.0
X8.0584A-353.1721 F380.0
X8.1031A-349.7045 F380.0
X8.1481A-346.3523 F380.0
X8.1936A-343.1237 F380.0
X8.2395A-340.0269 F380.0
X8.2859A-337.0703 F380.0
X8.3328A-334.2619 F380.0
X8.3802A-331.6101 F380.0
X8.4282A-329.1230 F380.0
X8.4767A-326.8090 F380.0
X8.5259A-324.6763 F380.0
X8.5757A-322.7331 F380.0
X8.6261A-320.9876 F380.0
X8.6516A-320.1916 F380.0
X8.6773A-319.4482 F380.0
X8.7031A-318.7583 F380.0
X8.7291A-318.1230 F380.0
X8.7553A-317.5432 F380.0
X8.7817A-317.0202 F380.0
X8.8083A-316.5548 F50.0
X8.8351A-316.1482 F50.0
X8.8621A-315.8012 F50.0
X8.8893A-315.5151 F50.0
X8.9167A-315.2907 F50.0
X8.9443A-315.1292 F50.0
X8.9721A-315.0315 F50.0
X9.0002A-314.9987 F50.0
X9.0015A-315.0008 F50.0
X9.0002A-315.0028 F50.0
X8.9975A-315.0026 F50.0
G1Z-0.0500F6.5
G1X9.0002A-315.0028 F50.0
X9.0015A-315.0008 F50.0
X9.0002A-314.9987 F50.0
X8.9721A-315.0315 F50.0
X8.9443A-315.1292 F50.0
X8.9167A-315.2907 F50.0
X8.8893A-315.5151 F50.0
X8.8621A-315.8012 F50.0
X8.8351A-316.1482 F50.0
X8.8083A-316.5548 F50.0
X8.7817A-317.0202 F50.0
X8.7553A-317.5432 F380.0
X8.7291A-318.1230 F380.0
X8.7031A-318.7583 F380.0
X8.6773A-319.4482 F380.0
X8.6516A-320.1916 F380.0
X8.6261A-320.9876 F380.0
X8.5757A-322.7331 F380.0
X8.5259A-324.6763 F380.0
X8.4767A-326.8090 F380.0
X8.4282A-329.1230 F380.0
X8.3802A-331.6101 F380.0
X8.3328A-334.2619 F380.0
X8.2859A-337.0703 F380.0
X8.2395A-340.0269 F380.0
X8.1936A-343.1237 F380.0
X8.1481A-346.3523 F380.0
X8.1031A-349.7045 F380.0
X8.0584A-353.1721 F380.0
X8.0141A-356.7468 F380.0
X7.9701A-360.4203 F380.0
X7.9264A-364.1845 F380.0
X7.8830A-368.0311 F380.0
X7.8398A-371.9519 F380.0
X7.7541A-379.9828 F380.0
X7.6691A-388.2116 F380.0
X7.5002A-404.9987 F380.0
X7.4158A-413.4252 F380.0
X7.3312A-421.7858 F380.0
X7.2462A-430.0146 F380.0
X7.2035A-434.0589 F380.0
X7.1605A-438.0456 F380.0
X7.1174A-441.9663 F380.0
X7.0740A-445.8129 F380.0
X7.0303A-449.5771 F380.0
X6.9863A-453.2507 F380.0
X6.9420A-456.8253 F380.0
X6.8973A-460.2929 F380.0
X6.8522A-463.6451 F380.0
X6.8068A-466.8737 F380.0
X6.7608A-469.9705 F380.0
X6.7144A-472.9272 F380.0
X6.6676A-475.7356 F380.0
X6.6201A-478.3874 F380.0
X6.5722A-480.8744 F380.0
X6.5236A-483.1884 F380.0
X6.4745A-485.3211 F380.0
X6.4247A-487.2644 F380.0
X6.3742A-489.0098 F380.0
X6.3487A-489.8058 F380.0
X6.3231A-490.5493 F380.0
X6.2972A-491.2392 F380.0
X6.2712A-491.8745 F380.0
X6.2450A-492.4542 F380.0
X6.2186A-492.9772 F380.0
X6.1920A-493.4426 F50.0
X6.1652A-493.8493 F50.0
X6.1382A-494.1962 F50.0
X6.1111A-494.4823 F50.0
X6.0837A-494.7067 F50.0
X6.0560A-494.8683 F50.0
X6.0282A-494.9659 F50.0
X6.0002A-494.9987 F50.0
X5.9721A-494.9659 F50.0
X5.9443A-494.8683 F50.0
X5.9167A-494.7067 F50.0
X5.8893A-494.4823 F50.0
X5.8621A-494.1962 F50.0
X5.8351A-493.8493 F50.0
X5.8083A-493.4426 F50.0
X5.7817A-492.9772 F50.0
X5.7553A-492.4542 F380.0
X5.7291A-491.8745 F380.0
X5.7031A-491.2392 F380.0
X5.6773A-490.5493 F380.0
X5.6516A-489.8058 F380.0
X5.6261A-489.0098 F380.0
X5.5757A-487.2644 F380.0
X5.5259A-485.3211 F380.0
X5.4767A-483.1884 F380.0
X5.4282A-480.8744 F380.0
X5.3802A-478.3874 F380.0
X5.3328A-475.7356 F380.0
X5.2859A-472.9272 F380.0
X5.2395A-469.9705 F380.0
X5.1936A-466.8737 F380.0
X5.1481A-463.6451 F380.0
X5.1031A-460.2929 F380.0
X5.0584A-456.8253 F380.0
X5.0141A-453.2507 F380.0
X4.9701A-449.5771 F380.0
X4.9264A-445.8129 F380.0
X4.8830A-441.9663 F380.0
X4.8398A-438.0456 F380.0
X4.7541A-430.0146 F380.0
X4.6691A-421.7858 F380.0
X4.5002A-404.9987 F380.0
X4.4158A-396.5722 F380.0
X4.3312A-388.2116 F380.0
X4.2462A-379.9828 F380.0
X4.2035A-375.9385 F380.0
X4.1605A-371.9519 F380.0
X4.1174A-368.0311 F380.0
X4.0740A-364.1845 F380.0
X4.0303A-360.4203 F380.0
X3.9863A-356.7468 F380.0
X3.9420A-353.1721 F380.0
X3.8973A-349.7045 F380.0
X3.8522A-346.3523 F380.0
X3.8068A-343.1237 F380.0
X3.7608A-340.0269 F380.0
X3.7144A-337.0703 F380.0
X3.6676A-334.2619 F380.0
X3.6201A-331.6101 F380.0
X3.5722A-329.1230 F380.0
X3.5236A-326.8090 F380.0
X3.4745A-324.6763 F380.0
X3.4247A-322.7331 F380.0
X3.3742A-320.9876 F380.0
X3.3487A-320.1916 F380.0
X3.3231A-319.4482 F380.0
X3.2972A-318.7583 F380.0
X3.2712A-318.1230 F380.0
X3.2450A-317.5432 F380.0
X3.2186A-317.0202 F380.0
X3.1920A-316.5548 F50.0
X3.1652A-316.1482 F50.0
X3.1382A-315.8012 F50.0
X3.1111A-315.5151 F50.0
X3.0837A-315.2907 F50.0
X3.0560A-315.1292 F50.0
X3.0282A-315.0315 F50.0
X3.0002A-314.9987 F50.0
X2.9985A-315.0008 F50.0
X3.0002A-315.0028 F50.0
X3.0017A-315.0028 F50.0
G1Z-0.0571F6.5
G1X3.0002A-315.0028 F50.0
X2.9985A-315.0008 F50.0
X3.0002A-314.9987 F50.0
X3.0282A-315.0315 F50.0
X3.0560A-315.1292 F50.0
X3.0837A-315.2907 F50.0
X3.1111A-315.5151 F50.0
X3.1382A-315.8012 F50.0
X3.1652A-316.1482 F50.0
X3.1920A-316.5548 F50.0
X3.2186A-317.0202 F50.0
X3.2450A-317.5432 F380.0
X3.2712A-318.1230 F380.0
X3.2972A-318.7583 F380.0
X3.3231A-319.4482 F380.0
X3.3487A-320.1916 F380.0
X3.3742A-320.9876 F380.0
X3.4247A-322.7331 F380.0
X3.4745A-324.6763 F380.0
X3.5236A-326.8090 F380.0
X3.5722A-329.1230 F380.0
X3.6201A-331.6101 F380.0
X3.6676A-334.2619 F380.0
X3.7144A-337.0703 F380.0
X3.7608A-340.0269 F380.0
X3.8068A-343.1237 F380.0
X3.8522A-346.3523 F380.0
X3.8973A-349.7045 F380.0
X3.9420A-353.1721 F380.0
X3.9863A-356.7468 F380.0
X4.0303A-360.4203 F380.0
X4.0740A-364.1845 F380.0
X4.1174A-368.0311 F380.0
X4.1605A-371.9519 F380.0
X4.2035A-375.9385 F380.0
X4.2462A-379.9828 F380.0
X4.3312A-388.2116 F380.0
X4.4158A-396.5722 F380.0
X4.5002A-404.9987 F380.0
X4.6691A-421.7858 F380.0
X4.7541A-430.0146 F380.0
X4.8398A-438.0456 F380.0
X4.8830A-441.9663 F380.0
X4.9264A-445.8129 F380.0
X4.9701A-449.5771 F380.0
X5.0141A-453.2507 F380.0
X5.0584A-456.8253 F380.0
X5.1031A-460.2929 F380.0
X5.1481A-463.6451 F380.0
X5.1936A-466.8737 F380.0
X5.2395A-469.9705 F380.0
X5.2859A-472.9272 F380.0
X5.3328A-475.7356 F380.0
X5.3802A-478.3874 F380.0
X5.4282A-480.8744 F380.0
X5.4767A-483.1884 F380.0
X5.5259A-485.3211 F380.0
X5.5757A-487.2644 F380.0
X5.6261A-489.0098 F380.0
X5.6516A-489.8058 F380.0
X5.6773A-490.5493 F380.0
X5.7031A-491.2392 F380.0
X5.7291A-491.8745 F380.0
X5.7553A-492.4542 F380.0
X5.7817A-492.9772 F380.0
X5.8083A-493.4426 F50.0
X5.8351A-493.8493 F50.0
X5.8621A-494.1962 F50.0
X5.8893A-494.4823 F50.0
X5.9167A-494.7067 F50.0
X5.9443A-494.8683 F50.0
X5.9721A-494.9659 F50.0
X6.0002A-494.9987 F50.0
X6.0282A-494.9659 F50.0
X6.0560A-494.8683 F50.0
X6.0837A-494.7067 F50.0
X6.1111A-494.4823 F50.0
X6.1382A-494.1962 F50.0
X6.1652A-493.8493 F50.0
X6.1920A-493.4426 F50.0
X6.2186A-492.9772 F50.0
X6.2450A-492.4542 F380.0
X6.2712A-491.8745 F380.0
X6.2972A-491.2392 F380.0
X6.3231A-490.5493 F380.0
X6.3487A-489.8058 F380.0
X6.3742A-489.0098 F380.0
X6.4247A-487.2644 F380.0
X6.4745A-485.3211 F380.0
X6.5236A-483.1884 F380.0
X6.5722A-480.8744 F380.0
X6.6201A-478.3874 F380.0
X6.6676A-475.7356 F380.0
X6.7144A-472.9272 F380.0
X6.7608A-469.9705 F380.0
X6.8068A-466.8737 F380.0
X6.8522A-463.6451 F380.0
X6.8973A-460.2929 F380.0
X6.9420A-456.8253 F380.0
X6.9863A-453.2507 F380.0
X7.0303A-449.5771 F380.0
X7.0740A-445.8129 F380.0
X7.1174A-441.9663 F380.0
X7.1605A-438.0456 F380.0
X7.2035A-434.0589 F380.0
X7.2462A-430.0146 F380.0
X7.3312A-421.7858 F380.0
X7.4158A-413.4252 F380.0
X7.5002A-404.9987 F380.0
X7.6691A-388.2116 F380.0
X7.7541A-379.9828 F380.0
X7.8398A-371.9519 F380.0
X7.8830A-368.0311 F380.0
X7.9264A-364.1845 F380.0
X7.9701A-360.4203 F380.0
X8.0141A-356.7468 F380.0
X8.0584A-353.1721 F380.0
X8.1031A-349.7045 F380.0
X8.1481A-346.3523 F380.0
X8.1936A-343.1237 F380.0
X8.2395A-340.0269 F380.0
X8.2859A-337.0703 F380.0
X8.3328A-334.2619 F380.0
X8.3802A-331.6101 F380.0
X8.4282A-329.1230 F380.0
X8.4767A-326.8090 F380.0
X8.5259A-324.6763 F380.0
X8.5757A-322.7331 F380.0
X8.6261A-320.9876 F380.0
X8.6516A-320.1916 F380.0
X8.6773A-319.4482 F380.0
X8.7031A-318.7583 F380.0
X8.7291A-318.1230 F380.0
X8.7553A-317.5432 F380.0
X8.7817A-317.0202 F380.0
X8.8083A-316.5548 F50.0
X8.8351A-316.1482 F50.0
X8.8621A-315.8012 F50.0
X8.8893A-315.5151 F50.0
X8.9167A-315.2907 F50.0
X8.9443A-315.1292 F50.0
X8.9721A-315.0315 F50.0
X9.0002A-314.9987 F50.0
X9.0015A-315.0008 F50.0
X9.0002A-315.0028 F50.0
X8.9975A-315.0026 F50.0
G1Z-0.0643F6.5
G1X9.0002A-315.0028 F50.0
X9.0015A-315.0008 F50.0
X9.0002A-314.9987 F50.0
X8.9721A-315.0315 F50.0
X8.9443A-315.1292 F50.0
X8.9167A-315.2907 F50.0
X8.8893A-315.5151 F50.0
X8.8621A-315.8012 F50.0
X8.8351A-316.1482 F50.0
X8.8083A-316.5548 F50.0
X8.7817A-317.0202 F50.0
X8.7553A-317.5432 F380.0
X8.7291A-318.1230 F380.0
X8.7031A-318.7583 F380.0
X8.6773A-319.4482 F380.0
X8.6516A-320.1916 F380.0
X8.6261A-320.9876 F380.0
X8.5757A-322.7331 F380.0
X8.5259A-324.6763 F380.0
X8.4767A-326.8090 F380.0
X8.4282A-329.1230 F380.0
X8.3802A-331.6101 F380.0
X8.3328A-334.2619 F380.0
X8.2859A-337.0703 F380.0
X8.2395A-340.0269 F380.0
X8.1936A-343.1237 F380.0
X8.1481A-346.3523 F380.0
X8.1031A-349.7045 F380.0
X8.0584A-353.1721 F380.0
X8.0141A-356.7468 F380.0
X7.9701A-360.4203 F380.0
X7.9264A-364.1845 F380.0
X7.8830A-368.0311 F380.0
X7.8398A-371.9519 F380.0
X7.7541A-379.9828 F380.0
X7.6691A-388.2116 F380.0
X7.5002A-404.9987 F380.0
X7.4158A-413.4252 F380.0
X7.3312A-421.7858 F380.0
X7.2462A-430.0146 F380.0
X7.2035A-434.0589 F380.0
X7.1605A-438.0456 F380.0
X7.1174A-441.9663 F380.0
X7.0740A-445.8129 F380.0
X7.0303A-449.5771 F380.0
X6.9863A-453.2507 F380.0
X6.9420A-456.8253 F380.0
X6.8973A-460.2929 F380.0
X6.8522A-463.6451 F380.0
X6.8068A-466.8737 F380.0
X6.7608A-469.9705 F380.0
X6.7144A-472.9272 F380.0
X6.6676A-475.7356 F380.0
X6.6201A-478.3874 F380.0
X6.5722A-480.8744 F380.0
X6.5236A-483.1884 F380.0
X6.4745A-485.3211 F380.0
X6.4247A-487.2644 F380.0
X6.3742A-489.0098 F380.0
X6.3487A-489.8058 F380.0
X6.3231A-490.5493 F380.0
X6.2972A-491.2392 F380.0
X6.2712A-491.8745 F380.0
X6.2450A-492.4542 F380.0
X6.2186A-492.9772 F380.0
X6.1920A-493.4426 F50.0
X6.1652A-493.8493 F50.0
X6.1382A-494.1962 F50.0
X6.1111A-494.4823 F50.0
X6.0837A-494.7067 F50.0
X6.0560A-494.8683 F50.0
X6.0282A-494.9659 F50.0
X6.0002A-494.9987 F50.0
X5.9721A-494.9659 F50.0
X5.9443A-494.8683 F50.0
X5.9167A-494.7067 F50.0
X5.8893A-494.4823 F50.0
X5.8621A-494.1962 F50.0
X5.8351A-493.8493 F50.0
X5.8083A-493.4426 F50.0
X5.7817A-492.9772 F50.0
X5.7553A-492.4542 F380.0
X5.7291A-491.8745 F380.0
X5.7031A-491.2392 F380.0
X5.6773A-490.5493 F380.0
X5.6516A-489.8058 F380.0
X5.6261A-489.0098 F380.0
X5.5757A-487.2644 F380.0
X5.5259A-485.3211 F380.0
X5.4767A-483.1884 F380.0
X5.4282A-480.8744 F380.0
X5.3802A-478.3874 F380.0
X5.3328A-475.7356 F380.0
X5.2859A-472.9272 F380.0
X5.2395A-469.9705 F380.0
X5.1936A-466.8737 F380.0
X5.1481A-463.6451 F380.0
X5.1031A-460.2929 F380.0
X5.0584A-456.8253 F380.0
X5.0141A-453.2507 F380.0
X4.9701A-449.5771 F380.0
X4.9264A-445.8129 F380.0
X4.8830A-441.9663 F380.0
X4.8398A-438.0456 F380.0
X4.7541A-430.0146 F380.0
X4.6691A-421.7858 F380.0
X4.5002A-404.9987 F380.0
X4.4158A-396.5722 F380.0
X4.3312A-388.2116 F380.0
X4.2462A-379.9828 F380.0
X4.2035A-375.9385 F380.0
X4.1605A-371.9519 F380.0
X4.1174A-368.0311 F380.0
X4.0740A-364.1845 F380.0
X4.0303A-360.4203 F380.0
X3.9863A-356.7468 F380.0
X3.9420A-353.1721 F380.0
X3.8973A-349.7045 F380.0
X3.8522A-346.3523 F380.0
X3.8068A-343.1237 F380.0
X3.7608A-340.0269 F380.0
X3.7144A-337.0703 F380.0
X3.6676A-334.2619 F380.0
X3.6201A-331.6101 F380.0
X3.5722A-329.1230 F380.0
X3.5236A-326.8090 F380.0
X3.4745A-324.6763 F380.0
X3.4247A-322.7331 F380.0
X3.3742A-320.9876 F380.0
X3.3487A-320.1916 F380.0
X3.3231A-319.4482 F380.0
X3.2972A-318.7583 F380.0
X3.2712A-318.1230 F380.0
X3.2450A-317.5432 F380.0
X3.2186A-317.0202 F380.0
X3.1920A-316.5548 F50.0
X3.1652A-316.1482 F50.0
X3.1382A-315.8012 F50.0
X3.1111A-315.5151 F50.0
X3.0837A-315.2907 F50.0
X3.0560A-315.1292 F50.0
X3.0282A-315.0315 F50.0
X3.0002A-314.9987 F50.0
X2.9985A-315.0008 F50.0
X3.0002A-315.0028 F50.0
X3.0017A-315.0028 F50.0
G1Z-0.0714F6.5
G1X3.0002A-315.0028 F50.0
X2.9985A-315.0008 F50.0
X3.0002A-314.9987 F50.0
X3.0282A-315.0315 F50.0
X3.0560A-315.1292 F50.0
X3.0837A-315.2907 F50.0
X3.1111A-315.5151 F50.0
X3.1382A-315.8012 F50.0
X3.1652A-316.1482 F50.0
X3.1920A-316.5548 F50.0
X3.2186A-317.0202 F50.0
X3.2450A-317.5432 F380.0
X3.2712A-318.1230 F380.0
X3.2972A-318.7583 F380.0
X3.3231A-319.4482 F380.0
X3.3487A-320.1916 F380.0
X3.3742A-320.9876 F380.0
X3.4247A-322.7331 F380.0
X3.4745A-324.6763 F380.0
X3.5236A-326.8090 F380.0
X3.5722A-329.1230 F380.0
X3.6201A-331.6101 F380.0
X3.6676A-334.2619 F380.0
X3.7144A-337.0703 F380.0
X3.7608A-340.0269 F380.0
X3.8068A-343.1237 F380.0
X3.8522A-346.3523 F380.0
X3.8973A-349.7045 F380.0
X3.9420A-353.1721 F380.0
X3.9863A-356.7468 F380.0
X4.0303A-360.4203 F380.0
X4.0740A-364.1845 F380.0
X4.1174A-368.0311 F380.0
X4.1605A-371.9519 F380.0
X4.2035A-375.9385 F380.0
X4.2462A-379.9828 F380.0
X4.3312A-388.2116 F380.0
X4.4158A-396.5722 F380.0
X4.5002A-404.9987 F380.0
X4.6691A-421.7858 F380.0
X4.7541A-430.0146 F380.0
X4.8398A-438.0456 F380.0
X4.8830A-441.9663 F380.0
X4.9264A-445.8129 F380.0
X4.9701A-449.5771 F380.0
X5.0141A-453.2507 F380.0
X5.0584A-456.8253 F380.0
X5.1031A-460.2929 F380.0
X5.1481A-463.6451 F380.0
X5.1936A-466.8737 F380.0
X5.2395A-469.9705 F380.0
X5.2859A-472.9272 F380.0
X5.3328A-475.7356 F380.0
X5.3802A-478.3874 F380.0
X5.4282A-480.8744 F380.0
X5.4767A-483.1884 F380.0
X5.5259A-485.3211 F380.0
X5.5757A-487.2644 F380.0
X5.6261A-489.0098 F380.0
X5.6516A-489.8058 F380.0
X5.6773A-490.5493 F380.0
X5.7031A-491.2392 F380.0
X5.7291A-491.8745 F380.0
X5.7553A-492.4542 F380.0
X5.7817A-492.9772 F380.0
X5.8083A-493.4426 F50.0
X5.8351A-493.8493 F50.0
X5.8621A-494.1962 F50.0
X5.8893A-494.4823 F50.0
X5.9167A-494.7067 F50.0
X5.9443A-494.8683 F50.0
X5.9721A-494.9659 F50.0
X6.0002A-494.9987 F50.0
X6.0282A-494.9659 F50.0
X6.0560A-494.8683 F50.0
X6.0837A-494.7067 F50.0
X6.1111A-494.4823 F50.0
X6.1382A-494.1962 F50.0
X6.1652A-493.8493 F50.0
X6.1920A-493.4426 F50.0
X6.2186A-492.9772 F50.0
X6.2450A-492.4542 F380.0
X6.2712A-491.8745 F380.0
X6.2972A-491.2392 F380.0
X6.3231A-490.5493 F380.0
X6.3487A-489.8058 F380.0
X6.3742A-489.0098 F380.0
X6.4247A-487.2644 F380.0
X6.4745A-485.3211 F380.0
X6.5236A-483.1884 F380.0
X6.5722A-480.8744 F380.0
X6.6201A-478.3874 F380.0
X6.6676A-475.7356 F380.0
X6.7144A-472.9272 F380.0
X6.7608A-469.9705 F380.0
X6.8068A-466.8737 F380.0
X6.8522A-463.6451 F380.0
X6.8973A-460.2929 F380.0
X6.9420A-456.8253 F380.0
X6.9863A-453.2507 F380.0
X7.0303A-449.5771 F380.0
X7.0740A-445.8129 F380.0
X7.1174A-441.9663 F380.0
X7.1605A-438.0456 F380.0
X7.2035A-434.0589 F380.0
X7.2462A-430.0146 F380.0
X7.3312A-421.7858 F380.0
X7.4158A-413.4252 F380.0
X7.5002A-404.9987 F380.0
X7.6691A-388.2116 F380.0
X7.7541A-379.9828 F380.0
X7.8398A-371.9519 F380.0
X7.8830A-368.0311 F380.0
X7.9264A-364.1845 F380.0
X7.9701A-360.4203 F380.0
X8.0141A-356.7468 F380.0
X8.0584A-353.1721 F380.0
X8.1031A-349.7045 F380.0
X8.1481A-346.3523 F380.0
X8.1936A-343.1237 F380.0
X8.2395A-340.0269 F380.0
X8.2859A-337.0703 F380.0
X8.3328A-334.2619 F380.0
X8.3802A-331.6101 F380.0
X8.4282A-329.1230 F380.0
X8.4767A-326.8090 F380.0
X8.5259A-324.6763 F380.0
X8.5757A-322.7331 F380.0
X8.6261A-320.9876 F380.0
X8.6516A-320.1916 F380.0
X8.6773A-319.4482 F380.0
X8.7031A-318.7583 F380.0
X8.7291A-318.1230 F380.0
X8.7553A-317.5432 F380.0
X8.7817A-317.0202 F380.0
X8.8083A-316.5548 F50.0
X8.8351A-316.1482 F50.0
X8.8621A-315.8012 F50.0
X8.8893A-315.5151 F50.0
X8.9167A-315.2907 F50.0
X8.9443A-315.1292 F50.0
X8.9721A-315.0315 F50.0
X9.0002A-314.9987 F50.0
X9.0015A-315.0008 F50.0
X9.0002A-315.0028 F50.0
X8.9975A-315.0026 F50.0
G1Z-0.0786F6.5
G1X9.0002A-315.0028 F50.0
X9.0015A-315.0008 F50.0
X9.0002A-314.9987 F50.0
X8.9721A-315.0315 F50.0
X8.9443A-315.1292 F50.0
X8.9167A-315.2907 F50.0
X8.8893A-315.5151 F50.0
X8.8621A-315.8012 F50.0
X8.8351A-316.1482 F50.0
X8.8083A-316.5548 F50.0
X8.7817A-317.0202 F50.0
X8.7553A-317.5432 F380.0
X8.7291A-318.1230 F380.0
X8.7031A-318.7583 F380.0
X8.6773A-319.4482 F380.0
X8.6516A-320.1916 F380.0
X8.6261A-320.9876 F380.0
X8.5757A-322.7331 F380.0
X8.5259A-324.6763 F380.0
X8.4767A-326.8090 F380.0
X8.4282A-329.1230 F380.0
X8.3802A-331.6101 F380.0
X8.3328A-334.2619 F380.0
X8.2859A-337.0703 F380.0
X8.2395A-340.0269 F380.0
X8.1936A-343.1237 F380.0
X8.1481A-346.3523 F380.0
X8.1031A-349.7045 F380.0
X8.0584A-353.1721 F380.0
X8.0141A-356.7468 F380.0
X7.9701A-360.4203 F380.0
X7.9264A-364.1845 F380.0
X7.8830A-368.0311 F380.0
X7.8398A-371.9519 F380.0
X7.7541A-379.9828 F380.0
X7.6691A-388.2116 F380.0
X7.5002A-404.9987 F380.0
X7.4158A-413.4252 F380.0
X7.3312A-421.7858 F380.0
X7.2462A-430.0146 F380.0
X7.2035A-434.0589 F380.0
X7.1605A-438.0456 F380.0
X7.1174A-441.9663 F380.0
X7.0740A-445.8129 F380.0
X7.0303A-449.5771 F380.0
X6.9863A-453.2507 F380.0
X6.9420A-456.8253 F380.0
X6.8973A-460.2929 F380.0
X6.8522A-463.6451 F380.0
X6.8068A-466.8737 F380.0
X6.7608A-469.9705 F380.0
X6.7144A-472.9272 F380.0
X6.6676A-475.7356 F380.0
X6.6201A-478.3874 F380.0
X6.5722A-480.8744 F380.0
X6.5236A-483.1884 F380.0
X6.4745A-485.3211 F380.0
X6.4247A-487.2644 F380.0
X6.3742A-489.0098 F380.0
X6.3487A-489.8058 F380.0
X6.3231A-490.5493 F380.0
X6.2972A-491.2392 F380.0
X6.2712A-491.8745 F380.0
X6.2450A-492.4542 F380.0
X6.2186A-492.9772 F380.0
X6.1920A-493.4426 F50.0
X6.1652A-493.8493 F50.0
X6.1382A-494.1962 F50.0
X6.1111A-494.4823 F50.0
X6.0837A-494.7067 F50.0
X6.0560A-494.8683 F50.0
X6.0282A-494.9659 F50.0
X6.0002A-494.9987 F50.0
X5.9721A-494.9659 F50.0
X5.9443A-494.8683 F50.0
X5.9167A-494.7067 F50.0
X5.8893A-494.4823 F50.0
X5.8621A-494.1962 F50.0
X5.8351A-493.8493 F50.0
X5.8083A-493.4426 F50.0
X5.7817A-492.9772 F50.0
X5.7553A-492.4542 F380.0
X5.7291A-491.8745 F380.0
X5.7031A-491.2392 F380.0
X5.6773A-490.5493 F380.0
X5.6516A-489.8058 F380.0
X5.6261A-489.0098 F380.0
X5.5757A-487.2644 F380.0
X5.5259A-485.3211 F380.0
X5.4767A-483.1884 F380.0
X5.4282A-480.8744 F380.0
X5.3802A-478.3874 F380.0
X5.3328A-475.7356 F380.0
X5.2859A-472.9272 F380.0
X5.2395A-469.9705 F380.0
X5.1936A-466.8737 F380.0
X5.1481A-463.6451 F380.0
X5.1031A-460.2929 F380.0
X5.0584A-456.8253 F380.0
X5.0141A-453.2507 F380.0
X4.9701A-449.5771 F380.0
