(VECTRIC POST REV.)
(4943E22A0867EDC45D91771F33798195)
T1M6
G17
G0Z1.0000
G0X0.0000A-89.8757S19000M3
G0X1.9749A-45.0022
G0Z0.2000
G1Z-0.0071F6.5
G1X1.9161A-39.9241F21.0
X1.8577A-34.7001
X1.7998A-29.3501
X1.7422A-23.8944
X1.6279A-12.7460
X1.5141A-1.4164
X1.4005A9.9334
X1.3435A15.5655
X1.2863A21.1421
X1.2289A26.6431
X1.1712A32.0484
X1.1131A37.3379
X1.0545A42.4913
X0.9954A47.4885
X0.9357A52.3093
X0.8753A56.9337
X0.8449A59.1658
X0.8142A61.3414
X0.7834A63.4577
X0.7524A65.5123
X0.7211A67.5026
X0.6896A69.4262
X0.6579A71.2805
X0.6260A73.0630
X0.5938A74.7712
X0.5613A76.4026
X0.5286A77.9546
X0.4956A79.4247
X0.4623A80.8105
X0.4287A82.1093
X0.3948A83.3187
X0.3606A84.4362
X0.3261A85.4592
X0.2913A86.3852
X0.2562A87.2117
X0.2207A87.9361
X0.1848A88.5561
X0.1486A89.0689
X0.1120A89.4722 F50
X0.0751A89.7634 F50
X0.0377A89.9399 F50
X0.0000A89.9993 F50
G1Z-0.0143F6.5
G1X0.0377A89.9399 F50
X0.0751A89.7634 F50
X0.1120A89.4722 F50
X0.1486A89.0689 F50
X0.1848A88.5561
X0.2207A87.9361
X0.2562A87.2117
X0.2913A86.3852
X0.3261A85.4592
X0.3606A84.4362
X0.3948A83.3187
X0.4287A82.1093
X0.4623A80.8105
X0.4956A79.4247
X0.5286A77.9546
X0.5613A76.4026
X0.5938A74.7712
X0.6260A73.0630
X0.6579A71.2805
X0.6896A69.4262
X0.7211A67.5026
X0.7524A65.5123
X0.7834A63.4577
X0.8142A61.3414
X0.8449A59.1658
X0.8753A56.9337
X0.9357A52.3093
X0.9954A47.4885
X1.0545A42.4913
X1.1131A37.3379
X1.1712A32.0484
X1.2289A26.6431
X1.2863A21.1421
X1.3435A15.5655
X1.4005A9.9334
X1.5141A-1.4164
X1.6279A-12.7460
X1.7422A-23.8944
X1.7998A-29.3501
X1.8577A-34.7001
X1.9161A-39.9241
X1.9749A-45.0020
G1X1.9749A-45.0022Z-0.0214F6.5
G1X1.9161A-39.9241F21.0
X1.8577A-34.7001
X1.7998A-29.3501
X1.7422A-23.8944
X1.6279A-12.7460
X1.5141A-1.4164
X1.4005A9.9334
X1.3435A15.5655
X1.2863A21.1421
X1.2289A26.6431
X1.1712A32.0484
X1.1131A37.3379
X1.0545A42.4913
X0.9954A47.4885
X0.9357A52.3093
X0.8753A56.9337
X0.8449A59.1658
X0.8142A61.3414
X0.7834A63.4577
X0.7524A65.5123
X0.7211A67.5026
X0.6896A69.4262
X0.6579A71.2805
X0.6260A73.0630
X0.5938A74.7712
X0.5613A76.4026
X0.5286A77.9546
X0.4956A79.4247
X0.4623A80.8105
X0.4287A82.1093
X0.3948A83.3187
X0.3606A84.4362
X0.3261A85.4592
X0.2913A86.3852
X0.2562A87.2117
X0.2207A87.9361
X0.1848A88.5561
X0.1486A89.0689
X0.1120A89.4722 F50
X0.0751A89.7634 F50
X0.0377A89.9399 F50
X0.0000A89.9993 F50
G1Z-0.0286F6.5
G1X0.0377A89.9399 F50
X0.0751A89.7634 F50
X0.1120A89.4722 F50
X0.1486A89.0689 F50
X0.1848A88.5561
X0.2207A87.9361
X0.2562A87.2117
X0.2913A86.3852
X0.3261A85.4592
X0.3606A84.4362
X0.3948A83.3187
X0.4287A82.1093
X0.4623A80.8105
X0.4956A79.4247
X0.5286A77.9546
X0.5613A76.4026
X0.5938A74.7712
X0.6260A73.0630
X0.6579A71.2805
X0.6896A69.4262
X0.7211A67.5026
X0.7524A65.5123
X0.7834A63.4577
X0.8142A61.3414
X0.8449A59.1658
X0.8753A56.9337
X0.9357A52.3093
X0.9954A47.4885
X1.0545A42.4913
X1.1131A37.3379
X1.1712A32.0484
X1.2289A26.6431
X1.2863A21.1421
X1.3435A15.5655
X1.4005A9.9334
X1.5141A-1.4164
X1.6279A-12.7460
X1.7422A-23.8944
X1.7998A-29.3501
X1.8577A-34.7001
X1.9161A-39.9241
X1.9749A-45.0020
G1X1.9749A-45.0022Z-0.0357F6.5
G1X1.9161A-39.9241F21.0
X1.8577A-34.7001
X1.7998A-29.3501
X1.7422A-23.8944
X1.6279A-12.7460
X1.5141A-1.4164
X1.4005A9.9334
X1.3435A15.5655
X1.2863A21.1421
X1.2289A26.6431
X1.1712A32.0484
X1.1131A37.3379
X1.0545A42.4913
X0.9954A47.4885
X0.9357A52.3093
X0.8753A56.9337
X0.8449A59.1658
X0.8142A61.3414
X0.7834A63.4577
X0.7524A65.5123
X0.7211A67.5026
X0.6896A69.4262
X0.6579A71.2805
X0.6260A73.0630
X0.5938A74.7712
X0.5613A76.4026
X0.5286A77.9546
X0.4956A79.4247
X0.4623A80.8105
X0.4287A82.1093
X0.3948A83.3187
X0.3606A84.4362
X0.3261A85.4592
X0.2913A86.3852
X0.2562A87.2117
X0.2207A87.9361
X0.1848A88.5561
X0.1486A89.0689
X0.1120A89.4722 F50
X0.0751A89.7634 F50
X0.0377A89.9399 F50
X0.0000A89.9993 F50
G1Z-0.0429F6.5
G1X0.0377A89.9399 F50
X0.0751A89.7634 F50
X0.1120A89.4722 F50
X0.1486A89.0689 F50
X0.1848A88.5561
X0.2207A87.9361
X0.2562A87.2117
X0.2913A86.3852
X0.3261A85.4592
X0.3606A84.4362
X0.3948A83.3187
X0.4287A82.1093
X0.4623A80.8105
X0.4956A79.4247
X0.5286A77.9546
X0.5613A76.4026
X0.5938A74.7712
X0.6260A73.0630
X0.6579A71.2805
X0.6896A69.4262
X0.7211A67.5026
X0.7524A65.5123
X0.7834A63.4577
X0.8142A61.3414
X0.8449A59.1658
X0.8753A56.9337
X0.9357A52.3093
X0.9954A47.4885
X1.0545A42.4913
X1.1131A37.3379
X1.1712A32.0484
X1.2289A26.6431
X1.2863A21.1421
X1.3435A15.5655
X1.4005A9.9334
X1.5141A-1.4164
X1.6279A-12.7460
X1.7422A-23.8944
X1.7998A-29.3501
X1.8577A-34.7001
X1.9161A-39.9241
X1.9749A-45.0020
G1X1.9749A-45.0022Z-0.0500F6.5
G1X1.9161A-39.9241F21.0
X1.8577A-34.7001
X1.7998A-29.3501
X1.7422A-23.8944
X1.6279A-12.7460
X1.5141A-1.4164
X1.4005A9.9334
X1.3435A15.5655
X1.2863A21.1421
X1.2289A26.6431
X1.1712A32.0484
X1.1131A37.3379
X1.0545A42.4913
X0.9954A47.4885
X0.9357A52.3093
X0.8753A56.9337
X0.8449A59.1658
X0.8142A61.3414
X0.7834A63.4577
X0.7524A65.5123
X0.7211A67.5026
X0.6896A69.4262
X0.6579A71.2805
X0.6260A73.0630
X0.5938A74.7712
X0.5613A76.4026
X0.5286A77.9546
X0.4956A79.4247
X0.4623A80.8105
X0.4287A82.1093
X0.3948A83.3187
X0.3606A84.4362
X0.3261A85.4592
X0.2913A86.3852
X0.2562A87.2117
X0.2207A87.9361
X0.1848A88.5561
X0.1486A89.0689
X0.1120A89.4722 F50
X0.0751A89.7634 F50
X0.0377A89.9399 F50
X0.0000A89.9993 F50
G1Z-0.0571F6.5
G1X0.0377A89.9399 F50
X0.0751A89.7634 F50
X0.1120A89.4722 F50
X0.1486A89.0689 F50
X0.1848A88.5561
X0.2207A87.9361
X0.2562A87.2117
X0.2913A86.3852
X0.3261A85.4592
X0.3606A84.4362
X0.3948A83.3187
X0.4287A82.1093
X0.4623A80.8105
X0.4956A79.4247
X0.5286A77.9546
X0.5613A76.4026
X0.5938A74.7712
X0.6260A73.0630
X0.6579A71.2805
X0.6896A69.4262
X0.7211A67.5026
X0.7524A65.5123
X0.7834A63.4577
X0.8142A61.3414
X0.8449A59.1658
X0.8753A56.9337
X0.9357A52.3093
X0.9954A47.4885
X1.0545A42.4913
X1.1131A37.3379
X1.1712A32.0484
X1.2289A26.6431
X1.2863A21.1421
X1.3435A15.5655
X1.4005A9.9334
X1.5141A-1.4164
X1.6279A-12.7460
X1.7422A-23.8944
X1.7998A-29.3501
X1.8577A-34.7001
X1.9161A-39.9241
X1.9749A-45.0020
G1X1.9749A-45.0022Z-0.0643F6.5
G1X1.9161A-39.9241F21.0
X1.8577A-34.7001
X1.7998A-29.3501
X1.7422A-23.8944
X1.6279A-12.7460
X1.5141A-1.4164
X1.4005A9.9334
X1.3435A15.5655
X1.2863A21.1421
X1.2289A26.6431
X1.1712A32.0484
X1.1131A37.3379
X1.0545A42.4913
X0.9954A47.4885
X0.9357A52.3093
X0.8753A56.9337
X0.8449A59.1658
X0.8142A61.3414
X0.7834A63.4577
X0.7524A65.5123
X0.7211A67.5026
X0.6896A69.4262
X0.6579A71.2805
X0.6260A73.0630
X0.5938A74.7712
X0.5613A76.4026
X0.5286A77.9546
X0.4956A79.4247
X0.4623A80.8105
X0.4287A82.1093
X0.3948A83.3187
X0.3606A84.4362
X0.3261A85.4592
X0.2913A86.3852
X0.2562A87.2117
X0.2207A87.9361
X0.1848A88.5561
X0.1486A89.0689
X0.1120A89.4722 F50
X0.0751A89.7634 F50
X0.0377A89.9399 F50
X0.0000A89.9993 F50
G1Z-0.0714F6.5
G1X0.0377A89.9399 F50
X0.0751A89.7634 F50
X0.1120A89.4722 F50
X0.1486A89.0689 F50
X0.1848A88.5561
X0.2207A87.9361
X0.2562A87.2117
X0.2913A86.3852
X0.3261A85.4592
X0.3606A84.4362
X0.3948A83.3187
X0.4287A82.1093
X0.4623A80.8105
X0.4956A79.4247
X0.5286A77.9546
X0.5613A76.4026
X0.5938A74.7712
X0.6260A73.0630
X0.6579A71.2805
X0.6896A69.4262
X0.7211A67.5026
X0.7524A65.5123
X0.7834A63.4577
X0.8142A61.3414
X0.8449A59.1658
X0.8753A56.9337
X0.9357A52.3093
X0.9954A47.4885
X1.0545A42.4913
X1.1131A37.3379
X1.1712A32.0484
X1.2289A26.6431
X1.2863A21.1421
X1.3435A15.5655
X1.4005A9.9334
X1.5141A-1.4164
X1.6279A-12.7460
X1.7422A-23.8944
X1.7998A-29.3501
X1.8577A-34.7001
X1.9161A-39.9241
X1.9749A-45.0020
G1X1.9749A-45.0022Z-0.0786F6.5
G1X1.9161A-39.9241F21.0
X1.8577A-34.7001
X1.7998A-29.3501
X1.7422A-23.8944
X1.6279A-12.7460
X1.5141A-1.4164
X1.4005A9.9334
X1.3435A15.5655
X1.2863A21.1421
X1.2289A26.6431
X1.1712A32.0484
X1.1131A37.3379
X1.0545A42.4913
X0.9954A47.4885
X0.9357A52.3093
X0.8753A56.9337
X0.8449A59.1658
X0.8142A61.3414
X0.7834A63.4577
X0.7524A65.5123
X0.7211A67.5026
X0.6896A69.4262
X0.6579A71.2805
X0.6260A73.0630
X0.5938A74.7712
X0.5613A76.4026
X0.5286A77.9546
X0.4956A79.4247
X0.4623A80.8105
X0.4287A82.1093
X0.3948A83.3187
X0.3606A84.4362
X0.3261A85.4592
X0.2913A86.3852
X0.2562A87.2117
X0.2207A87.9361
X0.1848A88.5561
X0.1486A89.0689
X0.1120A89.4722 F50
X0.0751A89.7634 F50
X0.0377A89.9399 F50
X0.0000A89.9993 F50
G1Z-0.0857F6.5
G1X0.0377A89.9399 F50
X0.0751A89.7634 F50
X0.1120A89.4722 F50
X0.1486A89.0689 F50
X0.1848A88.5561
X0.2207A87.9361
X0.2562A87.2117
X0.2913A86.3852
X0.3261A85.4592
X0.3606A84.4362
X0.3948A83.3187
X0.4287A82.1093
X0.4623A80.8105
X0.4956A79.4247
X0.5286A77.9546
X0.5613A76.4026
X0.5938A74.7712
X0.6260A73.0630
X0.6579A71.2805
X0.6896A69.4262
X0.7211A67.5026
X0.7524A65.5123
X0.7834A63.4577
X0.8142A61.3414
X0.8449A59.1658
X0.8753A56.9337
X0.9357A52.3093
X0.9954A47.4885
X1.0545A42.4913
X1.1131A37.3379
X1.1712A32.0484
X1.2289A26.6431
X1.2863A21.1421
X1.3435A15.5655
X1.4005A9.9334
X1.5141A-1.4164
X1.6279A-12.7460
X1.7422A-23.8944
X1.7998A-29.3501
X1.8577A-34.7001
X1.9161A-39.9241
X1.9749A-45.0020
G1X1.9749A-45.0022Z-0.0929F6.5
G1X1.9161A-39.9241F21.0
X1.8577A-34.7001
X1.7998A-29.3501
X1.7422A-23.8944
X1.6279A-12.7460
X1.5141A-1.4164
X1.4005A9.9334
X1.3435A15.5655
X1.2863A21.1421
X1.2289A26.6431
X1.1712A32.0484
X1.1131A37.3379
X1.0545A42.4913
X0.9954A47.4885
X0.9357A52.3093
X0.8753A56.9337
X0.8449A59.1658
X0.8142A61.3414
X0.7834A63.4577
X0.7524A65.5123
X0.7211A67.5026
X0.6896A69.4262
X0.6579A71.2805
X0.6260A73.0630
X0.5938A74.7712
X0.5613A76.4026
X0.5286A77.9546
X0.4956A79.4247
X0.4623A80.8105
X0.4287A82.1093
X0.3948A83.3187
X0.3606A84.4362
X0.3261A85.4592
X0.2913A86.3852
X0.2562A87.2117
X0.2207A87.9361
X0.1848A88.5561
X0.1486A89.0689
X0.1120A89.4722 F50
X0.0751A89.7634 F50
X0.0377A89.9399 F50
X0.0000A89.9993 F50
G1Z-0.1000F6.5
G1X0.0377A89.9399 F50
X0.0751A89.7634 F50
X0.1120A89.4722 F50
X0.1486A89.0689 F50
X0.1848A88.5561
X0.2207A87.9361
X0.2562A87.2117
X0.2913A86.3852
X0.3261A85.4592
X0.3606A84.4362
X0.3948A83.3187
X0.4287A82.1093
X0.4623A80.8105
X0.4956A79.4247
X0.5286A77.9546
X0.5613A76.4026
X0.5938A74.7712
X0.6260A73.0630
X0.6579A71.2805
X0.6896A69.4262
X0.7211A67.5026
X0.7524A65.5123
X0.7834A63.4577
X0.8142A61.3414
X0.8449A59.1658
X0.8753A56.9337
X0.9357A52.3093
X0.9954A47.4885
X1.0545A42.4913
X1.1131A37.3379
X1.1712A32.0484
X1.2289A26.6431
X1.2863A21.1421
X1.3435A15.5655
X1.4005A9.9334
X1.5141A-1.4164
X1.6279A-12.7460
X1.7422A-23.8944
X1.7998A-29.3501
X1.8577A-34.7001
X1.9161A-39.9241
X1.9749A-45.0020
G0Z0.2000
G0X1.9749A-135.0012
G1Z-0.0071F6.5
G1X1.9161A-129.9232F21.0
X1.8577A-124.6992
X1.7998A-119.3492
X1.7422A-113.8934
X1.6279A-102.7451
X1.5141A-91.4154
X1.4005A-80.0656
X1.3435A-74.4335
X1.2863A-68.8569
X1.2289A-63.3558
X1.1712A-57.9504
X1.1131A-52.6610
X1.0545A-47.5076
X0.9954A-42.5103
X0.9357A-37.6894
X0.8753A-33.0651
X0.8449A-30.8328
X0.8142A-28.6573
X0.7834A-26.5410
X0.7524A-24.4864
X0.7211A-22.4960
X0.6896A-20.5724
X0.6579A-18.7181
X0.6260A-16.9355
X0.5938A-15.2273
X0.5613A-13.5959
X0.5286A-12.0439
X0.4956A-10.5738
X0.4623A-9.1880
X0.4287A-7.8892
X0.3948A-6.6797
X0.3606A-5.5623
X0.3261A-4.5393
X0.2913A-3.6133
X0.2562A-2.7868
X0.2207A-2.0623
X0.1848A-1.4424
X0.1486A-0.9295
X0.1120A-0.5262 F50
X0.0751A-0.2350 F50
X0.0377A-0.0585 F50
X0.0000A0.0009 F50
X-0.0007A0.0009 F50
G1Z-0.0143F6.5
G1X0.0000A0.0009 F50
X0.0377A-0.0585 F50
X0.0751A-0.2350 F50
X0.1120A-0.5262 F50
X0.1486A-0.9295 F50
X0.1848A-1.4424
X0.2207A-2.0623
X0.2562A-2.7868
X0.2913A-3.6133
X0.3261A-4.5393
X0.3606A-5.5623
X0.3948A-6.6797
X0.4287A-7.8892
X0.4623A-9.1880
X0.4956A-10.5738
X0.5286A-12.0439
X0.5613A-13.5959
X0.5938A-15.2273
X0.6260A-16.9355
X0.6579A-18.7181
X0.6896A-20.5724
X0.7211A-22.4960
X0.7524A-24.4864
X0.7834A-26.5410
X0.8142A-28.6573
X0.8449A-30.8328
X0.8753A-33.0651
X0.9357A-37.6894
X0.9954A-42.5103
X1.0545A-47.5076
X1.1131A-52.6610
X1.1712A-57.9504
X1.2289A-63.3558
X1.2863A-68.8569
X1.3435A-74.4335
X1.4005A-80.0656
X1.5141A-91.4154
X1.6279A-102.7451
X1.7422A-113.8934
X1.7998A-119.3492
X1.8577A-124.6992
X1.9161A-129.9232
X1.9749A-135.0011
G1X1.9749A-135.0012Z-0.0214F6.5
G1X1.9161A-129.9232F21.0
X1.8577A-124.6992
X1.7998A-119.3492
X1.7422A-113.8934
X1.6279A-102.7451
X1.5141A-91.4154
X1.4005A-80.0656
X1.3435A-74.4335
X1.2863A-68.8569
X1.2289A-63.3558
X1.1712A-57.9504
X1.1131A-52.6610
X1.0545A-47.5076
X0.9954A-42.5103
X0.9357A-37.6894
X0.8753A-33.0651
X0.8449A-30.8328
X0.8142A-28.6573
X0.7834A-26.5410
X0.7524A-24.4864
X0.7211A-22.4960
X0.6896A-20.5724
X0.6579A-18.7181
X0.6260A-16.9355
X0.5938A-15.2273
X0.5613A-13.5959
X0.5286A-12.0439
X0.4956A-10.5738
X0.4623A-9.1880
X0.4287A-7.8892
X0.3948A-6.6797
X0.3606A-5.5623
X0.3261A-4.5393
X0.2913A-3.6133
X0.2562A-2.7868
X0.2207A-2.0623
X0.1848A-1.4424
X0.1486A-0.9295
X0.1120A-0.5262 F50
X0.0751A-0.2350 F50
X0.0377A-0.0585 F50
X0.0000A0.0009 F50
X-0.0007A0.0009 F50
G1Z-0.0286F6.5
G1X0.0000A0.0009 F50
X0.0377A-0.0585 F50
X0.0751A-0.2350 F50
X0.1120A-0.5262 F50
X0.1486A-0.9295 F50
X0.1848A-1.4424
X0.2207A-2.0623
X0.2562A-2.7868
X0.2913A-3.6133
X0.3261A-4.5393
X0.3606A-5.5623
X0.3948A-6.6797
X0.4287A-7.8892
X0.4623A-9.1880
X0.4956A-10.5738
X0.5286A-12.0439
X0.5613A-13.5959
X0.5938A-15.2273
X0.6260A-16.9355
X0.6579A-18.7181
X0.6896A-20.5724
X0.7211A-22.4960
X0.7524A-24.4864
X0.7834A-26.5410
X0.8142A-28.6573
X0.8449A-30.8328
X0.8753A-33.0651
X0.9357A-37.6894
X0.9954A-42.5103
X1.0545A-47.5076
X1.1131A-52.6610
X1.1712A-57.9504
X1.2289A-63.3558
X1.2863A-68.8569
X1.3435A-74.4335
X1.4005A-80.0656
X1.5141A-91.4154
X1.6279A-102.7451
X1.7422A-113.8934
X1.7998A-119.3492
X1.8577A-124.6992
X1.9161A-129.9232
X1.9749A-135.0011
G1X1.9749A-135.0012Z-0.0357F6.5
G1X1.9161A-129.9232F21.0
X1.8577A-124.6992
X1.7998A-119.3492
X1.7422A-113.8934
X1.6279A-102.7451
X1.5141A-91.4154
X1.4005A-80.0656
X1.3435A-74.4335
X1.2863A-68.8569
X1.2289A-63.3558
X1.1712A-57.9504
X1.1131A-52.6610
X1.0545A-47.5076
X0.9954A-42.5103
X0.9357A-37.6894
X0.8753A-33.0651
X0.8449A-30.8328
X0.8142A-28.6573
X0.7834A-26.5410
X0.7524A-24.4864
X0.7211A-22.4960
X0.6896A-20.5724
X0.6579A-18.7181
X0.6260A-16.9355
X0.5938A-15.2273
X0.5613A-13.5959
X0.5286A-12.0439
X0.4956A-10.5738
X0.4623A-9.1880
X0.4287A-7.8892
X0.3948A-6.6797
X0.3606A-5.5623
X0.3261A-4.5393
X0.2913A-3.6133
X0.2562A-2.7868
X0.2207A-2.0623
X0.1848A-1.4424
X0.1486A-0.9295
X0.1120A-0.5262 F50
X0.0751A-0.2350 F50
X0.0377A-0.0585 F50
X0.0000A0.0009 F50
X-0.0007A0.0009 F50
G1Z-0.0429F6.5
G1X0.0000A0.0009 F50
X0.0377A-0.0585 F50
X0.0751A-0.2350 F50
X0.1120A-0.5262 F50
X0.1486A-0.9295 F50
X0.1848A-1.4424
X0.2207A-2.0623
X0.2562A-2.7868
X0.2913A-3.6133
X0.3261A-4.5393
X0.3606A-5.5623
X0.3948A-6.6797
X0.4287A-7.8892
X0.4623A-9.1880
X0.4956A-10.5738
X0.5286A-12.0439
X0.5613A-13.5959
X0.5938A-15.2273
X0.6260A-16.9355
X0.6579A-18.7181
X0.6896A-20.5724
X0.7211A-22.4960
X0.7524A-24.4864
X0.7834A-26.5410
X0.8142A-28.6573
X0.8449A-30.8328
X0.8753A-33.0651
X0.9357A-37.6894
X0.9954A-42.5103
X1.0545A-47.5076
X1.1131A-52.6610
X1.1712A-57.9504
X1.2289A-63.3558
X1.2863A-68.8569
X1.3435A-74.4335
X1.4005A-80.0656
X1.5141A-91.4154
X1.6279A-102.7451
X1.7422A-113.8934
X1.7998A-119.3492
X1.8577A-124.6992
X1.9161A-129.9232
X1.9749A-135.0011
G1X1.9749A-135.0012Z-0.0500F6.5
G1X1.9161A-129.9232F21.0
X1.8577A-124.6992
X1.7998A-119.3492
X1.7422A-113.8934
X1.6279A-102.7451
X1.5141A-91.4154
X1.4005A-80.0656
X1.3435A-74.4335
X1.2863A-68.8569
X1.2289A-63.3558
X1.1712A-57.9504
X1.1131A-52.6610
X1.0545A-47.5076
X0.9954A-42.5103
X0.9357A-37.6894
X0.8753A-33.0651
X0.8449A-30.8328
X0.8142A-28.6573
X0.7834A-26.5410
X0.7524A-24.4864
X0.7211A-22.4960
X0.6896A-20.5724
X0.6579A-18.7181
X0.6260A-16.9355
X0.5938A-15.2273
X0.5613A-13.5959
X0.5286A-12.0439
X0.4956A-10.5738
X0.4623A-9.1880
X0.4287A-7.8892
X0.3948A-6.6797
X0.3606A-5.5623
X0.3261A-4.5393
X0.2913A-3.6133
X0.2562A-2.7868
X0.2207A-2.0623
X0.1848A-1.4424
X0.1486A-0.9295
X0.1120A-0.5262 F50
X0.0751A-0.2350 F50
X0.0377A-0.0585 F50
X0.0000A0.0009 F50
X-0.0007A0.0009 F50
G1Z-0.0571F6.5
G1X0.0000A0.0009 F50
X0.0377A-0.0585 F50
X0.0751A-0.2350 F50
X0.1120A-0.5262 F50
X0.1486A-0.9295 F50
X0.1848A-1.4424
X0.2207A-2.0623
X0.2562A-2.7868
X0.2913A-3.6133
X0.3261A-4.5393
X0.3606A-5.5623
X0.3948A-6.6797
X0.4287A-7.8892
X0.4623A-9.1880
X0.4956A-10.5738
X0.5286A-12.0439
X0.5613A-13.5959
X0.5938A-15.2273
X0.6260A-16.9355
X0.6579A-18.7181
X0.6896A-20.5724
X0.7211A-22.4960
X0.7524A-24.4864
X0.7834A-26.5410
X0.8142A-28.6573
X0.8449A-30.8328
X0.8753A-33.0651
X0.9357A-37.6894
X0.9954A-42.5103
X1.0545A-47.5076
X1.1131A-52.6610
X1.1712A-57.9504
X1.2289A-63.3558
X1.2863A-68.8569
X1.3435A-74.4335
X1.4005A-80.0656
X1.5141A-91.4154
X1.6279A-102.7451
X1.7422A-113.8934
X1.7998A-119.3492
X1.8577A-124.6992
X1.9161A-129.9232
X1.9749A-135.0011
G1X1.9749A-135.0012Z-0.0643F6.5
G1X1.9161A-129.9232F21.0
X1.8577A-124.6992
X1.7998A-119.3492
X1.7422A-113.8934
X1.6279A-102.7451
X1.5141A-91.4154
X1.4005A-80.0656
X1.3435A-74.4335
X1.2863A-68.8569
X1.2289A-63.3558
X1.1712A-57.9504
X1.1131A-52.6610
X1.0545A-47.5076
X0.9954A-42.5103
X0.9357A-37.6894
X0.8753A-33.0651
X0.8449A-30.8328
X0.8142A-28.6573
X0.7834A-26.5410
X0.7524A-24.4864
X0.7211A-22.4960
X0.6896A-20.5724
X0.6579A-18.7181
X0.6260A-16.9355
X0.5938A-15.2273
X0.5613A-13.5959
X0.5286A-12.0439
X0.4956A-10.5738
X0.4623A-9.1880
X0.4287A-7.8892
X0.3948A-6.6797
X0.3606A-5.5623
X0.3261A-4.5393
X0.2913A-3.6133
X0.2562A-2.7868
X0.2207A-2.0623
X0.1848A-1.4424
X0.1486A-0.9295
X0.1120A-0.5262 F50
X0.0751A-0.2350 F50
X0.0377A-0.0585 F50
X0.0000A0.0009 F50
X-0.0007A0.0009 F50
G1Z-0.0714F6.5
G1X0.0000A0.0009 F50
X0.0377A-0.0585 F50
X0.0751A-0.2350 F50
X0.1120A-0.5262 F50
X0.1486A-0.9295 F50
X0.1848A-1.4424
X0.2207A-2.0623
X0.2562A-2.7868
X0.2913A-3.6133
X0.3261A-4.5393
X0.3606A-5.5623
X0.3948A-6.6797
X0.4287A-7.8892
X0.4623A-9.1880
X0.4956A-10.5738
X0.5286A-12.0439
X0.5613A-13.5959
X0.5938A-15.2273
X0.6260A-16.9355
X0.6579A-18.7181
X0.6896A-20.5724
X0.7211A-22.4960
X0.7524A-24.4864
X0.7834A-26.5410
X0.8142A-28.6573
X0.8449A-30.8328
X0.8753A-33.0651
X0.9357A-37.6894
X0.9954A-42.5103
X1.0545A-47.5076
X1.1131A-52.6610
X1.1712A-57.9504
X1.2289A-63.3558
X1.2863A-68.8569
X1.3435A-74.4335
X1.4005A-80.0656
X1.5141A-91.4154
X1.6279A-102.7451
X1.7422A-113.8934
X1.7998A-119.3492
X1.8577A-124.6992
X1.9161A-129.9232
X1.9749A-135.0011
G1X1.9749A-135.0012Z-0.0786F6.5
G1X1.9161A-129.9232F21.0
X1.8577A-124.6992
X1.7998A-119.3492
X1.7422A-113.8934
X1.6279A-102.7451
X1.5141A-91.4154
X1.4005A-80.0656
X1.3435A-74.4335
X1.2863A-68.8569
X1.2289A-63.3558
X1.1712A-57.9504
X1.1131A-52.6610
X1.0545A-47.5076
X0.9954A-42.5103
X0.9357A-37.6894
X0.8753A-33.0651
X0.8449A-30.8328
X0.8142A-28.6573
X0.7834A-26.5410
X0.7524A-24.4864
X0.7211A-22.4960
X0.6896A-20.5724
X0.6579A-18.7181
X0.6260A-16.9355
X0.5938A-15.2273
X0.5613A-13.5959
X0.5286A-12.0439
X0.4956A-10.5738
X0.4623A-9.1880
X0.4287A-7.8892
X0.3948A-6.6797
X0.3606A-5.5623
X0.3261A-4.5393
X0.2913A-3.6133
X0.2562A-2.7868
X0.2207A-2.0623
X0.1848A-1.4424
X0.1486A-0.9295
X0.1120A-0.5262 F50
X0.0751A-0.2350 F50
X0.0377A-0.0585 F50
X0.0000A0.0009 F50
X-0.0007A0.0009 F50
G1Z-0.0857F6.5
G1X0.0000A0.0009 F50
X0.0377A-0.0585 F50
X0.0751A-0.2350 F50
X0.1120A-0.5262 F50
X0.1486A-0.9295 F50
X0.1848A-1.4424
X0.2207A-2.0623
X0.2562A-2.7868
X0.2913A-3.6133
X0.3261A-4.5393
X0.3606A-5.5623
X0.3948A-6.6797
X0.4287A-7.8892
X0.4623A-9.1880
X0.4956A-10.5738
X0.5286A-12.0439
X0.5613A-13.5959
X0.5938A-15.2273
X0.6260A-16.9355
X0.6579A-18.7181
X0.6896A-20.5724
X0.7211A-22.4960
X0.7524A-24.4864
X0.7834A-26.5410
X0.8142A-28.6573
X0.8449A-30.8328
X0.8753A-33.0651
X0.9357A-37.6894
X0.9954A-42.5103
X1.0545A-47.5076
X1.1131A-52.6610
X1.1712A-57.9504
X1.2289A-63.3558
X1.2863A-68.8569
X1.3435A-74.4335
X1.4005A-80.0656
X1.5141A-91.4154
X1.6279A-102.7451
X1.7422A-113.8934
X1.7998A-119.3492
X1.8577A-124.6992
X1.9161A-129.9232
X1.9749A-135.0011
G1X1.9749A-135.0012Z-0.0929F6.5
G1X1.9161A-129.9232F21.0
X1.8577A-124.6992
X1.7998A-119.3492
X1.7422A-113.8934
X1.6279A-102.7451
X1.5141A-91.4154
X1.4005A-80.0656
X1.3435A-74.4335
X1.2863A-68.8569
X1.2289A-63.3558
X1.1712A-57.9504
X1.1131A-52.6610
X1.0545A-47.5076
X0.9954A-42.5103
X0.9357A-37.6894
X0.8753A-33.0651
X0.8449A-30.8328
X0.8142A-28.6573
X0.7834A-26.5410
X0.7524A-24.4864
X0.7211A-22.4960
X0.6896A-20.5724
X0.6579A-18.7181
X0.6260A-16.9355
X0.5938A-15.2273
X0.5613A-13.5959
X0.5286A-12.0439
X0.4956A-10.5738
X0.4623A-9.1880
X0.4287A-7.8892
X0.3948A-6.6797
X0.3606A-5.5623
X0.3261A-4.5393
X0.2913A-3.6133
X0.2562A-2.7868
X0.2207A-2.0623
X0.1848A-1.4424
X0.1486A-0.9295
X0.1120A-0.5262 F50
X0.0751A-0.2350 F50
X0.0377A-0.0585 F50
X0.0000A0.0009 F50
X-0.0007A0.0009 F50
G1Z-0.1000F6.5
G1X0.0000A0.0009 F50
X0.0377A-0.0585 F50
X0.0751A-0.2350 F50
X0.1120A-0.5262 F50
X0.1486A-0.9295 F50
X0.1848A-1.4424
X0.2207A-2.0623
X0.2562A-2.7868
X0.2913A-3.6133
X0.3261A-4.5393
X0.3606A-5.5623
X0.3948A-6.6797
X0.4287A-7.8892
X0.4623A-9.1880
X0.4956A-10.5738
X0.5286A-12.0439
X0.5613A-13.5959
X0.5938A-15.2273
X0.6260A-16.9355
X0.6579A-18.7181
X0.6896A-20.5724
X0.7211A-22.4960
X0.7524A-24.4864
X0.7834A-26.5410
X0.8142A-28.6573
X0.8449A-30.8328
X0.8753A-33.0651
X0.9357A-37.6894
X0.9954A-42.5103
X1.0545A-47.5076
X1.1131A-52.6610
X1.1712A-57.9504
X1.2289A-63.3558
X1.2863A-68.8569
X1.3435A-74.4335
X1.4005A-80.0656
X1.5141A-91.4154
X1.6279A-102.7451
X1.7422A-113.8934
X1.7998A-119.3492
X1.8577A-124.6992
X1.9161A-129.9232
X1.9749A-135.0011
G0Z0.2000
G0X8.9996A-135.0001
G1Z-0.0071F6.5
G1X9.0001A-135.0001 F50
X9.0005A-135.0008 F50
X9.0001A-135.0015 F50
X8.9720A-134.9687 F50
X8.9442A-134.8710 F50
X8.9166A-134.7095 F50
X8.8892A-134.4851 F50
X8.8620A-134.1989 F50
X8.8350A-133.8520 F50
X8.8082A-133.4454 F50
X8.7816A-132.9800 F50
X8.7552A-132.4569
X8.7290A-131.8772
X8.7030A-131.2419
X8.6771A-130.5520
X8.6515A-129.8085
X8.6260A-129.0125
X8.5756A-127.2671
X8.5258A-125.3239
X8.4766A-123.1912
X8.4281A-120.8772
X8.3801A-118.3901
X8.3327A-115.7383
X8.2858A-112.9299
X8.2394A-109.9732
X8.1935A-106.8765
X8.1480A-103.6479
X8.1029A-100.2957
X8.0583A-96.8281
X8.0139A-93.2534
X7.9699A-89.5799
X7.9263A-85.8157
X7.8829A-81.9691
X7.8397A-78.0483
X7.7540A-70.0173
X7.6690A-61.7886
X7.5001A-45.0015
X7.4157A-36.5750
X7.3311A-28.2144
X7.2461A-19.9856
X7.2034A-15.9413
X7.1604A-11.9546
X7.1173A-8.0338
X7.0738A-4.1873
X7.0302A-0.4231
X6.9862A3.2505
X6.9419A6.8252
X6.8972A10.2927
X6.8521A13.6449
X6.8066A16.8735
X6.7607A19.9703
X6.7143A22.9270
X6.6674A25.7354
X6.6200A28.3872
X6.5720A30.8742
X6.5235A33.1882
X6.4743A35.3210
X6.4246A37.2642
X6.3741A39.0096
X6.3486A39.8056
X6.3230A40.5491
X6.2971A41.2390
X6.2711A41.8743
X6.2449A42.4540
X6.2185A42.9770
X6.1919A43.4424 F50
X6.1651A43.8491 F50
X6.1381A44.1960 F50
X6.1109A44.4822 F50
X6.0835A44.7065 F50
X6.0559A44.8681 F50
X6.0281A44.9657 F50
X6.0001A44.9985 F50
X5.9720A44.9657 F50
X5.9442A44.8681 F50
X5.9166A44.7065 F50
X5.8892A44.4822 F50
X5.8620A44.1960 F50
X5.8350A43.8491 F50
X5.8082A43.4424 F50
X5.7816A42.9770 F50
X5.7552A42.4540
X5.7290A41.8743
X5.7030A41.2390
X5.6771A40.5491
X5.6515A39.8056
X5.6260A39.0096
X5.5756A37.2642
X5.5258A35.3210
X5.4766A33.1882
X5.4281A30.8742
X5.3801A28.3872
X5.3327A25.7354
X5.2858A22.9270
X5.2394A19.9703
X5.1935A16.8735
X5.1480A13.6449
X5.1029A10.2927
X5.0583A6.8252
X5.0139A3.2505
X4.9699A-0.4231
X4.9263A-4.1873
X4.8829A-8.0338
X4.8397A-11.9546
X4.7540A-19.9856
X4.6690A-28.2144
X4.5001A-45.0015
X4.4157A-53.4280
X4.3311A-61.7886
X4.2461A-70.0173
X4.2034A-74.0617
X4.1604A-78.0483
X4.1173A-81.9691
X4.0738A-85.8157
X4.0302A-89.5799
X3.9862A-93.2534
X3.9419A-96.8281
X3.8972A-100.2957
X3.8521A-103.6479
X3.8066A-106.8765
X3.7607A-109.9732
X3.7143A-112.9299
X3.6674A-115.7383
X3.6200A-118.3901
X3.5720A-120.8772
X3.5235A-123.1912
X3.4743A-125.3239
X3.4246A-127.2671
X3.3741A-129.0125
X3.3486A-129.8085
X3.3230A-130.5520
X3.2971A-131.2419
X3.2711A-131.8772
X3.2449A-132.4569
X3.2185A-132.9800
X3.1919A-133.4454 F50
X3.1651A-133.8520 F50
X3.1381A-134.1989 F50
X3.1109A-134.4851 F50
X3.0835A-134.7095 F50
X3.0559A-134.8710 F50
X3.0281A-134.9687 F50
X3.0001A-135.0015 F50
X2.9995A-135.0008 F50
X3.0001A-135.0001 F50
X3.0005A-135.0001 F50
G1Z-0.0143F6.5
G1X3.0001A-135.0001 F50
X2.9995A-135.0008 F50
X3.0001A-135.0015 F50
X3.0281A-134.9687 F50
X3.0559A-134.8710 F50
X3.0835A-134.7095 F50
X3.1109A-134.4851 F50
X3.1381A-134.1989 F50
X3.1651A-133.8520 F50
X3.1919A-133.4454 F50
X3.2185A-132.9800 F50
X3.2449A-132.4569
X3.2711A-131.8772
X3.2971A-131.2419
X3.3230A-130.5520
X3.3486A-129.8085
X3.3741A-129.0125
X3.4246A-127.2671
X3.4743A-125.3239
X3.5235A-123.1912
X3.5720A-120.8772
X3.6200A-118.3901
X3.6674A-115.7383
X3.7143A-112.9299
X3.7607A-109.9732
X3.8066A-106.8765
X3.8521A-103.6479
X3.8972A-100.2957
X3.9419A-96.8281
X3.9862A-93.2534
X4.0302A-89.5799
X4.0738A-85.8157
X4.1173A-81.9691
X4.1604A-78.0483
X4.2034A-74.0617
X4.2461A-70.0173
X4.3311A-61.7886
X4.4157A-53.4280
X4.5001A-45.0015
X4.6690A-28.2144
X4.7540A-19.9856
X4.8397A-11.9546
X4.8829A-8.0338
X4.9263A-4.1873
X4.9699A-0.4231
X5.0139A3.2505
X5.0583A6.8252
X5.1029A10.2927
X5.1480A13.6449
X5.1935A16.8735
X5.2394A19.9703
X5.2858A22.9270
X5.3327A25.7354
X5.3801A28.3872
X5.4281A30.8742
X5.4766A33.1882
X5.5258A35.3210
X5.5756A37.2642
X5.6260A39.0096
X5.6515A39.8056
X5.6771A40.5491
X5.7030A41.2390
X5.7290A41.8743
X5.7552A42.4540
X5.7816A42.9770
X5.8082A43.4424 F50
X5.8350A43.8491 F50
X5.8620A44.1960 F50
X5.8892A44.4822 F50
X5.9166A44.7065 F50
X5.9442A44.8681 F50
X5.9720A44.9657 F50
X6.0001A44.9985 F50
X6.0281A44.9657 F50
X6.0559A44.8681 F50
X6.0835A44.7065 F50
X6.1109A44.4822 F50
X6.1381A44.1960 F50
X6.1651A43.8491 F50
X6.1919A43.4424 F50
X6.2185A42.9770 F50
X6.2449A42.4540
X6.2711A41.8743
X6.2971A41.2390
X6.3230A40.5491
X6.3486A39.8056
X6.3741A39.0096
X6.4246A37.2642
X6.4743A35.3210
X6.5235A33.1882
X6.5720A30.8742
X6.6200A28.3872
X6.6674A25.7354
X6.7143A22.9270
X6.7607A19.9703
X6.8066A16.8735
X6.8521A13.6449
X6.8972A10.2927
X6.9419A6.8252
X6.9862A3.2505
X7.0302A-0.4231
X7.0738A-4.1873
X7.1173A-8.0338
X7.1604A-11.9546
X7.2034A-15.9413
X7.2461A-19.9856
X7.3311A-28.2144
X7.4157A-36.5750
X7.5001A-45.0015
X7.6690A-61.7886
X7.7540A-70.0173
X7.8397A-78.0483
X7.8829A-81.9691
X7.9263A-85.8157
X7.9699A-89.5799
X8.0139A-93.2534
X8.0583A-96.8281
X8.1029A-100.2957
X8.1480A-103.6479
X8.1935A-106.8765
X8.2394A-109.9732
X8.2858A-112.9299
X8.3327A-115.7383
X8.3801A-118.3901
X8.4281A-120.8772
X8.4766A-123.1912
X8.5258A-125.3239
X8.5756A-127.2671
X8.6260A-129.0125
X8.6515A-129.8085
X8.6771A-130.5520
X8.7030A-131.2419
X8.7290A-131.8772
X8.7552A-132.4569
X8.7816A-132.9800
X8.8082A-133.4454 F50
X8.8350A-133.8520 F50
X8.8620A-134.1989 F50
X8.8892A-134.4851 F50
X8.9166A-134.7095 F50
X8.9442A-134.8710 F50
X8.9720A-134.9687 F50
X9.0001A-135.0015 F50
X9.0005A-135.0008 F50
X9.0001A-135.0001 F50
X8.9996A-135.0001 F50
G1Z-0.0214F6.5
G1X9.0001A-135.0001 F50
X9.0005A-135.0008 F50
X9.0001A-135.0015 F50
X8.9720A-134.9687 F50
X8.9442A-134.8710 F50
X8.9166A-134.7095 F50
X8.8892A-134.4851 F50
X8.8620A-134.1989 F50
X8.8350A-133.8520 F50
X8.8082A-133.4454 F50
X8.7816A-132.9800 F50
X8.7552A-132.4569
X8.7290A-131.8772
X8.7030A-131.2419
X8.6771A-130.5520
X8.6515A-129.8085
X8.6260A-129.0125
X8.5756A-127.2671
X8.5258A-125.3239
X8.4766A-123.1912
X8.4281A-120.8772
X8.3801A-118.3901
X8.3327A-115.7383
X8.2858A-112.9299
X8.2394A-109.9732
X8.1935A-106.8765
X8.1480A-103.6479
X8.1029A-100.2957
X8.0583A-96.8281
X8.0139A-93.2534
X7.9699A-89.5799
X7.9263A-85.8157
X7.8829A-81.9691
X7.8397A-78.0483
X7.7540A-70.0173
X7.6690A-61.7886
X7.5001A-45.0015
X7.4157A-36.5750
X7.3311A-28.2144
X7.2461A-19.9856
X7.2034A-15.9413
X7.1604A-11.9546
X7.1173A-8.0338
X7.0738A-4.1873
X7.0302A-0.4231
X6.9862A3.2505
X6.9419A6.8252
X6.8972A10.2927
X6.8521A13.6449
X6.8066A16.8735
X6.7607A19.9703
X6.7143A22.9270
X6.6674A25.7354
X6.6200A28.3872
X6.5720A30.8742
X6.5235A33.1882
X6.4743A35.3210
X6.4246A37.2642
X6.3741A39.0096
X6.3486A39.8056
X6.3230A40.5491
X6.2971A41.2390
X6.2711A41.8743
X6.2449A42.4540
X6.2185A42.9770
X6.1919A43.4424 F50
X6.1651A43.8491 F50
X6.1381A44.1960 F50
X6.1109A44.4822 F50
X6.0835A44.7065 F50
X6.0559A44.8681 F50
X6.0281A44.9657 F50
X6.0001A44.9985 F50
X5.9720A44.9657 F50
X5.9442A44.8681 F50
X5.9166A44.7065 F50
X5.8892A44.4822 F50
X5.8620A44.1960 F50
X5.8350A43.8491 F50
X5.8082A43.4424 F50
X5.7816A42.9770 F50
X5.7552A42.4540
X5.7290A41.8743
X5.7030A41.2390
X5.6771A40.5491
X5.6515A39.8056
X5.6260A39.0096
X5.5756A37.2642
X5.5258A35.3210
X5.4766A33.1882
X5.4281A30.8742
X5.3801A28.3872
X5.3327A25.7354
X5.2858A22.9270
X5.2394A19.9703
X5.1935A16.8735
X5.1480A13.6449
X5.1029A10.2927
X5.0583A6.8252
X5.0139A3.2505
X4.9699A-0.4231
X4.9263A-4.1873
X4.8829A-8.0338
X4.8397A-11.9546
X4.7540A-19.9856
X4.6690A-28.2144
X4.5001A-45.0015
X4.4157A-53.4280
X4.3311A-61.7886
X4.2461A-70.0173
X4.2034A-74.0617
X4.1604A-78.0483
X4.1173A-81.9691
X4.0738A-85.8157
X4.0302A-89.5799
X3.9862A-93.2534
X3.9419A-96.8281
X3.8972A-100.2957
X3.8521A-103.6479
X3.8066A-106.8765
X3.7607A-109.9732
X3.7143A-112.9299
X3.6674A-115.7383
X3.6200A-118.3901
X3.5720A-120.8772
X3.5235A-123.1912
X3.4743A-125.3239
X3.4246A-127.2671
X3.3741A-129.0125
X3.3486A-129.8085
X3.3230A-130.5520
X3.2971A-131.2419
X3.2711A-131.8772
X3.2449A-132.4569
X3.2185A-132.9800
X3.1919A-133.4454 F50
X3.1651A-133.8520 F50
X3.1381A-134.1989 F50
X3.1109A-134.4851 F50
X3.0835A-134.7095 F50
X3.0559A-134.8710 F50
X3.0281A-134.9687 F50
X3.0001A-135.0015 F50
X2.9995A-135.0008 F50
X3.0001A-135.0001 F50
X3.0005A-135.0001 F50
G1Z-0.0286F6.5
G1X3.0001A-135.0001 F50
X2.9995A-135.0008 F50
X3.0001A-135.0015 F50
X3.0281A-134.9687 F50
X3.0559A-134.8710 F50
X3.0835A-134.7095 F50
X3.1109A-134.4851 F50
X3.1381A-134.1989 F50
X3.1651A-133.8520 F50
X3.1919A-133.4454 F50
X3.2185A-132.9800 F50
X3.2449A-132.4569
X3.2711A-131.8772
X3.2971A-131.2419
X3.3230A-130.5520
X3.3486A-129.8085
X3.3741A-129.0125
X3.4246A-127.2671
X3.4743A-125.3239
X3.5235A-123.1912
X3.5720A-120.8772
X3.6200A-118.3901
X3.6674A-115.7383
X3.7143A-112.9299
X3.7607A-109.9732
X3.8066A-106.8765
X3.8521A-103.6479
X3.8972A-100.2957
X3.9419A-96.8281
X3.9862A-93.2534
X4.0302A-89.5799
X4.0738A-85.8157
X4.1173A-81.9691
X4.1604A-78.0483
X4.2034A-74.0617
X4.2461A-70.0173
X4.3311A-61.7886
X4.4157A-53.4280
X4.5001A-45.0015
X4.6690A-28.2144
X4.7540A-19.9856
X4.8397A-11.9546
X4.8829A-8.0338
X4.9263A-4.1873
X4.9699A-0.4231
X5.0139A3.2505
X5.0583A6.8252
X5.1029A10.2927
X5.1480A13.6449
X5.1935A16.8735
X5.2394A19.9703
X5.2858A22.9270
X5.3327A25.7354
X5.3801A28.3872
X5.4281A30.8742
X5.4766A33.1882
X5.5258A35.3210
X5.5756A37.2642
X5.6260A39.0096
X5.6515A39.8056
X5.6771A40.5491
X5.7030A41.2390
X5.7290A41.8743
X5.7552A42.4540
X5.7816A42.9770
X5.8082A43.4424 F50
X5.8350A43.8491 F50
X5.8620A44.1960 F50
X5.8892A44.4822 F50
X5.9166A44.7065 F50
X5.9442A44.8681 F50
X5.9720A44.9657 F50
X6.0001A44.9985 F50
X6.0281A44.9657 F50
X6.0559A44.8681 F50
X6.0835A44.7065 F50
X6.1109A44.4822 F50
X6.1381A44.1960 F50
X6.1651A43.8491 F50
X6.1919A43.4424 F50
X6.2185A42.9770 F50
X6.2449A42.4540
X6.2711A41.8743
X6.2971A41.2390
X6.3230A40.5491
X6.3486A39.8056
X6.3741A39.0096
X6.4246A37.2642
X6.4743A35.3210
X6.5235A33.1882
X6.5720A30.8742
X6.6200A28.3872
X6.6674A25.7354
X6.7143A22.9270
X6.7607A19.9703
X6.8066A16.8735
X6.8521A13.6449
X6.8972A10.2927
X6.9419A6.8252
X6.9862A3.2505
X7.0302A-0.4231
X7.0738A-4.1873
X7.1173A-8.0338
X7.1604A-11.9546
X7.2034A-15.9413
X7.2461A-19.9856
X7.3311A-28.2144
X7.4157A-36.5750
X7.5001A-45.0015
X7.6690A-61.7886
X7.7540A-70.0173
X7.8397A-78.0483
X7.8829A-81.9691
X7.9263A-85.8157
X7.9699A-89.5799
X8.0139A-93.2534
X8.0583A-96.8281
X8.1029A-100.2957
X8.1480A-103.6479
X8.1935A-106.8765
X8.2394A-109.9732
X8.2858A-112.9299
X8.3327A-115.7383
X8.3801A-118.3901
X8.4281A-120.8772
X8.4766A-123.1912
X8.5258A-125.3239
X8.5756A-127.2671
X8.6260A-129.0125
X8.6515A-129.8085
X8.6771A-130.5520
X8.7030A-131.2419
X8.7290A-131.8772
X8.7552A-132.4569
X8.7816A-132.9800
X8.8082A-133.4454 F50
X8.8350A-133.8520 F50
X8.8620A-134.1989 F50
X8.8892A-134.4851 F50
X8.9166A-134.7095 F50
X8.9442A-134.8710 F50
X8.9720A-134.9687 F50
X9.0001A-135.0015 F50
X9.0005A-135.0008 F50
X9.0001A-135.0001 F50
X8.9996A-135.0001 F50
G1Z-0.0357F6.5
G1X9.0001A-135.0001 F50
X9.0005A-135.0008 F50
X9.0001A-135.0015 F50
X8.9720A-134.9687 F50
X8.9442A-134.8710 F50
X8.9166A-134.7095 F50
X8.8892A-134.4851 F50
X8.8620A-134.1989 F50
X8.8350A-133.8520 F50
X8.8082A-133.4454 F50
X8.7816A-132.9800 F50
X8.7552A-132.4569
X8.7290A-131.8772
X8.7030A-131.2419
X8.6771A-130.5520
X8.6515A-129.8085
X8.6260A-129.0125
X8.5756A-127.2671
X8.5258A-125.3239
X8.4766A-123.1912
X8.4281A-120.8772
X8.3801A-118.3901
X8.3327A-115.7383
X8.2858A-112.9299
X8.2394A-109.9732
X8.1935A-106.8765
X8.1480A-103.6479
X8.1029A-100.2957
X8.0583A-96.8281
X8.0139A-93.2534
X7.9699A-89.5799
X7.9263A-85.8157
X7.8829A-81.9691
X7.8397A-78.0483
X7.7540A-70.0173
X7.6690A-61.7886
X7.5001A-45.0015
X7.4157A-36.5750
X7.3311A-28.2144
X7.2461A-19.9856
X7.2034A-15.9413
X7.1604A-11.9546
X7.1173A-8.0338
X7.0738A-4.1873
X7.0302A-0.4231
X6.9862A3.2505
X6.9419A6.8252
X6.8972A10.2927
X6.8521A13.6449
X6.8066A16.8735
X6.7607A19.9703
X6.7143A22.9270
X6.6674A25.7354
X6.6200A28.3872
X6.5720A30.8742
X6.5235A33.1882
X6.4743A35.3210
X6.4246A37.2642
X6.3741A39.0096
X6.3486A39.8056
X6.3230A40.5491
X6.2971A41.2390
X6.2711A41.8743
X6.2449A42.4540
X6.2185A42.9770
X6.1919A43.4424 F50
X6.1651A43.8491 F50
X6.1381A44.1960 F50
X6.1109A44.4822 F50
X6.0835A44.7065 F50
X6.0559A44.8681 F50
X6.0281A44.9657 F50
X6.0001A44.9985 F50
X5.9720A44.9657 F50
X5.9442A44.8681 F50
X5.9166A44.7065 F50
X5.8892A44.4822 F50
X5.8620A44.1960 F50
X5.8350A43.8491 F50
X5.8082A43.4424 F50
X5.7816A42.9770 F50
X5.7552A42.4540
X5.7290A41.8743
X5.7030A41.2390
X5.6771A40.5491
X5.6515A39.8056
X5.6260A39.0096
X5.5756A37.2642
X5.5258A35.3210
X5.4766A33.1882
X5.4281A30.8742
X5.3801A28.3872
X5.3327A25.7354
X5.2858A22.9270
X5.2394A19.9703
X5.1935A16.8735
X5.1480A13.6449
X5.1029A10.2927
X5.0583A6.8252
X5.0139A3.2505
X4.9699A-0.4231
X4.9263A-4.1873
X4.8829A-8.0338
X4.8397A-11.9546
X4.7540A-19.9856
X4.6690A-28.2144
X4.5001A-45.0015
X4.4157A-53.4280
X4.3311A-61.7886
X4.2461A-70.0173
X4.2034A-74.0617
X4.1604A-78.0483
X4.1173A-81.9691
X4.0738A-85.8157
X4.0302A-89.5799
X3.9862A-93.2534
X3.9419A-96.8281
X3.8972A-100.2957
X3.8521A-103.6479
X3.8066A-106.8765
X3.7607A-109.9732
X3.7143A-112.9299
X3.6674A-115.7383
X3.6200A-118.3901
X3.5720A-120.8772
X3.5235A-123.1912
X3.4743A-125.3239
X3.4246A-127.2671
X3.3741A-129.0125
X3.3486A-129.8085
X3.3230A-130.5520
X3.2971A-131.2419
X3.2711A-131.8772
X3.2449A-132.4569
X3.2185A-132.9800
X3.1919A-133.4454 F50
X3.1651A-133.8520 F50
X3.1381A-134.1989 F50
X3.1109A-134.4851 F50
X3.0835A-134.7095 F50
X3.0559A-134.8710 F50
X3.0281A-134.9687 F50
X3.0001A-135.0015 F50
X2.9995A-135.0008 F50
X3.0001A-135.0001 F50
X3.0005A-135.0001 F50
G1Z-0.0429F6.5
G1X3.0001A-135.0001 F50
X2.9995A-135.0008 F50
X3.0001A-135.0015 F50
X3.0281A-134.9687 F50
X3.0559A-134.8710 F50
X3.0835A-134.7095 F50
X3.1109A-134.4851 F50
X3.1381A-134.1989 F50
X3.1651A-133.8520 F50
X3.1919A-133.4454 F50
X3.2185A-132.9800 F50
X3.2449A-132.4569
X3.2711A-131.8772
X3.2971A-131.2419
X3.3230A-130.5520
X3.3486A-129.8085
X3.3741A-129.0125
X3.4246A-127.2671
X3.4743A-125.3239
X3.5235A-123.1912
X3.5720A-120.8772
X3.6200A-118.3901
X3.6674A-115.7383
X3.7143A-112.9299
X3.7607A-109.9732
X3.8066A-106.8765
X3.8521A-103.6479
X3.8972A-100.2957
X3.9419A-96.8281
X3.9862A-93.2534
X4.0302A-89.5799
X4.0738A-85.8157
X4.1173A-81.9691
X4.1604A-78.0483
X4.2034A-74.0617
X4.2461A-70.0173
X4.3311A-61.7886
X4.4157A-53.4280
X4.5001A-45.0015
X4.6690A-28.2144
X4.7540A-19.9856
X4.8397A-11.9546
X4.8829A-8.0338
X4.9263A-4.1873
X4.9699A-0.4231
X5.0139A3.2505
X5.0583A6.8252
X5.1029A10.2927
X5.1480A13.6449
X5.1935A16.8735
X5.2394A19.9703
X5.2858A22.9270
X5.3327A25.7354
X5.3801A28.3872
X5.4281A30.8742
X5.4766A33.1882
X5.5258A35.3210
X5.5756A37.2642
X5.6260A39.0096
X5.6515A39.8056
X5.6771A40.5491
X5.7030A41.2390
X5.7290A41.8743
X5.7552A42.4540
X5.7816A42.9770
X5.8082A43.4424 F50
X5.8350A43.8491 F50
X5.8620A44.1960 F50
X5.8892A44.4822 F50
X5.9166A44.7065 F50
X5.9442A44.8681 F50
X5.9720A44.9657 F50
X6.0001A44.9985 F50
X6.0281A44.9657 F50
X6.0559A44.8681 F50
X6.0835A44.7065 F50
X6.1109A44.4822 F50
X6.1381A44.1960 F50
X6.1651A43.8491 F50
X6.1919A43.4424 F50
X6.2185A42.9770 F50
X6.2449A42.4540
X6.2711A41.8743
X6.2971A41.2390
X6.3230A40.5491
X6.3486A39.8056
X6.3741A39.0096
X6.4246A37.2642
X6.4743A35.3210
X6.5235A33.1882
X6.5720A30.8742
X6.6200A28.3872
X6.6674A25.7354
X6.7143A22.9270
X6.7607A19.9703
X6.8066A16.8735
X6.8521A13.6449
X6.8972A10.2927
X6.9419A6.8252
X6.9862A3.2505
X7.0302A-0.4231
X7.0738A-4.1873
X7.1173A-8.0338
X7.1604A-11.9546
X7.2034A-15.9413
X7.2461A-19.9856
X7.3311A-28.2144
X7.4157A-36.5750
X7.5001A-45.0015
X7.6690A-61.7886
X7.7540A-70.0173
X7.8397A-78.0483
X7.8829A-81.9691
X7.9263A-85.8157
X7.9699A-89.5799
X8.0139A-93.2534
X8.0583A-96.8281
X8.1029A-100.2957
X8.1480A-103.6479
X8.1935A-106.8765
X8.2394A-109.9732
X8.2858A-112.9299
X8.3327A-115.7383
X8.3801A-118.3901
X8.4281A-120.8772
X8.4766A-123.1912
X8.5258A-125.3239
X8.5756A-127.2671
X8.6260A-129.0125
X8.6515A-129.8085
X8.6771A-130.5520
X8.7030A-131.2419
X8.7290A-131.8772
X8.7552A-132.4569
X8.7816A-132.9800
X8.8082A-133.4454 F50
X8.8350A-133.8520 F50
X8.8620A-134.1989 F50
X8.8892A-134.4851 F50
X8.9166A-134.7095 F50
X8.9442A-134.8710 F50
X8.9720A-134.9687 F50
X9.0001A-135.0015 F50
X9.0005A-135.0008 F50
X9.0001A-135.0001 F50
X8.9996A-135.0001 F50
G1Z-0.0500F6.5
G1X9.0001A-135.0001 F50
X9.0005A-135.0008 F50
X9.0001A-135.0015 F50
X8.9720A-134.9687 F50
X8.9442A-134.8710 F50
X8.9166A-134.7095 F50
X8.8892A-134.4851 F50
X8.8620A-134.1989 F50
X8.8350A-133.8520 F50
X8.8082A-133.4454 F50
X8.7816A-132.9800 F50
X8.7552A-132.4569
X8.7290A-131.8772
X8.7030A-131.2419
X8.6771A-130.5520
X8.6515A-129.8085
X8.6260A-129.0125
X8.5756A-127.2671
X8.5258A-125.3239
X8.4766A-123.1912
X8.4281A-120.8772
X8.3801A-118.3901
X8.3327A-115.7383
X8.2858A-112.9299
X8.2394A-109.9732
X8.1935A-106.8765
X8.1480A-103.6479
X8.1029A-100.2957
X8.0583A-96.8281
X8.0139A-93.2534
X7.9699A-89.5799
X7.9263A-85.8157
X7.8829A-81.9691
X7.8397A-78.0483
X7.7540A-70.0173
X7.6690A-61.7886
X7.5001A-45.0015
X7.4157A-36.5750
X7.3311A-28.2144
X7.2461A-19.9856
X7.2034A-15.9413
X7.1604A-11.9546
X7.1173A-8.0338
X7.0738A-4.1873
X7.0302A-0.4231
X6.9862A3.2505
X6.9419A6.8252
X6.8972A10.2927
X6.8521A13.6449
X6.8066A16.8735
X6.7607A19.9703
X6.7143A22.9270
X6.6674A25.7354
X6.6200A28.3872
X6.5720A30.8742
X6.5235A33.1882
X6.4743A35.3210
X6.4246A37.2642
X6.3741A39.0096
X6.3486A39.8056
X6.3230A40.5491
X6.2971A41.2390
X6.2711A41.8743
X6.2449A42.4540
X6.2185A42.9770
X6.1919A43.4424 F50
X6.1651A43.8491 F50
X6.1381A44.1960 F50
X6.1109A44.4822 F50
X6.0835A44.7065 F50
X6.0559A44.8681 F50
X6.0281A44.9657 F50
X6.0001A44.9985 F50
X5.9720A44.9657 F50
X5.9442A44.8681 F50
X5.9166A44.7065 F50
X5.8892A44.4822 F50
X5.8620A44.1960 F50
X5.8350A43.8491 F50
X5.8082A43.4424 F50
X5.7816A42.9770 F50
X5.7552A42.4540
X5.7290A41.8743
X5.7030A41.2390
X5.6771A40.5491
X5.6515A39.8056
X5.6260A39.0096
X5.5756A37.2642
X5.5258A35.3210
X5.4766A33.1882
X5.4281A30.8742
X5.3801A28.3872
X5.3327A25.7354
X5.2858A22.9270
X5.2394A19.9703
X5.1935A16.8735
X5.1480A13.6449
X5.1029A10.2927
X5.0583A6.8252
X5.0139A3.2505
X4.9699A-0.4231
X4.9263A-4.1873
X4.8829A-8.0338
X4.8397A-11.9546
X4.7540A-19.9856
X4.6690A-28.2144
X4.5001A-45.0015
X4.4157A-53.4280
X4.3311A-61.7886
X4.2461A-70.0173
X4.2034A-74.0617
X4.1604A-78.0483
X4.1173A-81.9691
X4.0738A-85.8157
X4.0302A-89.5799
X3.9862A-93.2534
X3.9419A-96.8281
X3.8972A-100.2957
X3.8521A-103.6479
X3.8066A-106.8765
X3.7607A-109.9732
X3.7143A-112.9299
X3.6674A-115.7383
X3.6200A-118.3901
X3.5720A-120.8772
X3.5235A-123.1912
X3.4743A-125.3239
X3.4246A-127.2671
X3.3741A-129.0125
X3.3486A-129.8085
X3.3230A-130.5520
X3.2971A-131.2419
X3.2711A-131.8772
X3.2449A-132.4569
X3.2185A-132.9800
X3.1919A-133.4454 F50
X3.1651A-133.8520 F50
X3.1381A-134.1989 F50
X3.1109A-134.4851 F50
X3.0835A-134.7095 F50
X3.0559A-134.8710 F50
X3.0281A-134.9687 F50
X3.0001A-135.0015 F50
X2.9995A-135.0008 F50
X3.0001A-135.0001 F50
X3.0005A-135.0001 F50
G1Z-0.0571F6.5
G1X3.0001A-135.0001 F50
X2.9995A-135.0008 F50
X3.0001A-135.0015 F50
X3.0281A-134.9687 F50
X3.0559A-134.8710 F50
X3.0835A-134.7095 F50
X3.1109A-134.4851 F50
X3.1381A-134.1989 F50
X3.1651A-133.8520 F50
X3.1919A-133.4454 F50
X3.2185A-132.9800 F50
X3.2449A-132.4569
X3.2711A-131.8772
X3.2971A-131.2419
X3.3230A-130.5520
X3.3486A-129.8085
X3.3741A-129.0125
X3.4246A-127.2671
X3.4743A-125.3239
X3.5235A-123.1912
X3.5720A-120.8772
X3.6200A-118.3901
X3.6674A-115.7383
X3.7143A-112.9299
X3.7607A-109.9732
X3.8066A-106.8765
X3.8521A-103.6479
X3.8972A-100.2957
X3.9419A-96.8281
X3.9862A-93.2534
X4.0302A-89.5799
X4.0738A-85.8157
X4.1173A-81.9691
X4.1604A-78.0483
X4.2034A-74.0617
X4.2461A-70.0173
X4.3311A-61.7886
X4.4157A-53.4280
X4.5001A-45.0015
X4.6690A-28.2144
X4.7540A-19.9856
X4.8397A-11.9546
X4.8829A-8.0338
X4.9263A-4.1873
X4.9699A-0.4231
X5.0139A3.2505
X5.0583A6.8252
X5.1029A10.2927
X5.1480A13.6449
X5.1935A16.8735
X5.2394A19.9703
X5.2858A22.9270
X5.3327A25.7354
X5.3801A28.3872
X5.4281A30.8742
X5.4766A33.1882
X5.5258A35.3210
X5.5756A37.2642
X5.6260A39.0096
X5.6515A39.8056
X5.6771A40.5491
X5.7030A41.2390
X5.7290A41.8743
X5.7552A42.4540
X5.7816A42.9770
X5.8082A43.4424 F50
X5.8350A43.8491 F50
X5.8620A44.1960 F50
X5.8892A44.4822 F50
X5.9166A44.7065 F50
X5.9442A44.8681 F50
X5.9720A44.9657 F50
X6.0001A44.9985 F50
X6.0281A44.9657 F50
X6.0559A44.8681 F50
X6.0835A44.7065 F50
X6.1109A44.4822 F50
X6.1381A44.1960 F50
X6.1651A43.8491 F50
X6.1919A43.4424 F50
X6.2185A42.9770 F50
X6.2449A42.4540
X6.2711A41.8743
X6.2971A41.2390
X6.3230A40.5491
X6.3486A39.8056
X6.3741A39.0096
X6.4246A37.2642
X6.4743A35.3210
X6.5235A33.1882
X6.5720A30.8742
X6.6200A28.3872
X6.6674A25.7354
X6.7143A22.9270
X6.7607A19.9703
X6.8066A16.8735
X6.8521A13.6449
X6.8972A10.2927
X6.9419A6.8252
X6.9862A3.2505
X7.0302A-0.4231
X7.0738A-4.1873
X7.1173A-8.0338
X7.1604A-11.9546
X7.2034A-15.9413
X7.2461A-19.9856
X7.3311A-28.2144
X7.4157A-36.5750
X7.5001A-45.0015
X7.6690A-61.7886
X7.7540A-70.0173
X7.8397A-78.0483
X7.8829A-81.9691
X7.9263A-85.8157
X7.9699A-89.5799
X8.0139A-93.2534
X8.0583A-96.8281
X8.1029A-100.2957
X8.1480A-103.6479
X8.1935A-106.8765
X8.2394A-109.9732
X8.2858A-112.9299
X8.3327A-115.7383
X8.3801A-118.3901
X8.4281A-120.8772
X8.4766A-123.1912
X8.5258A-125.3239
X8.5756A-127.2671
X8.6260A-129.0125
X8.6515A-129.8085
X8.6771A-130.5520
X8.7030A-131.2419
X8.7290A-131.8772
X8.7552A-132.4569
X8.7816A-132.9800
X8.8082A-133.4454 F50
X8.8350A-133.8520 F50
X8.8620A-134.1989 F50
X8.8892A-134.4851 F50
X8.9166A-134.7095 F50
X8.9442A-134.8710 F50
X8.9720A-134.9687 F50
X9.0001A-135.0015 F50
X9.0005A-135.0008 F50
X9.0001A-135.0001 F50
X8.9996A-135.0001 F50
G1Z-0.0643F6.5
G1X9.0001A-135.0001 F50
X9.0005A-135.0008 F50
X9.0001A-135.0015 F50
X8.9720A-134.9687 F50
X8.9442A-134.8710 F50
X8.9166A-134.7095 F50
X8.8892A-134.4851 F50
X8.8620A-134.1989 F50
X8.8350A-133.8520 F50
X8.8082A-133.4454 F50
X8.7816A-132.9800 F50
X8.7552A-132.4569
X8.7290A-131.8772
X8.7030A-131.2419
X8.6771A-130.5520
X8.6515A-129.8085
X8.6260A-129.0125
X8.5756A-127.2671
X8.5258A-125.3239
X8.4766A-123.1912
X8.4281A-120.8772
X8.3801A-118.3901
X8.3327A-115.7383
X8.2858A-112.9299
X8.2394A-109.9732
X8.1935A-106.8765
X8.1480A-103.6479
X8.1029A-100.2957
X8.0583A-96.8281
X8.0139A-93.2534
X7.9699A-89.5799
X7.9263A-85.8157
X7.8829A-81.9691
X7.8397A-78.0483
X7.7540A-70.0173
X7.6690A-61.7886
X7.5001A-45.0015
X7.4157A-36.5750
X7.3311A-28.2144
X7.2461A-19.9856
X7.2034A-15.9413
X7.1604A-11.9546
X7.1173A-8.0338
X7.0738A-4.1873
X7.0302A-0.4231
X6.9862A3.2505
X6.9419A6.8252
X6.8972A10.2927
X6.8521A13.6449
X6.8066A16.8735
X6.7607A19.9703
X6.7143A22.9270
X6.6674A25.7354
X6.6200A28.3872
X6.5720A30.8742
X6.5235A33.1882
X6.4743A35.3210
X6.4246A37.2642
X6.3741A39.0096
X6.3486A39.8056
X6.3230A40.5491
X6.2971A41.2390
X6.2711A41.8743
X6.2449A42.4540
X6.2185A42.9770
X6.1919A43.4424 F50
X6.1651A43.8491 F50
X6.1381A44.1960 F50
X6.1109A44.4822 F50
X6.0835A44.7065 F50
X6.0559A44.8681 F50
X6.0281A44.9657 F50
X6.0001A44.9985 F50
X5.9720A44.9657 F50
X5.9442A44.8681 F50
X5.9166A44.7065 F50
X5.8892A44.4822 F50
X5.8620A44.1960 F50
X5.8350A43.8491 F50
X5.8082A43.4424 F50
X5.7816A42.9770 F50
X5.7552A42.4540
X5.7290A41.8743
X5.7030A41.2390
X5.6771A40.5491
X5.6515A39.8056
X5.6260A39.0096
X5.5756A37.2642
X5.5258A35.3210
X5.4766A33.1882
X5.4281A30.8742
X5.3801A28.3872
X5.3327A25.7354
X5.2858A22.9270
X5.2394A19.9703
X5.1935A16.8735
X5.1480A13.6449
X5.1029A10.2927
X5.0583A6.8252
X5.0139A3.2505
X4.9699A-0.4231
X4.9263A-4.1873
X4.8829A-8.0338
X4.8397A-11.9546
X4.7540A-19.9856
X4.6690A-28.2144
X4.5001A-45.0015
X4.4157A-53.4280
X4.3311A-61.7886
X4.2461A-70.0173
X4.2034A-74.0617
X4.1604A-78.0483
X4.1173A-81.9691
X4.0738A-85.8157
X4.0302A-89.5799
X3.9862A-93.2534
X3.9419A-96.8281
X3.8972A-100.2957
X3.8521A-103.6479
X3.8066A-106.8765
X3.7607A-109.9732
X3.7143A-112.9299
X3.6674A-115.7383
X3.6200A-118.3901
X3.5720A-120.8772
X3.5235A-123.1912
X3.4743A-125.3239
X3.4246A-127.2671
X3.3741A-129.0125
X3.3486A-129.8085
X3.3230A-130.5520
X3.2971A-131.2419
X3.2711A-131.8772
X3.2449A-132.4569
X3.2185A-132.9800
X3.1919A-133.4454 F50
X3.1651A-133.8520 F50
X3.1381A-134.1989 F50
X3.1109A-134.4851 F50
X3.0835A-134.7095 F50
X3.0559A-134.8710 F50
X3.0281A-134.9687 F50
X3.0001A-135.0015 F50
X2.9995A-135.0008 F50
X3.0001A-135.0001 F50
X3.0005A-135.0001 F50
G1Z-0.0714F6.5
G1X3.0001A-135.0001 F50
X2.9995A-135.0008 F50
X3.0001A-135.0015 F50
X3.0281A-134.9687 F50
X3.0559A-134.8710 F50
X3.0835A-134.7095 F50
X3.1109A-134.4851 F50
X3.1381A-134.1989 F50
X3.1651A-133.8520 F50
X3.1919A-133.4454 F50
X3.2185A-132.9800 F50
X3.2449A-132.4569
X3.2711A-131.8772
X3.2971A-131.2419
X3.3230A-130.5520
X3.3486A-129.8085
X3.3741A-129.0125
X3.4246A-127.2671
X3.4743A-125.3239
X3.5235A-123.1912
X3.5720A-120.8772
X3.6200A-118.3901
X3.6674A-115.7383
X3.7143A-112.9299
X3.7607A-109.9732
X3.8066A-106.8765
X3.8521A-103.6479
X3.8972A-100.2957
X3.9419A-96.8281
X3.9862A-93.2534
X4.0302A-89.5799
X4.0738A-85.8157
X4.1173A-81.9691
X4.1604A-78.0483
X4.2034A-74.0617
X4.2461A-70.0173
X4.3311A-61.7886
X4.4157A-53.4280
X4.5001A-45.0015
X4.6690A-28.2144
X4.7540A-19.9856
X4.8397A-11.9546
X4.8829A-8.0338
X4.9263A-4.1873
X4.9699A-0.4231
X5.0139A3.2505
X5.0583A6.8252
X5.1029A10.2927
X5.1480A13.6449
X5.1935A16.8735
X5.2394A19.9703
X5.2858A22.9270
X5.3327A25.7354
X5.3801A28.3872
X5.4281A30.8742
X5.4766A33.1882
X5.5258A35.3210
X5.5756A37.2642
X5.6260A39.0096
X5.6515A39.8056
X5.6771A40.5491
X5.7030A41.2390
X5.7290A41.8743
X5.7552A42.4540
X5.7816A42.9770
X5.8082A43.4424 F50
X5.8350A43.8491 F50
X5.8620A44.1960 F50
X5.8892A44.4822 F50
X5.9166A44.7065 F50
X5.9442A44.8681 F50
X5.9720A44.9657 F50
X6.0001A44.9985 F50
X6.0281A44.9657 F50
X6.0559A44.8681 F50
X6.0835A44.7065 F50
X6.1109A44.4822 F50
X6.1381A44.1960 F50
X6.1651A43.8491 F50
X6.1919A43.4424 F50
X6.2185A42.9770 F50
X6.2449A42.4540
X6.2711A41.8743
X6.2971A41.2390
X6.3230A40.5491
X6.3486A39.8056
X6.3741A39.0096
X6.4246A37.2642
X6.4743A35.3210
X6.5235A33.1882
X6.5720A30.8742
X6.6200A28.3872
X6.6674A25.7354
X6.7143A22.9270
X6.7607A19.9703
X6.8066A16.8735
X6.8521A13.6449
X6.8972A10.2927
X6.9419A6.8252
X6.9862A3.2505
X7.0302A-0.4231
X7.0738A-4.1873
X7.1173A-8.0338
X7.1604A-11.9546
X7.2034A-15.9413
X7.2461A-19.9856
X7.3311A-28.2144
X7.4157A-36.5750
X7.5001A-45.0015
X7.6690A-61.7886
X7.7540A-70.0173
X7.8397A-78.0483
X7.8829A-81.9691
X7.9263A-85.8157
X7.9699A-89.5799
X8.0139A-93.2534
X8.0583A-96.8281
X8.1029A-100.2957
X8.1480A-103.6479
X8.1935A-106.8765
X8.2394A-109.9732
X8.2858A-112.9299
X8.3327A-115.7383
X8.3801A-118.3901
X8.4281A-120.8772
X8.4766A-123.1912
X8.5258A-125.3239
X8.5756A-127.2671
X8.6260A-129.0125
X8.6515A-129.8085
X8.6771A-130.5520
X8.7030A-131.2419
X8.7290A-131.8772
X8.7552A-132.4569
X8.7816A-132.9800
X8.8082A-133.4454 F50
X8.8350A-133.8520 F50
X8.8620A-134.1989 F50
X8.8892A-134.4851 F50
X8.9166A-134.7095 F50
X8.9442A-134.8710 F50
X8.9720A-134.9687 F50
X9.0001A-135.0015 F50
X9.0005A-135.0008 F50
X9.0001A-135.0001 F50
X8.9996A-135.0001 F50
G1Z-0.0786F6.5
G1X9.0001A-135.0001 F50
X9.0005A-135.0008 F50
X9.0001A-135.0015 F50
X8.9720A-134.9687 F50
X8.9442A-134.8710 F50
X8.9166A-134.7095 F50
X8.8892A-134.4851 F50
X8.8620A-134.1989 F50
X8.8350A-133.8520 F50
X8.8082A-133.4454 F50
X8.7816A-132.9800 F50
X8.7552A-132.4569
X8.7290A-131.8772
X8.7030A-131.2419
X8.6771A-130.5520
X8.6515A-129.8085
X8.6260A-129.0125
X8.5756A-127.2671
X8.5258A-125.3239
X8.4766A-123.1912
X8.4281A-120.8772
X8.3801A-118.3901
X8.3327A-115.7383
X8.2858A-112.9299
X8.2394A-109.9732
X8.1935A-106.8765
X8.1480A-103.6479
X8.1029A-100.2957
X8.0583A-96.8281
X8.0139A-93.2534
X7.9699A-89.5799
X7.9263A-85.8157
X7.8829A-81.9691
X7.8397A-78.0483
X7.7540A-70.0173
X7.6690A-61.7886
X7.5001A-45.0015
X7.4157A-36.5750
X7.3311A-28.2144
X7.2461A-19.9856
X7.2034A-15.9413
X7.1604A-11.9546
X7.1173A-8.0338
X7.0738A-4.1873
X7.0302A-0.4231
X6.9862A3.2505
X6.9419A6.8252
X6.8972A10.2927
X6.8521A13.6449
X6.8066A16.8735
X6.7607A19.9703
X6.7143A22.9270
X6.6674A25.7354
X6.6200A28.3872
X6.5720A30.8742
X6.5235A33.1882
X6.4743A35.3210
X6.4246A37.2642
X6.3741A39.0096
X6.3486A39.8056
X6.3230A40.5491
X6.2971A41.2390
X6.2711A41.8743
X6.2449A42.4540
X6.2185A42.9770
X6.1919A43.4424 F50
X6.1651A43.8491 F50
X6.1381A44.1960 F50
X6.1109A44.4822 F50
X6.0835A44.7065 F50
X6.0559A44.8681 F50
X6.0281A44.9657 F50
X6.0001A44.9985 F50
X5.9720A44.9657 F50
X5.9442A44.8681 F50
X5.9166A44.7065 F50
X5.8892A44.4822 F50
X5.8620A44.1960 F50
X5.8350A43.8491 F50
X5.8082A43.4424 F50
X5.7816A42.9770 F50
X5.7552A42.4540
X5.7290A41.8743
X5.7030A41.2390
X5.6771A40.5491
X5.6515A39.8056
X5.6260A39.0096
X5.5756A37.2642
X5.5258A35.3210
X5.4766A33.1882
X5.4281A30.8742
X5.3801A28.3872
X5.3327A25.7354
X5.2858A22.9270
X5.2394A19.9703
X5.1935A16.8735
X5.1480A13.6449
X5.1029A10.2927
X5.0583A6.8252
X5.0139A3.2505
X4.9699A-0.4231
X4.9263A-4.1873
X4.8829A-8.0338
X4.8397A-11.9546
X4.7540A-19.9856
X4.6690A-28.2144
X4.5001A-45.0015
X4.4157A-53.4280
X4.3311A-61.7886
X4.2461A-70.0173
X4.2034A-74.0617
X4.1604A-78.0483
X4.1173A-81.9691
X4.0738A-85.8157
X4.0302A-89.5799
X3.9862A-93.2534
X3.9419A-96.8281
X3.8972A-100.2957
X3.8521A-103.6479
X3.8066A-106.8765
X3.7607A-109.9732
X3.7143A-112.9299
X3.6674A-115.7383
X3.6200A-118.3901
X3.5720A-120.8772
X3.5235A-123.1912
X3.4743A-125.3239
X3.4246A-127.2671
X3.3741A-129.0125
X3.3486A-129.8085
X3.3230A-130.5520
X3.2971A-131.2419
X3.2711A-131.8772
X3.2449A-132.4569
X3.2185A-132.9800
X3.1919A-133.4454 F50
X3.1651A-133.8520 F50
X3.1381A-134.1989 F50
X3.1109A-134.4851 F50
X3.0835A-134.7095 F50
X3.0559A-134.8710 F50
X3.0281A-134.9687 F50
X3.0001A-135.0015 F50
X2.9995A-135.0008 F50
X3.0001A-135.0001 F50
X3.0005A-135.0001 F50
G1Z-0.0857F6.5
G1X3.0001A-135.0001 F50
X2.9995A-135.0008 F50
X3.0001A-135.0015 F50
X3.0281A-134.9687 F50
X3.0559A-134.8710 F50
X3.0835A-134.7095 F50
X3.1109A-134.4851 F50
X3.1381A-134.1989 F50
X3.1651A-133.8520 F50
X3.1919A-133.4454 F50
X3.2185A-132.9800 F50
X3.2449A-132.4569
X3.2711A-131.8772
X3.2971A-131.2419
X3.3230A-130.5520
X3.3486A-129.8085
X3.3741A-129.0125
X3.4246A-127.2671
X3.4743A-125.3239
X3.5235A-123.1912
X3.5720A-120.8772
X3.6200A-118.3901
X3.6674A-115.7383
X3.7143A-112.9299
X3.7607A-109.9732
X3.8066A-106.8765
X3.8521A-103.6479
X3.8972A-100.2957
X3.9419A-96.8281
X3.9862A-93.2534
X4.0302A-89.5799
X4.0738A-85.8157
X4.1173A-81.9691
X4.1604A-78.0483
X4.2034A-74.0617
X4.2461A-70.0173
X4.3311A-61.7886
X4.4157A-53.4280
X4.5001A-45.0015
X4.6690A-28.2144
X4.7540A-19.9856
X4.8397A-11.9546
X4.8829A-8.0338
X4.9263A-4.1873
X4.9699A-0.4231
X5.0139A3.2505
X5.0583A6.8252
X5.1029A10.2927
X5.1480A13.6449
X5.1935A16.8735
X5.2394A19.9703
X5.2858A22.9270
X5.3327A25.7354
X5.3801A28.3872
X5.4281A30.8742
X5.4766A33.1882
X5.5258A35.3210
X5.5756A37.2642
X5.6260A39.0096
X5.6515A39.8056
X5.6771A40.5491
X5.7030A41.2390
X5.7290A41.8743
X5.7552A42.4540
X5.7816A42.9770
X5.8082A43.4424 F50
X5.8350A43.8491 F50
X5.8620A44.1960 F50
X5.8892A44.4822 F50
X5.9166A44.7065 F50
X5.9442A44.8681 F50
X5.9720A44.9657 F50
X6.0001A44.9985 F50
X6.0281A44.9657 F50
X6.0559A44.8681 F50
X6.0835A44.7065 F50
X6.1109A44.4822 F50
X6.1381A44.1960 F50
X6.1651A43.8491 F50
X6.1919A43.4424 F50
X6.2185A42.9770 F50
X6.2449A42.4540
X6.2711A41.8743
X6.2971A41.2390
X6.3230A40.5491
X6.3486A39.8056
X6.3741A39.0096
X6.4246A37.2642
X6.4743A35.3210
X6.5235A33.1882
X6.5720A30.8742
X6.6200A28.3872
X6.6674A25.7354
X6.7143A22.9270
X6.7607A19.9703
X6.8066A16.8735
X6.8521A13.6449
X6.8972A10.2927
X6.9419A6.8252
X6.9862A3.2505
X7.0302A-0.4231
X7.0738A-4.1873
X7.1173A-8.0338
X7.1604A-11.9546
X7.2034A-15.9413
X7.2461A-19.9856
X7.3311A-28.2144
X7.4157A-36.5750
X7.5001A-45.0015
X7.6690A-61.7886
X7.7540A-70.0173
X7.8397A-78.0483
X7.8829A-81.9691
X7.9263A-85.8157
X7.9699A-89.5799
X8.0139A-93.2534
X8.0583A-96.8281
X8.1029A-100.2957
X8.1480A-103.6479
X8.1935A-106.8765
X8.2394A-109.9732
X8.2858A-112.9299
X8.3327A-115.7383
X8.3801A-118.3901
X8.4281A-120.8772
X8.4766A-123.1912
X8.5258A-125.3239
X8.5756A-127.2671
X8.6260A-129.0125
X8.6515A-129.8085
X8.6771A-130.5520
X8.7030A-131.2419
X8.7290A-131.8772
X8.7552A-132.4569
X8.7816A-132.9800
X8.8082A-133.4454 F50
X8.8350A-133.8520 F50
X8.8620A-134.1989 F50
X8.8892A-134.4851 F50
X8.9166A-134.7095 F50
X8.9442A-134.8710 F50
X8.9720A-134.9687 F50
X9.0001A-135.0015 F50
X9.0005A-135.0008 F50
X9.0001A-135.0001 F50
X8.9996A-135.0001 F50
G1Z-0.0929F6.5
G1X9.0001A-135.0001 F50
X9.0005A-135.0008 F50
X9.0001A-135.0015 F50
X8.9720A-134.9687 F50
X8.9442A-134.8710 F50
X8.9166A-134.7095 F50
X8.8892A-134.4851 F50
X8.8620A-134.1989 F50
X8.8350A-133.8520 F50
X8.8082A-133.4454 F50
X8.7816A-132.9800 F50
X8.7552A-132.4569
X8.7290A-131.8772
X8.7030A-131.2419
X8.6771A-130.5520
X8.6515A-129.8085
X8.6260A-129.0125
X8.5756A-127.2671
X8.5258A-125.3239
X8.4766A-123.1912
X8.4281A-120.8772
X8.3801A-118.3901
X8.3327A-115.7383
X8.2858A-112.9299
X8.2394A-109.9732
X8.1935A-106.8765
X8.1480A-103.6479
X8.1029A-100.2957
X8.0583A-96.8281
X8.0139A-93.2534
X7.9699A-89.5799
X7.9263A-85.8157
X7.8829A-81.9691
X7.8397A-78.0483
X7.7540A-70.0173
X7.6690A-61.7886
X7.5001A-45.0015
X7.4157A-36.5750
X7.3311A-28.2144
X7.2461A-19.9856
X7.2034A-15.9413
X7.1604A-11.9546
X7.1173A-8.0338
X7.0738A-4.1873
X7.0302A-0.4231
X6.9862A3.2505
X6.9419A6.8252
X6.8972A10.2927
X6.8521A13.6449
X6.8066A16.8735
X6.7607A19.9703
X6.7143A22.9270
X6.6674A25.7354
X6.6200A28.3872
X6.5720A30.8742
X6.5235A33.1882
X6.4743A35.3210
X6.4246A37.2642
X6.3741A39.0096
X6.3486A39.8056
X6.3230A40.5491
X6.2971A41.2390
X6.2711A41.8743
X6.2449A42.4540
X6.2185A42.9770
X6.1919A43.4424 F50
X6.1651A43.8491 F50
X6.1381A44.1960 F50
X6.1109A44.4822 F50
X6.0835A44.7065 F50
X6.0559A44.8681 F50
X6.0281A44.9657 F50
X6.0001A44.9985 F50
X5.9720A44.9657 F50
X5.9442A44.8681 F50
X5.9166A44.7065 F50
X5.8892A44.4822 F50
X5.8620A44.1960 F50
X5.8350A43.8491 F50
X5.8082A43.4424 F50
X5.7816A42.9770 F50
X5.7552A42.4540
X5.7290A41.8743
X5.7030A41.2390
X5.6771A40.5491
X5.6515A39.8056
X5.6260A39.0096
X5.5756A37.2642
X5.5258A35.3210
X5.4766A33.1882
X5.4281A30.8742
X5.3801A28.3872
X5.3327A25.7354
X5.2858A22.9270
X5.2394A19.9703
X5.1935A16.8735
X5.1480A13.6449
X5.1029A10.2927
X5.0583A6.8252
X5.0139A3.2505
X4.9699A-0.4231
X4.9263A-4.1873
X4.8829A-8.0338
X4.8397A-11.9546
X4.7540A-19.9856
X4.6690A-28.2144
X4.5001A-45.0015
X4.4157A-53.4280
X4.3311A-61.7886
X4.2461A-70.0173
X4.2034A-74.0617
X4.1604A-78.0483
X4.1173A-81.9691
X4.0738A-85.8157
X4.0302A-89.5799
X3.9862A-93.2534
X3.9419A-96.8281
X3.8972A-100.2957
X3.8521A-103.6479
X3.8066A-106.8765
X3.7607A-109.9732
X3.7143A-112.9299
X3.6674A-115.7383
X3.6200A-118.3901
X3.5720A-120.8772
X3.5235A-123.1912
X3.4743A-125.3239
X3.4246A-127.2671
X3.3741A-129.0125
X3.3486A-129.8085
X3.3230A-130.5520
X3.2971A-131.2419
X3.2711A-131.8772
X3.2449A-132.4569
X3.2185A-132.9800
X3.1919A-133.4454 F50
X3.1651A-133.8520 F50
X3.1381A-134.1989 F50
X3.1109A-134.4851 F50
X3.0835A-134.7095 F50
X3.0559A-134.8710 F50
X3.0281A-134.9687 F50
X3.0001A-135.0015 F50
X2.9995A-135.0008 F50
X3.0001A-135.0001 F50
X3.0005A-135.0001 F50
G1Z-0.1000F6.5
G1X3.0001A-135.0001 F50
X2.9995A-135.0008 F50
X3.0001A-135.0015 F50
X3.0281A-134.9687 F50
X3.0559A-134.8710 F50
X3.0835A-134.7095 F50
X3.1109A-134.4851 F50
X3.1381A-134.1989 F50
X3.1651A-133.8520 F50
X3.1919A-133.4454 F50
X3.2185A-132.9800 F50
X3.2449A-132.4569
X3.2711A-131.8772
X3.2971A-131.2419
X3.3230A-130.5520
X3.3486A-129.8085
X3.3741A-129.0125
X3.4246A-127.2671
X3.4743A-125.3239
X3.5235A-123.1912
X3.5720A-120.8772
X3.6200A-118.3901
X3.6674A-115.7383
X3.7143A-112.9299
X3.7607A-109.9732
X3.8066A-106.8765
X3.8521A-103.6479
X3.8972A-100.2957
X3.9419A-96.8281
X3.9862A-93.2534
X4.0302A-89.5799
X4.0738A-85.8157
X4.1173A-81.9691
X4.1604A-78.0483
X4.2034A-74.0617
X4.2461A-70.0173
X4.3311A-61.7886
X4.4157A-53.4280
X4.5001A-45.0015
X4.6690A-28.2144
X4.7540A-19.9856
X4.8397A-11.9546
X4.8829A-8.0338
X4.9263A-4.1873
X4.9699A-0.4231
X5.0139A3.2505
X5.0583A6.8252
X5.1029A10.2927
X5.1480A13.6449
X5.1935A16.8735
X5.2394A19.9703
X5.2858A22.9270
X5.3327A25.7354
X5.3801A28.3872
X5.4281A30.8742
X5.4766A33.1882
X5.5258A35.3210
X5.5756A37.2642
X5.6260A39.0096
X5.6515A39.8056
X5.6771A40.5491
X5.7030A41.2390
X5.7290A41.8743
X5.7552A42.4540
X5.7816A42.9770
X5.8082A43.4424 F50
X5.8350A43.8491 F50
X5.8620A44.1960 F50
X5.8892A44.4822 F50
X5.9166A44.7065 F50
X5.9442A44.8681 F50
X5.9720A44.9657 F50
X6.0001A44.9985 F50
X6.0281A44.9657 F50
X6.0559A44.8681 F50
X6.0835A44.7065 F50
X6.1109A44.4822 F50
X6.1381A44.1960 F50
X6.1651A43.8491 F50
X6.1919A43.4424 F50
X6.2185A42.9770 F50
X6.2449A42.4540
X6.2711A41.8743
X6.2971A41.2390
X6.3230A40.5491
X6.3486A39.8056
X6.3741A39.0096
X6.4246A37.2642
X6.4743A35.3210
X6.5235A33.1882
X6.5720A30.8742
X6.6200A28.3872
X6.6674A25.7354
X6.7143A22.9270
X6.7607A19.9703
X6.8066A16.8735
X6.8521A13.6449
X6.8972A10.2927
X6.9419A6.8252
X6.9862A3.2505
X7.0302A-0.4231
X7.0738A-4.1873
X7.1173A-8.0338
X7.1604A-11.9546
X7.2034A-15.9413
X7.2461A-19.9856
X7.3311A-28.2144
X7.4157A-36.5750
X7.5001A-45.0015
X7.6690A-61.7886
X7.7540A-70.0173
X7.8397A-78.0483
X7.8829A-81.9691
X7.9263A-85.8157
X7.9699A-89.5799
X8.0139A-93.2534
X8.0583A-96.8281
X8.1029A-100.2957
X8.1480A-103.6479
X8.1935A-106.8765
X8.2394A-109.9732
X8.2858A-112.9299
X8.3327A-115.7383
X8.3801A-118.3901
X8.4281A-120.8772
X8.4766A-123.1912
X8.5258A-125.3239
X8.5756A-127.2671
X8.6260A-129.0125
X8.6515A-129.8085
X8.6771A-130.5520
X8.7030A-131.2419
X8.7290A-131.8772
X8.7552A-132.4569
X8.7816A-132.9800
X8.8082A-133.4454 F50
X8.8350A-133.8520 F50
X8.8620A-134.1989 F50
X8.8892A-134.4851 F50
X8.9166A-134.7095 F50
X8.9442A-134.8710 F50
X8.9720A-134.9687 F50
X9.0001A-135.0015 F50
X9.0005A-135.0008 F50
X9.0001A-135.0001 F50
X8.9996A-135.0001 F50
G0Z0.2000
G0X10.0251A-135.0012
G1Z-0.0071F6.5
G1X10.0839A-129.9232F21.0
X10.1423A-124.6992
X10.2002A-119.3492
X10.2578A-113.8934
X10.3721A-102.7451
X10.4859A-91.4154
X10.5995A-80.0656
X10.6565A-74.4335
X10.7137A-68.8569
X10.7711A-63.3558
X10.8288A-57.9504
X10.8869A-52.6610
X10.9455A-47.5076
X11.0046A-42.5103
X11.0643A-37.6894
X11.1247A-33.0651
X11.1551A-30.8328
X11.1858A-28.6573
X11.2166A-26.5410
X11.2476A-24.4864
X11.2789A-22.4960
X11.3104A-20.5724
X11.3421A-18.7181
X11.3740A-16.9355
X11.4062A-15.2273
X11.4387A-13.5959
X11.4714A-12.0439
X11.5044A-10.5738
X11.5377A-9.1880
X11.5713A-7.8892
X11.6052A-6.6797
X11.6394A-5.5623
X11.6739A-4.5393
X11.7087A-3.6133
X11.7438A-2.7868
X11.7793A-2.0623
X11.8152A-1.4424
X11.8514A-0.9295
X11.8880A-0.5262 F50
X11.9249A-0.2350 F50
X11.9623A-0.0585 F50
X12.0000A0.0009 F50
X12.0007A0.0009 F50
G1Z-0.0143F6.5
G1X12.0000A0.0009 F50
X11.9623A-0.0585 F50
X11.9249A-0.2350 F50
X11.8880A-0.5262 F50
X11.8514A-0.9295 F50
X11.8152A-1.4424
X11.7793A-2.0623
X11.7438A-2.7868
X11.7087A-3.6133
X11.6739A-4.5393
X11.6394A-5.5623
X11.6052A-6.6797
X11.5713A-7.8892
X11.5377A-9.1880
X11.5044A-10.5738
X11.4714A-12.0439
X11.4387A-13.5959
X11.4062A-15.2273
X11.3740A-16.9355
X11.3421A-18.7181
X11.3104A-20.5724
X11.2789A-22.4960
X11.2476A-24.4864
X11.2166A-26.5410
X11.1858A-28.6573
X11.1551A-30.8328
X11.1247A-33.0651
X11.0643A-37.6894
X11.0046A-42.5103
X10.9455A-47.5076
X10.8869A-52.6610
X10.8288A-57.9504
X10.7711A-63.3558
X10.7137A-68.8569
X10.6565A-74.4335
X10.5995A-80.0656
X10.4859A-91.4154
X10.3721A-102.7451
X10.2578A-113.8934
X10.2002A-119.3492
X10.1423A-124.6992
X10.0839A-129.9232
X10.0251A-135.0011
G1A-135.0012Z-0.0214F6.5
G1X10.0839A-129.9232F21.0
X10.1423A-124.6992
X10.2002A-119.3492
X10.2578A-113.8934
X10.3721A-102.7451
X10.4859A-91.4154
X10.5995A-80.0656
X10.6565A-74.4335
X10.7137A-68.8569
X10.7711A-63.3558
X10.8288A-57.9504
X10.8869A-52.6610
X10.9455A-47.5076
X11.0046A-42.5103
X11.0643A-37.6894
X11.1247A-33.0651
X11.1551A-30.8328
X11.1858A-28.6573
X11.2166A-26.5410
X11.2476A-24.4864
X11.2789A-22.4960
X11.3104A-20.5724
X11.3421A-18.7181
X11.3740A-16.9355
X11.4062A-15.2273
X11.4387A-13.5959
X11.4714A-12.0439
X11.5044A-10.5738
X11.5377A-9.1880
X11.5713A-7.8892
X11.6052A-6.6797
X11.6394A-5.5623
X11.6739A-4.5393
X11.7087A-3.6133
X11.7438A-2.7868
X11.7793A-2.0623
X11.8152A-1.4424
X11.8514A-0.9295
X11.8880A-0.5262 F50
X11.9249A-0.2350 F50
X11.9623A-0.0585 F50
X12.0000A0.0009 F50
X12.0007A0.0009 F50
G1Z-0.0286F6.5
G1X12.0000A0.0009 F50
X11.9623A-0.0585 F50
X11.9249A-0.2350 F50
X11.8880A-0.5262 F50
X11.8514A-0.9295 F50
X11.8152A-1.4424
X11.7793A-2.0623
X11.7438A-2.7868
X11.7087A-3.6133
X11.6739A-4.5393
X11.6394A-5.5623
X11.6052A-6.6797
X11.5713A-7.8892
X11.5377A-9.1880
X11.5044A-10.5738
X11.4714A-12.0439
X11.4387A-13.5959
X11.4062A-15.2273
X11.3740A-16.9355
X11.3421A-18.7181
X11.3104A-20.5724
X11.2789A-22.4960
X11.2476A-24.4864
X11.2166A-26.5410
X11.1858A-28.6573
X11.1551A-30.8328
X11.1247A-33.0651
X11.0643A-37.6894
X11.0046A-42.5103
X10.9455A-47.5076
X10.8869A-52.6610
X10.8288A-57.9504
X10.7711A-63.3558
X10.7137A-68.8569
X10.6565A-74.4335
X10.5995A-80.0656
X10.4859A-91.4154
X10.3721A-102.7451
X10.2578A-113.8934
X10.2002A-119.3492
X10.1423A-124.6992
X10.0839A-129.9232
X10.0251A-135.0011
G1A-135.0012Z-0.0357F6.5
G1X10.0839A-129.9232F21.0
X10.1423A-124.6992
X10.2002A-119.3492
X10.2578A-113.8934
X10.3721A-102.7451
X10.4859A-91.4154
X10.5995A-80.0656
X10.6565A-74.4335
X10.7137A-68.8569
X10.7711A-63.3558
X10.8288A-57.9504
X10.8869A-52.6610
X10.9455A-47.5076
X11.0046A-42.5103
X11.0643A-37.6894
X11.1247A-33.0651
X11.1551A-30.8328
X11.1858A-28.6573
X11.2166A-26.5410
X11.2476A-24.4864
X11.2789A-22.4960
X11.3104A-20.5724
X11.3421A-18.7181
X11.3740A-16.9355
X11.4062A-15.2273
X11.4387A-13.5959
X11.4714A-12.0439
X11.5044A-10.5738
X11.5377A-9.1880
X11.5713A-7.8892
X11.6052A-6.6797
X11.6394A-5.5623
X11.6739A-4.5393
X11.7087A-3.6133
X11.7438A-2.7868
X11.7793A-2.0623
X11.8152A-1.4424
X11.8514A-0.9295
X11.8880A-0.5262 F50
X11.9249A-0.2350 F50
X11.9623A-0.0585 F50
X12.0000A0.0009 F50
X12.0007A0.0009 F50
G1Z-0.0429F6.5
G1X12.0000A0.0009 F50
X11.9623A-0.0585 F50
X11.9249A-0.2350 F50
X11.8880A-0.5262 F50
X11.8514A-0.9295 F50
X11.8152A-1.4424
X11.7793A-2.0623
X11.7438A-2.7868
X11.7087A-3.6133
X11.6739A-4.5393
X11.6394A-5.5623
X11.6052A-6.6797
X11.5713A-7.8892
X11.5377A-9.1880
X11.5044A-10.5738
X11.4714A-12.0439
X11.4387A-13.5959
X11.4062A-15.2273
X11.3740A-16.9355
X11.3421A-18.7181
X11.3104A-20.5724
X11.2789A-22.4960
X11.2476A-24.4864
X11.2166A-26.5410
X11.1858A-28.6573
X11.1551A-30.8328
X11.1247A-33.0651
X11.0643A-37.6894
X11.0046A-42.5103
X10.9455A-47.5076
X10.8869A-52.6610
X10.8288A-57.9504
X10.7711A-63.3558
X10.7137A-68.8569
X10.6565A-74.4335
X10.5995A-80.0656
X10.4859A-91.4154
X10.3721A-102.7451
X10.2578A-113.8934
X10.2002A-119.3492
X10.1423A-124.6992
X10.0839A-129.9232
X10.0251A-135.0011
G1A-135.0012Z-0.0500F6.5
G1X10.0839A-129.9232F21.0
X10.1423A-124.6992
X10.2002A-119.3492
X10.2578A-113.8934
X10.3721A-102.7451
X10.4859A-91.4154
X10.5995A-80.0656
X10.6565A-74.4335
X10.7137A-68.8569
X10.7711A-63.3558
X10.8288A-57.9504
X10.8869A-52.6610
X10.9455A-47.5076
X11.0046A-42.5103
X11.0643A-37.6894
X11.1247A-33.0651
X11.1551A-30.8328
X11.1858A-28.6573
X11.2166A-26.5410
X11.2476A-24.4864
X11.2789A-22.4960
X11.3104A-20.5724
X11.3421A-18.7181
X11.3740A-16.9355
X11.4062A-15.2273
X11.4387A-13.5959
X11.4714A-12.0439
X11.5044A-10.5738
X11.5377A-9.1880
X11.5713A-7.8892
X11.6052A-6.6797
X11.6394A-5.5623
X11.6739A-4.5393
X11.7087A-3.6133
X11.7438A-2.7868
X11.7793A-2.0623
X11.8152A-1.4424
X11.8514A-0.9295
X11.8880A-0.5262 F50
X11.9249A-0.2350 F50
X11.9623A-0.0585 F50
X12.0000A0.0009 F50
X12.0007A0.0009 F50
G1Z-0.0571F6.5
G1X12.0000A0.0009 F50
X11.9623A-0.0585 F50
X11.9249A-0.2350 F50
X11.8880A-0.5262 F50
X11.8514A-0.9295 F50
X11.8152A-1.4424
X11.7793A-2.0623
X11.7438A-2.7868
X11.7087A-3.6133
X11.6739A-4.5393
X11.6394A-5.5623
X11.6052A-6.6797
X11.5713A-7.8892
X11.5377A-9.1880
X11.5044A-10.5738
X11.4714A-12.0439
X11.4387A-13.5959
X11.4062A-15.2273
X11.3740A-16.9355
X11.3421A-18.7181
X11.3104A-20.5724
X11.2789A-22.4960
X11.2476A-24.4864
X11.2166A-26.5410
X11.1858A-28.6573
X11.1551A-30.8328
X11.1247A-33.0651
X11.0643A-37.6894
X11.0046A-42.5103
X10.9455A-47.5076
X10.8869A-52.6610
X10.8288A-57.9504
X10.7711A-63.3558
X10.7137A-68.8569
X10.6565A-74.4335
X10.5995A-80.0656
X10.4859A-91.4154
X10.3721A-102.7451
X10.2578A-113.8934
X10.2002A-119.3492
X10.1423A-124.6992
X10.0839A-129.9232
X10.0251A-135.0011
G1A-135.0012Z-0.0643F6.5
G1X10.0839A-129.9232F21.0
X10.1423A-124.6992
X10.2002A-119.3492
X10.2578A-113.8934
X10.3721A-102.7451
X10.4859A-91.4154
X10.5995A-80.0656
X10.6565A-74.4335
X10.7137A-68.8569
X10.7711A-63.3558
X10.8288A-57.9504
X10.8869A-52.6610
X10.9455A-47.5076
X11.0046A-42.5103
X11.0643A-37.6894
X11.1247A-33.0651
X11.1551A-30.8328
X11.1858A-28.6573
X11.2166A-26.5410
X11.2476A-24.4864
X11.2789A-22.4960
X11.3104A-20.5724
X11.3421A-18.7181
X11.3740A-16.9355
X11.4062A-15.2273
X11.4387A-13.5959
X11.4714A-12.0439
X11.5044A-10.5738
X11.5377A-9.1880
X11.5713A-7.8892
X11.6052A-6.6797
X11.6394A-5.5623
X11.6739A-4.5393
X11.7087A-3.6133
X11.7438A-2.7868
X11.7793A-2.0623
X11.8152A-1.4424
X11.8514A-0.9295
X11.8880A-0.5262 F50
X11.9249A-0.2350 F50
X11.9623A-0.0585 F50
X12.0000A0.0009 F50
X12.0007A0.0009 F50
G1Z-0.0714F6.5
G1X12.0000A0.0009 F50
X11.9623A-0.0585 F50
X11.9249A-0.2350 F50
X11.8880A-0.5262 F50
X11.8514A-0.9295 F50
X11.8152A-1.4424
X11.7793A-2.0623
X11.7438A-2.7868
X11.7087A-3.6133
X11.6739A-4.5393
X11.6394A-5.5623
X11.6052A-6.6797
X11.5713A-7.8892
X11.5377A-9.1880
X11.5044A-10.5738
X11.4714A-12.0439
X11.4387A-13.5959
X11.4062A-15.2273
X11.3740A-16.9355
X11.3421A-18.7181
X11.3104A-20.5724
X11.2789A-22.4960
X11.2476A-24.4864
X11.2166A-26.5410
X11.1858A-28.6573
X11.1551A-30.8328
X11.1247A-33.0651
X11.0643A-37.6894
X11.0046A-42.5103
X10.9455A-47.5076
X10.8869A-52.6610
X10.8288A-57.9504
X10.7711A-63.3558
X10.7137A-68.8569
X10.6565A-74.4335
X10.5995A-80.0656
X10.4859A-91.4154
X10.3721A-102.7451
X10.2578A-113.8934
X10.2002A-119.3492
X10.1423A-124.6992
X10.0839A-129.9232
X10.0251A-135.0011
G1A-135.0012Z-0.0786F6.5
G1X10.0839A-129.9232F21.0
X10.1423A-124.6992
X10.2002A-119.3492
X10.2578A-113.8934
X10.3721A-102.7451
X10.4859A-91.4154
X10.5995A-80.0656
X10.6565A-74.4335
X10.7137A-68.8569
X10.7711A-63.3558
X10.8288A-57.9504
X10.8869A-52.6610
X10.9455A-47.5076
X11.0046A-42.5103
X11.0643A-37.6894
X11.1247A-33.0651
X11.1551A-30.8328
X11.1858A-28.6573
X11.2166A-26.5410
X11.2476A-24.4864
X11.2789A-22.4960
X11.3104A-20.5724
X11.3421A-18.7181
X11.3740A-16.9355
X11.4062A-15.2273
X11.4387A-13.5959
X11.4714A-12.0439
X11.5044A-10.5738
X11.5377A-9.1880
X11.5713A-7.8892
X11.6052A-6.6797
X11.6394A-5.5623
X11.6739A-4.5393
X11.7087A-3.6133
X11.7438A-2.7868
X11.7793A-2.0623
X11.8152A-1.4424
X11.8514A-0.9295
X11.8880A-0.5262 F50
X11.9249A-0.2350 F50
X11.9623A-0.0585 F50
X12.0000A0.0009 F50
X12.0007A0.0009 F50
G1Z-0.0857F6.5
G1X12.0000A0.0009 F50
X11.9623A-0.0585 F50
X11.9249A-0.2350 F50
X11.8880A-0.5262 F50
X11.8514A-0.9295 F50
X11.8152A-1.4424
X11.7793A-2.0623
X11.7438A-2.7868
X11.7087A-3.6133
X11.6739A-4.5393
X11.6394A-5.5623
X11.6052A-6.6797
X11.5713A-7.8892
X11.5377A-9.1880
X11.5044A-10.5738
X11.4714A-12.0439
X11.4387A-13.5959
X11.4062A-15.2273
X11.3740A-16.9355
X11.3421A-18.7181
X11.3104A-20.5724
X11.2789A-22.4960
X11.2476A-24.4864
X11.2166A-26.5410
X11.1858A-28.6573
X11.1551A-30.8328
X11.1247A-33.0651
X11.0643A-37.6894
X11.0046A-42.5103
X10.9455A-47.5076
X10.8869A-52.6610
X10.8288A-57.9504
X10.7711A-63.3558
X10.7137A-68.8569
X10.6565A-74.4335
X10.5995A-80.0656
X10.4859A-91.4154
X10.3721A-102.7451
X10.2578A-113.8934
X10.2002A-119.3492
X10.1423A-124.6992
X10.0839A-129.9232
X10.0251A-135.0011
G1A-135.0012Z-0.0929F6.5
G1X10.0839A-129.9232F21.0
X10.1423A-124.6992
X10.2002A-119.3492
X10.2578A-113.8934
X10.3721A-102.7451
X10.4859A-91.4154
X10.5995A-80.0656
X10.6565A-74.4335
X10.7137A-68.8569
X10.7711A-63.3558
X10.8288A-57.9504
X10.8869A-52.6610
X10.9455A-47.5076
X11.0046A-42.5103
X11.0643A-37.6894
X11.1247A-33.0651
X11.1551A-30.8328
X11.1858A-28.6573
X11.2166A-26.5410
X11.2476A-24.4864
X11.2789A-22.4960
X11.3104A-20.5724
X11.3421A-18.7181
X11.3740A-16.9355
X11.4062A-15.2273
X11.4387A-13.5959
X11.4714A-12.0439
X11.5044A-10.5738
X11.5377A-9.1880
X11.5713A-7.8892
X11.6052A-6.6797
X11.6394A-5.5623
X11.6739A-4.5393
X11.7087A-3.6133
X11.7438A-2.7868
X11.7793A-2.0623
X11.8152A-1.4424
X11.8514A-0.9295
X11.8880A-0.5262 F50
X11.9249A-0.2350 F50
X11.9623A-0.0585 F50
X12.0000A0.0009 F50
X12.0007A0.0009 F50
G1Z-0.1000F6.5
G1X12.0000A0.0009 F50
X11.9623A-0.0585 F50
X11.9249A-0.2350 F50
X11.8880A-0.5262 F50
X11.8514A-0.9295 F50
X11.8152A-1.4424
X11.7793A-2.0623
X11.7438A-2.7868
X11.7087A-3.6133
X11.6739A-4.5393
X11.6394A-5.5623
X11.6052A-6.6797
X11.5713A-7.8892
X11.5377A-9.1880
X11.5044A-10.5738
X11.4714A-12.0439
X11.4387A-13.5959
X11.4062A-15.2273
X11.3740A-16.9355
X11.3421A-18.7181
X11.3104A-20.5724
X11.2789A-22.4960
X11.2476A-24.4864
X11.2166A-26.5410
X11.1858A-28.6573
X11.1551A-30.8328
X11.1247A-33.0651
X11.0643A-37.6894
X11.0046A-42.5103
X10.9455A-47.5076
X10.8869A-52.6610
X10.8288A-57.9504
X10.7711A-63.3558
X10.7137A-68.8569
X10.6565A-74.4335
X10.5995A-80.0656
X10.4859A-91.4154
X10.3721A-102.7451
X10.2578A-113.8934
X10.2002A-119.3492
X10.1423A-124.6992
X10.0839A-129.9232
X10.0251A-135.0011
G0Z0.2000
G0X10.0251A-45.0022
G1Z-0.0071F6.5
G1X10.0839A-39.9241F21.0
X10.1423A-34.7001
X10.2002A-29.3501
X10.2578A-23.8944
X10.3721A-12.7460
X10.4859A-1.4164
X10.5995A9.9334
X10.6565A15.5655
X10.7137A21.1421
X10.7711A26.6431
X10.8288A32.0484
X10.8869A37.3379
X10.9455A42.4913
X11.0046A47.4885
X11.0643A52.3093
X11.1247A56.9337
X11.1551A59.1658
X11.1858A61.3414
X11.2166A63.4577
X11.2476A65.5123
X11.2789A67.5026
X11.3104A69.4262
X11.3421A71.2805
X11.3740A73.0630
X11.4062A74.7712
X11.4387A76.4026
X11.4714A77.9546
X11.5044A79.4247
X11.5377A80.8105
X11.5713A82.1093
X11.6052A83.3187
X11.6393A84.4362
X11.6739A85.4592
X11.7087A86.3852
X11.7438A87.2117
X11.7793A87.9361
X11.8152A88.5561
X11.8514A89.0689
X11.8880A89.4722 F50
X11.9249A89.7634 F50
X11.9623A89.9399 F50
X12.0000A89.9993 F50
G1Z-0.0143F6.5
G1X11.9623A89.9399 F50
X11.9249A89.7634 F50
X11.8880A89.4722 F50
X11.8514A89.0689 F50
X11.8152A88.5561
X11.7793A87.9361
X11.7438A87.2117
X11.7087A86.3852
X11.6739A85.4592
X11.6393A84.4362
X11.6052A83.3187
X11.5713A82.1093
X11.5377A80.8105
X11.5044A79.4247
X11.4714A77.9546
X11.4387A76.4026
X11.4062A74.7712
X11.3740A73.0630
X11.3421A71.2805
X11.3104A69.4262
X11.2789A67.5026
X11.2476A65.5123
X11.2166A63.4577
X11.1858A61.3414
X11.1551A59.1658
X11.1247A56.9337
X11.0643A52.3093
X11.0046A47.4885
X10.9455A42.4913
X10.8869A37.3379
X10.8288A32.0484
X10.7711A26.6431
X10.7137A21.1421
X10.6565A15.5655
X10.5995A9.9334
X10.4859A-1.4164
X10.3721A-12.7460
X10.2578A-23.8944
X10.2002A-29.3501
X10.1423A-34.7001
X10.0839A-39.9241
X10.0251A-45.0020
G1X10.0251A-45.0022Z-0.0214F6.5
G1X10.0839A-39.9241F21.0
X10.1423A-34.7001
X10.2002A-29.3501
X10.2578A-23.8944
X10.3721A-12.7460
X10.4859A-1.4164
X10.5995A9.9334
X10.6565A15.5655
X10.7137A21.1421
X10.7711A26.6431
X10.8288A32.0484
X10.8869A37.3379
X10.9455A42.4913
X11.0046A47.4885
X11.0643A52.3093
X11.1247A56.9337
X11.1551A59.1658
X11.1858A61.3414
X11.2166A63.4577
X11.2476A65.5123
X11.2789A67.5026
X11.3104A69.4262
X11.3421A71.2805
X11.3740A73.0630
X11.4062A74.7712
X11.4387A76.4026
X11.4714A77.9546
X11.5044A79.4247
X11.5377A80.8105
X11.5713A82.1093
X11.6052A83.3187
X11.6393A84.4362
X11.6739A85.4592
X11.7087A86.3852
X11.7438A87.2117
X11.7793A87.9361
X11.8152A88.5561
X11.8514A89.0689
X11.8880A89.4722 F50
X11.9249A89.7634 F50
X11.9623A89.9399 F50
X12.0000A89.9993 F50
G1Z-0.0286F6.5
G1X11.9623A89.9399 F50
X11.9249A89.7634 F50
X11.8880A89.4722 F50
X11.8514A89.0689 F50
X11.8152A88.5561
X11.7793A87.9361
X11.7438A87.2117
X11.7087A86.3852
X11.6739A85.4592
X11.6393A84.4362
X11.6052A83.3187
X11.5713A82.1093
X11.5377A80.8105
X11.5044A79.4247
X11.4714A77.9546
X11.4387A76.4026
X11.4062A74.7712
X11.3740A73.0630
X11.3421A71.2805
X11.3104A69.4262
X11.2789A67.5026
X11.2476A65.5123
X11.2166A63.4577
X11.1858A61.3414
X11.1551A59.1658
X11.1247A56.9337
X11.0643A52.3093
X11.0046A47.4885
X10.9455A42.4913
X10.8869A37.3379
X10.8288A32.0484
X10.7711A26.6431
X10.7137A21.1421
X10.6565A15.5655
X10.5995A9.9334
X10.4859A-1.4164
X10.3721A-12.7460
X10.2578A-23.8944
X10.2002A-29.3501
X10.1423A-34.7001
X10.0839A-39.9241
X10.0251A-45.0020
G1X10.0251A-45.0022Z-0.0357F6.5
G1X10.0839A-39.9241F21.0
X10.1423A-34.7001
X10.2002A-29.3501
X10.2578A-23.8944
X10.3721A-12.7460
X10.4859A-1.4164
X10.5995A9.9334
X10.6565A15.5655
X10.7137A21.1421
X10.7711A26.6431
X10.8288A32.0484
X10.8869A37.3379
X10.9455A42.4913
X11.0046A47.4885
X11.0643A52.3093
X11.1247A56.9337
X11.1551A59.1658
X11.1858A61.3414
X11.2166A63.4577
X11.2476A65.5123
X11.2789A67.5026
X11.3104A69.4262
X11.3421A71.2805
X11.3740A73.0630
X11.4062A74.7712
X11.4387A76.4026
X11.4714A77.9546
X11.5044A79.4247
X11.5377A80.8105
X11.5713A82.1093
X11.6052A83.3187
X11.6393A84.4362
X11.6739A85.4592
X11.7087A86.3852
X11.7438A87.2117
X11.7793A87.9361
X11.8152A88.5561
X11.8514A89.0689
X11.8880A89.4722 F50
X11.9249A89.7634 F50
X11.9623A89.9399 F50
X12.0000A89.9993 F50
G1Z-0.0429F6.5
G1X11.9623A89.9399 F50
X11.9249A89.7634 F50
X11.8880A89.4722 F50
X11.8514A89.0689 F50
X11.8152A88.5561
X11.7793A87.9361
X11.7438A87.2117
X11.7087A86.3852
X11.6739A85.4592
X11.6393A84.4362
X11.6052A83.3187
X11.5713A82.1093
X11.5377A80.8105
X11.5044A79.4247
X11.4714A77.9546
X11.4387A76.4026
X11.4062A74.7712
X11.3740A73.0630
X11.3421A71.2805
X11.3104A69.4262
X11.2789A67.5026
X11.2476A65.5123
X11.2166A63.4577
X11.1858A61.3414
X11.1551A59.1658
X11.1247A56.9337
X11.0643A52.3093
X11.0046A47.4885
X10.9455A42.4913
X10.8869A37.3379
X10.8288A32.0484
X10.7711A26.6431
X10.7137A21.1421
X10.6565A15.5655
X10.5995A9.9334
X10.4859A-1.4164
X10.3721A-12.7460
X10.2578A-23.8944
X10.2002A-29.3501
X10.1423A-34.7001
X10.0839A-39.9241
X10.0251A-45.0020
G1X10.0251A-45.0022Z-0.0500F6.5
G1X10.0839A-39.9241F21.0
X10.1423A-34.7001
X10.2002A-29.3501
X10.2578A-23.8944
X10.3721A-12.7460
X10.4859A-1.4164
X10.5995A9.9334
X10.6565A15.5655
X10.7137A21.1421
X10.7711A26.6431
X10.8288A32.0484
X10.8869A37.3379
X10.9455A42.4913
X11.0046A47.4885
X11.0643A52.3093
X11.1247A56.9337
X11.1551A59.1658
X11.1858A61.3414
X11.2166A63.4577
X11.2476A65.5123
X11.2789A67.5026
X11.3104A69.4262
X11.3421A71.2805
X11.3740A73.0630
X11.4062A74.7712
X11.4387A76.4026
X11.4714A77.9546
X11.5044A79.4247
X11.5377A80.8105
X11.5713A82.1093
X11.6052A83.3187
X11.6393A84.4362
X11.6739A85.4592
X11.7087A86.3852
X11.7438A87.2117
X11.7793A87.9361
X11.8152A88.5561
X11.8514A89.0689
X11.8880A89.4722 F50
X11.9249A89.7634 F50
X11.9623A89.9399 F50
X12.0000A89.9993 F50
G1Z-0.0571F6.5
G1X11.9623A89.9399 F50
X11.9249A89.7634 F50
X11.8880A89.4722 F50
X11.8514A89.0689 F50
X11.8152A88.5561
X11.7793A87.9361
X11.7438A87.2117
X11.7087A86.3852
X11.6739A85.4592
X11.6393A84.4362
X11.6052A83.3187
X11.5713A82.1093
X11.5377A80.8105
X11.5044A79.4247
X11.4714A77.9546
X11.4387A76.4026
X11.4062A74.7712
X11.3740A73.0630
X11.3421A71.2805
X11.3104A69.4262
X11.2789A67.5026
X11.2476A65.5123
X11.2166A63.4577
X11.1858A61.3414
X11.1551A59.1658
X11.1247A56.9337
X11.0643A52.3093
X11.0046A47.4885
X10.9455A42.4913
X10.8869A37.3379
X10.8288A32.0484
X10.7711A26.6431
X10.7137A21.1421
X10.6565A15.5655
X10.5995A9.9334
X10.4859A-1.4164
X10.3721A-12.7460
X10.2578A-23.8944
X10.2002A-29.3501
X10.1423A-34.7001
X10.0839A-39.9241
X10.0251A-45.0020
G1X10.0251A-45.0022Z-0.0643F6.5
G1X10.0839A-39.9241F21.0
X10.1423A-34.7001
X10.2002A-29.3501
X10.2578A-23.8944
X10.3721A-12.7460
X10.4859A-1.4164
X10.5995A9.9334
X10.6565A15.5655
X10.7137A21.1421
X10.7711A26.6431
X10.8288A32.0484
X10.8869A37.3379
X10.9455A42.4913
X11.0046A47.4885
X11.0643A52.3093
X11.1247A56.9337
X11.1551A59.1658
X11.1858A61.3414
X11.2166A63.4577
X11.2476A65.5123
X11.2789A67.5026
X11.3104A69.4262
X11.3421A71.2805
X11.3740A73.0630
X11.4062A74.7712
X11.4387A76.4026
X11.4714A77.9546
X11.5044A79.4247
X11.5377A80.8105
X11.5713A82.1093
X11.6052A83.3187
X11.6393A84.4362
X11.6739A85.4592
X11.7087A86.3852
X11.7438A87.2117
X11.7793A87.9361
X11.8152A88.5561
X11.8514A89.0689
X11.8880A89.4722 F50
X11.9249A89.7634 F50
X11.9623A89.9399 F50
X12.0000A89.9993 F50
G1Z-0.0714F6.5
G1X11.9623A89.9399 F50
X11.9249A89.7634 F50
X11.8880A89.4722 F50
X11.8514A89.0689 F50
X11.8152A88.5561
X11.7793A87.9361
X11.7438A87.2117
X11.7087A86.3852
X11.6739A85.4592
X11.6393A84.4362
X11.6052A83.3187
X11.5713A82.1093
X11.5377A80.8105
X11.5044A79.4247
X11.4714A77.9546
X11.4387A76.4026
X11.4062A74.7712
X11.3740A73.0630
X11.3421A71.2805
X11.3104A69.4262
X11.2789A67.5026
X11.2476A65.5123
X11.2166A63.4577
X11.1858A61.3414
X11.1551A59.1658
X11.1247A56.9337
X11.0643A52.3093
X11.0046A47.4885
X10.9455A42.4913
X10.8869A37.3379
X10.8288A32.0484
X10.7711A26.6431
X10.7137A21.1421
X10.6565A15.5655
X10.5995A9.9334
X10.4859A-1.4164
X10.3721A-12.7460
X10.2578A-23.8944
X10.2002A-29.3501
X10.1423A-34.7001
X10.0839A-39.9241
X10.0251A-45.0020
G1X10.0251A-45.0022Z-0.0786F6.5
G1X10.0839A-39.9241F21.0
X10.1423A-34.7001
X10.2002A-29.3501
X10.2578A-23.8944
X10.3721A-12.7460
X10.4859A-1.4164
X10.5995A9.9334
X10.6565A15.5655
X10.7137A21.1421
X10.7711A26.6431
X10.8288A32.0484
X10.8869A37.3379
X10.9455A42.4913
X11.0046A47.4885
X11.0643A52.3093
X11.1247A56.9337
X11.1551A59.1658
X11.1858A61.3414
X11.2166A63.4577
X11.2476A65.5123
X11.2789A67.5026
X11.3104A69.4262
X11.3421A71.2805
X11.3740A73.0630
X11.4062A74.7712
X11.4387A76.4026
X11.4714A77.9546
X11.5044A79.4247
X11.5377A80.8105
X11.5713A82.1093
X11.6052A83.3187
X11.6393A84.4362
X11.6739A85.4592
X11.7087A86.3852
X11.7438A87.2117
X11.7793A87.9361
X11.8152A88.5561
X11.8514A89.0689
X11.8880A89.4722 F50
X11.9249A89.7634 F50
X11.9623A89.9399 F50
X12.0000A89.9993 F50
G1Z-0.0857F6.5
G1X11.9623A89.9399 F50
X11.9249A89.7634 F50
X11.8880A89.4722 F50
X11.8514A89.0689 F50
X11.8152A88.5561
X11.7793A87.9361
X11.7438A87.2117
X11.7087A86.3852
X11.6739A85.4592
X11.6393A84.4362
X11.6052A83.3187
X11.5713A82.1093
X11.5377A80.8105
X11.5044A79.4247
X11.4714A77.9546
X11.4387A76.4026
X11.4062A74.7712
X11.3740A73.0630
X11.3421A71.2805
X11.3104A69.4262
X11.2789A67.5026
X11.2476A65.5123
X11.2166A63.4577
X11.1858A61.3414
X11.1551A59.1658
X11.1247A56.9337
X11.0643A52.3093
X11.0046A47.4885
X10.9455A42.4913
X10.8869A37.3379
X10.8288A32.0484
X10.7711A26.6431
X10.7137A21.1421
X10.6565A15.5655
X10.5995A9.9334
X10.4859A-1.4164
X10.3721A-12.7460
X10.2578A-23.8944
X10.2002A-29.3501
X10.1423A-34.7001
X10.0839A-39.9241
X10.0251A-45.0020
G1X10.0251A-45.0022Z-0.0929F6.5
G1X10.0839A-39.9241F21.0
X10.1423A-34.7001
X10.2002A-29.3501
X10.2578A-23.8944
X10.3721A-12.7460
X10.4859A-1.4164
X10.5995A9.9334
X10.6565A15.5655
X10.7137A21.1421
X10.7711A26.6431
X10.8288A32.0484
X10.8869A37.3379
X10.9455A42.4913
X11.0046A47.4885
X11.0643A52.3093
X11.1247A56.9337
X11.1551A59.1658
X11.1858A61.3414
X11.2166A63.4577
X11.2476A65.5123
X11.2789A67.5026
X11.3104A69.4262
X11.3421A71.2805
X11.3740A73.0630
X11.4062A74.7712
X11.4387A76.4026
X11.4714A77.9546
X11.5044A79.4247
X11.5377A80.8105
X11.5713A82.1093
X11.6052A83.3187
X11.6393A84.4362
X11.6739A85.4592
X11.7087A86.3852
X11.7438A87.2117
X11.7793A87.9361
X11.8152A88.5561
X11.8514A89.0689
X11.8880A89.4722 F50
X11.9249A89.7634 F50
X11.9623A89.9399 F50
X12.0000A89.9993 F50
G1Z-0.1000F6.5
G1X11.9623A89.9399 F50
X11.9249A89.7634 F50
X11.8880A89.4722 F50
X11.8514A89.0689 F50
X11.8152A88.5561
X11.7793A87.9361
X11.7438A87.2117
X11.7087A86.3852
X11.6739A85.4592
X11.6393A84.4362
X11.6052A83.3187
X11.5713A82.1093
X11.5377A80.8105
X11.5044A79.4247
X11.4714A77.9546
X11.4387A76.4026
X11.4062A74.7712
X11.3740A73.0630
X11.3421A71.2805
X11.3104A69.4262
X11.2789A67.5026
X11.2476A65.5123
X11.2166A63.4577
X11.1858A61.3414
X11.1551A59.1658
X11.1247A56.9337
X11.0643A52.3093
X11.0046A47.4885
X10.9455A42.4913
X10.8869A37.3379
X10.8288A32.0484
X10.7711A26.6431
X10.7137A21.1421
X10.6565A15.5655
X10.5995A9.9334
X10.4859A-1.4164
X10.3721A-12.7460
X10.2578A-23.8944
X10.2002A-29.3501
X10.1423A-34.7001
X10.0839A-39.9241
X10.0251A-45.0020
G0Z0.2000
G0X10.0251A-225.0023
G1Z-0.0071F6.5
G1X10.0839A-219.9243F21.0
X10.1423A-214.7003
X10.2002A-209.3504
X10.2578A-203.8946
X10.3721A-192.7464
X10.4858A-181.4168
X10.5995A-170.0671
X10.6565A-164.4351
X10.7137A-158.8585
X10.7711A-153.3575
X10.8288A-147.9523
X10.8869A-142.6629
X10.9455A-137.5096
X11.0046A-132.5124
X11.0643A-127.6916
X11.1247A-123.0673
X11.1551A-120.8352
X11.1858A-118.6597
X11.2166A-116.5434
X11.2476A-114.4888
X11.2789A-112.4985
X11.3104A-110.5749
X11.3421A-108.7206
X11.3740A-106.9382
X11.4062A-105.2300
X11.4387A-103.5986
X11.4714A-102.0466
X11.5044A-100.5765
X11.5377A-99.1908
X11.5713A-97.8920
X11.6052A-96.6826
X11.6393A-95.5651
X11.6738A-94.5422
X11.7087A-93.6162
X11.7438A-92.7897
X11.7793A-92.0652
X11.8152A-91.4453
X11.8514A-90.9325
X11.8880A-90.5292 F50
X11.9249A-90.2380 F50
X11.9623A-90.0615 F50
X12.0000A-90.0021 F50
G1Z-0.0143F6.5
G1X11.9623A-90.0615 F50
X11.9249A-90.2380 F50
X11.8880A-90.5292 F50
X11.8514A-90.9325 F50
X11.8152A-91.4453
X11.7793A-92.0652
X11.7438A-92.7897
X11.7087A-93.6162
X11.6738A-94.5422
X11.6393A-95.5651
X11.6052A-96.6826
X11.5713A-97.8920
X11.5377A-99.1908
X11.5044A-100.5765
X11.4714A-102.0466
X11.4387A-103.5986
X11.4062A-105.2300
X11.3740A-106.9382
X11.3421A-108.7206
X11.3104A-110.5749
X11.2789A-112.4985
X11.2476A-114.4888
X11.2166A-116.5434
X11.1858A-118.6597
X11.1551A-120.8352
X11.1247A-123.0673
X11.0643A-127.6916
X11.0046A-132.5124
X10.9455A-137.5096
X10.8869A-142.6629
X10.8288A-147.9523
X10.7711A-153.3575
X10.7137A-158.8585
X10.6565A-164.4351
X10.5995A-170.0671
X10.4858A-181.4168
X10.3721A-192.7464
X10.2578A-203.8946
X10.2002A-209.3504
X10.1423A-214.7003
X10.0839A-219.9243
X10.0251A-225.0022
G1X10.0251A-225.0023Z-0.0214F6.5
G1X10.0839A-219.9243F21.0
X10.1423A-214.7003
X10.2002A-209.3504
X10.2578A-203.8946
X10.3721A-192.7464
X10.4858A-181.4168
X10.5995A-170.0671
X10.6565A-164.4351
X10.7137A-158.8585
X10.7711A-153.3575
X10.8288A-147.9523
X10.8869A-142.6629
X10.9455A-137.5096
X11.0046A-132.5124
X11.0643A-127.6916
X11.1247A-123.0673
X11.1551A-120.8352
X11.1858A-118.6597
X11.2166A-116.5434
X11.2476A-114.4888
X11.2789A-112.4985
X11.3104A-110.5749
X11.3421A-108.7206
X11.3740A-106.9382
X11.4062A-105.2300
X11.4387A-103.5986
X11.4714A-102.0466
X11.5044A-100.5765
X11.5377A-99.1908
X11.5713A-97.8920
X11.6052A-96.6826
X11.6393A-95.5651
X11.6738A-94.5422
X11.7087A-93.6162
X11.7438A-92.7897
X11.7793A-92.0652
X11.8152A-91.4453
X11.8514A-90.9325
X11.8880A-90.5292 F50
X11.9249A-90.2380 F50
X11.9623A-90.0615 F50
X12.0000A-90.0021 F50
G1Z-0.0286F6.5
G1X11.9623A-90.0615 F50
X11.9249A-90.2380 F50
X11.8880A-90.5292 F50
X11.8514A-90.9325 F50
X11.8152A-91.4453
X11.7793A-92.0652
X11.7438A-92.7897
X11.7087A-93.6162
X11.6738A-94.5422
X11.6393A-95.5651
X11.6052A-96.6826
X11.5713A-97.8920
X11.5377A-99.1908
X11.5044A-100.5765
X11.4714A-102.0466
X11.4387A-103.5986
X11.4062A-105.2300
X11.3740A-106.9382
X11.3421A-108.7206
X11.3104A-110.5749
X11.2789A-112.4985
X11.2476A-114.4888
X11.2166A-116.5434
X11.1858A-118.6597
X11.1551A-120.8352
X11.1247A-123.0673
X11.0643A-127.6916
X11.0046A-132.5124
X10.9455A-137.5096
X10.8869A-142.6629
X10.8288A-147.9523
X10.7711A-153.3575
X10.7137A-158.8585
X10.6565A-164.4351
X10.5995A-170.0671
X10.4858A-181.4168
X10.3721A-192.7464
X10.2578A-203.8946
X10.2002A-209.3504
X10.1423A-214.7003
X10.0839A-219.9243
X10.0251A-225.0022
G1X10.0251A-225.0023Z-0.0357F6.5
G1X10.0839A-219.9243F21.0
X10.1423A-214.7003
X10.2002A-209.3504
X10.2578A-203.8946
X10.3721A-192.7464
X10.4858A-181.4168
X10.5995A-170.0671
X10.6565A-164.4351
X10.7137A-158.8585
X10.7711A-153.3575
X10.8288A-147.9523
X10.8869A-142.6629
X10.9455A-137.5096
X11.0046A-132.5124
X11.0643A-127.6916
X11.1247A-123.0673
X11.1551A-120.8352
X11.1858A-118.6597
X11.2166A-116.5434
X11.2476A-114.4888
X11.2789A-112.4985
X11.3104A-110.5749
X11.3421A-108.7206
X11.3740A-106.9382
X11.4062A-105.2300
X11.4387A-103.5986
X11.4714A-102.0466
X11.5044A-100.5765
X11.5377A-99.1908
X11.5713A-97.8920
X11.6052A-96.6826
X11.6393A-95.5651
X11.6738A-94.5422
X11.7087A-93.6162
X11.7438A-92.7897
X11.7793A-92.0652
X11.8152A-91.4453
X11.8514A-90.9325
X11.8880A-90.5292 F50
X11.9249A-90.2380 F50
X11.9623A-90.0615 F50
X12.0000A-90.0021 F50
G1Z-0.0429F6.5
G1X11.9623A-90.0615 F50
X11.9249A-90.2380 F50
X11.8880A-90.5292 F50
X11.8514A-90.9325 F50
X11.8152A-91.4453
X11.7793A-92.0652
X11.7438A-92.7897
X11.7087A-93.6162
X11.6738A-94.5422
X11.6393A-95.5651
X11.6052A-96.6826
X11.5713A-97.8920
X11.5377A-99.1908
X11.5044A-100.5765
X11.4714A-102.0466
X11.4387A-103.5986
X11.4062A-105.2300
X11.3740A-106.9382
X11.3421A-108.7206
X11.3104A-110.5749
X11.2789A-112.4985
X11.2476A-114.4888
X11.2166A-116.5434
X11.1858A-118.6597
X11.1551A-120.8352
X11.1247A-123.0673
X11.0643A-127.6916
X11.0046A-132.5124
X10.9455A-137.5096
X10.8869A-142.6629
X10.8288A-147.9523
X10.7711A-153.3575
X10.7137A-158.8585
X10.6565A-164.4351
X10.5995A-170.0671
X10.4858A-181.4168
X10.3721A-192.7464
X10.2578A-203.8946
X10.2002A-209.3504
X10.1423A-214.7003
X10.0839A-219.9243
X10.0251A-225.0022
G1X10.0251A-225.0023Z-0.0500F6.5
G1X10.0839A-219.9243F21.0
X10.1423A-214.7003
X10.2002A-209.3504
X10.2578A-203.8946
X10.3721A-192.7464
X10.4858A-181.4168
X10.5995A-170.0671
X10.6565A-164.4351
X10.7137A-158.8585
X10.7711A-153.3575
X10.8288A-147.9523
X10.8869A-142.6629
X10.9455A-137.5096
X11.0046A-132.5124
X11.0643A-127.6916
X11.1247A-123.0673
X11.1551A-120.8352
X11.1858A-118.6597
X11.2166A-116.5434
X11.2476A-114.4888
X11.2789A-112.4985
X11.3104A-110.5749
X11.3421A-108.7206
X11.3740A-106.9382
X11.4062A-105.2300
X11.4387A-103.5986
X11.4714A-102.0466
X11.5044A-100.5765
X11.5377A-99.1908
X11.5713A-97.8920
X11.6052A-96.6826
X11.6393A-95.5651
X11.6738A-94.5422
X11.7087A-93.6162
X11.7438A-92.7897
X11.7793A-92.0652
X11.8152A-91.4453
X11.8514A-90.9325
X11.8880A-90.5292 F50
X11.9249A-90.2380 F50
X11.9623A-90.0615 F50
X12.0000A-90.0021 F50
G1Z-0.0571F6.5
G1X11.9623A-90.0615 F50
X11.9249A-90.2380 F50
X11.8880A-90.5292 F50
X11.8514A-90.9325 F50
X11.8152A-91.4453
X11.7793A-92.0652
X11.7438A-92.7897
X11.7087A-93.6162
X11.6738A-94.5422
X11.6393A-95.5651
X11.6052A-96.6826
X11.5713A-97.8920
X11.5377A-99.1908
X11.5044A-100.5765
X11.4714A-102.0466
X11.4387A-103.5986
X11.4062A-105.2300
X11.3740A-106.9382
X11.3421A-108.7206
X11.3104A-110.5749
X11.2789A-112.4985
X11.2476A-114.4888
X11.2166A-116.5434
X11.1858A-118.6597
X11.1551A-120.8352
X11.1247A-123.0673
X11.0643A-127.6916
X11.0046A-132.5124
X10.9455A-137.5096
X10.8869A-142.6629
X10.8288A-147.9523
X10.7711A-153.3575
X10.7137A-158.8585
X10.6565A-164.4351
X10.5995A-170.0671
X10.4858A-181.4168
X10.3721A-192.7464
X10.2578A-203.8946
X10.2002A-209.3504
X10.1423A-214.7003
X10.0839A-219.9243
X10.0251A-225.0022
G1X10.0251A-225.0023Z-0.0643F6.5
G1X10.0839A-219.9243F21.0
X10.1423A-214.7003
X10.2002A-209.3504
X10.2578A-203.8946
X10.3721A-192.7464
X10.4858A-181.4168
X10.5995A-170.0671
X10.6565A-164.4351
X10.7137A-158.8585
X10.7711A-153.3575
X10.8288A-147.9523
X10.8869A-142.6629
X10.9455A-137.5096
X11.0046A-132.5124
X11.0643A-127.6916
X11.1247A-123.0673
X11.1551A-120.8352
X11.1858A-118.6597
X11.2166A-116.5434
X11.2476A-114.4888
X11.2789A-112.4985
X11.3104A-110.5749
X11.3421A-108.7206
X11.3740A-106.9382
X11.4062A-105.2300
X11.4387A-103.5986
X11.4714A-102.0466
X11.5044A-100.5765
X11.5377A-99.1908
X11.5713A-97.8920
X11.6052A-96.6826
X11.6393A-95.5651
X11.6738A-94.5422
X11.7087A-93.6162
X11.7438A-92.7897
X11.7793A-92.0652
X11.8152A-91.4453
X11.8514A-90.9325
X11.8880A-90.5292 F50
X11.9249A-90.2380 F50
X11.9623A-90.0615 F50
X12.0000A-90.0021 F50
G1Z-0.0714F6.5
G1X11.9623A-90.0615 F50
X11.9249A-90.2380 F50
X11.8880A-90.5292 F50
X11.8514A-90.9325 F50
X11.8152A-91.4453
X11.7793A-92.0652
X11.7438A-92.7897
X11.7087A-93.6162
X11.6738A-94.5422
X11.6393A-95.5651
X11.6052A-96.6826
X11.5713A-97.8920
X11.5377A-99.1908
X11.5044A-100.5765
X11.4714A-102.0466
X11.4387A-103.5986
X11.4062A-105.2300
X11.3740A-106.9382
X11.3421A-108.7206
X11.3104A-110.5749
X11.2789A-112.4985
X11.2476A-114.4888
X11.2166A-116.5434
X11.1858A-118.6597
X11.1551A-120.8352
X11.1247A-123.0673
X11.0643A-127.6916
X11.0046A-132.5124
X10.9455A-137.5096
X10.8869A-142.6629
X10.8288A-147.9523
X10.7711A-153.3575
X10.7137A-158.8585
X10.6565A-164.4351
X10.5995A-170.0671
X10.4858A-181.4168
X10.3721A-192.7464
X10.2578A-203.8946
X10.2002A-209.3504
X10.1423A-214.7003
X10.0839A-219.9243
X10.0251A-225.0022
G1X10.0251A-225.0023Z-0.0786F6.5
G1X10.0839A-219.9243F21.0
X10.1423A-214.7003
X10.2002A-209.3504
X10.2578A-203.8946
X10.3721A-192.7464
X10.4858A-181.4168
X10.5995A-170.0671
X10.6565A-164.4351
X10.7137A-158.8585
X10.7711A-153.3575
X10.8288A-147.9523
X10.8869A-142.6629
X10.9455A-137.5096
X11.0046A-132.5124
X11.0643A-127.6916
X11.1247A-123.0673
X11.1551A-120.8352
X11.1858A-118.6597
X11.2166A-116.5434
X11.2476A-114.4888
X11.2789A-112.4985
X11.3104A-110.5749
X11.3421A-108.7206
X11.3740A-106.9382
X11.4062A-105.2300
X11.4387A-103.5986
X11.4714A-102.0466
X11.5044A-100.5765
X11.5377A-99.1908
X11.5713A-97.8920
X11.6052A-96.6826
X11.6393A-95.5651
X11.6738A-94.5422
X11.7087A-93.6162
X11.7438A-92.7897
X11.7793A-92.0652
X11.8152A-91.4453
X11.8514A-90.9325
X11.8880A-90.5292 F50
X11.9249A-90.2380 F50
X11.9623A-90.0615 F50
X12.0000A-90.0021 F50
G1Z-0.0857F6.5
G1X11.9623A-90.0615 F50
X11.9249A-90.2380 F50
X11.8880A-90.5292 F50
X11.8514A-90.9325 F50
X11.8152A-91.4453
X11.7793A-92.0652
X11.7438A-92.7897
X11.7087A-93.6162
X11.6738A-94.5422
X11.6393A-95.5651
X11.6052A-96.6826
X11.5713A-97.8920
X11.5377A-99.1908
X11.5044A-100.5765
X11.4714A-102.0466
X11.4387A-103.5986
X11.4062A-105.2300
X11.3740A-106.9382
X11.3421A-108.7206
X11.3104A-110.5749
X11.2789A-112.4985
X11.2476A-114.4888
X11.2166A-116.5434
X11.1858A-118.6597
X11.1551A-120.8352
X11.1247A-123.0673
X11.0643A-127.6916
X11.0046A-132.5124
X10.9455A-137.5096
X10.8869A-142.6629
X10.8288A-147.9523
X10.7711A-153.3575
X10.7137A-158.8585
X10.6565A-164.4351
X10.5995A-170.0671
X10.4858A-181.4168
X10.3721A-192.7464
X10.2578A-203.8946
X10.2002A-209.3504
X10.1423A-214.7003
X10.0839A-219.9243
X10.0251A-225.0022
G1X10.0251A-225.0023Z-0.0929F6.5
G1X10.0839A-219.9243F21.0
X10.1423A-214.7003
X10.2002A-209.3504
X10.2578A-203.8946
X10.3721A-192.7464
X10.4858A-181.4168
X10.5995A-170.0671
X10.6565A-164.4351
X10.7137A-158.8585
X10.7711A-153.3575
X10.8288A-147.9523
X10.8869A-142.6629
X10.9455A-137.5096
X11.0046A-132.5124
X11.0643A-127.6916
X11.1247A-123.0673
X11.1551A-120.8352
X11.1858A-118.6597
X11.2166A-116.5434
X11.2476A-114.4888
X11.2789A-112.4985
X11.3104A-110.5749
X11.3421A-108.7206
X11.3740A-106.9382
X11.4062A-105.2300
X11.4387A-103.5986
X11.4714A-102.0466
X11.5044A-100.5765
X11.5377A-99.1908
X11.5713A-97.8920
X11.6052A-96.6826
X11.6393A-95.5651
X11.6738A-94.5422
X11.7087A-93.6162
X11.7438A-92.7897
X11.7793A-92.0652
X11.8152A-91.4453
X11.8514A-90.9325
X11.8880A-90.5292 F50
X11.9249A-90.2380 F50
X11.9623A-90.0615 F50
X12.0000A-90.0021 F50
G1Z-0.1000F6.5
G1X11.9623A-90.0615 F50
X11.9249A-90.2380 F50
X11.8880A-90.5292 F50
X11.8514A-90.9325 F50
X11.8152A-91.4453
X11.7793A-92.0652
X11.7438A-92.7897
X11.7087A-93.6162
X11.6738A-94.5422
X11.6393A-95.5651
X11.6052A-96.6826
X11.5713A-97.8920
X11.5377A-99.1908
X11.5044A-100.5765
X11.4714A-102.0466
X11.4387A-103.5986
X11.4062A-105.2300
X11.3740A-106.9382
X11.3421A-108.7206
X11.3104A-110.5749
X11.2789A-112.4985
X11.2476A-114.4888
X11.2166A-116.5434
X11.1858A-118.6597
X11.1551A-120.8352
X11.1247A-123.0673
X11.0643A-127.6916
X11.0046A-132.5124
X10.9455A-137.5096
X10.8869A-142.6629
X10.8288A-147.9523
X10.7711A-153.3575
X10.7137A-158.8585
X10.6565A-164.4351
X10.5995A-170.0671
X10.4858A-181.4168
X10.3721A-192.7464
X10.2578A-203.8946
X10.2002A-209.3504
X10.1423A-214.7003
X10.0839A-219.9243
X10.0251A-225.0022
G0Z0.2000
G0X8.9999A-224.9994
G1Z-0.0071F6.5
G1X9.0002A-224.9994 F50
X9.0009A-224.9996 F50
X9.0002A-224.9999 F50
X8.9721A-224.9671 F50
X8.9443A-224.8694 F50
X8.9167A-224.7079 F50
X8.8893A-224.4835 F50
X8.8621A-224.1973 F50
X8.8351A-223.8504 F50
X8.8083A-223.4437 F50
X8.7817A-222.9784 F50
X8.7553A-222.4553
X8.7291A-221.8756
X8.7031A-221.2403
X8.6773A-220.5504
X8.6516A-219.8069
X8.6261A-219.0109
X8.5757A-217.2655
X8.5259A-215.3223
X8.4767A-213.1896
X8.4282A-210.8756
X8.3802A-208.3885
X8.3328A-205.7367
X8.2859A-202.9283
X8.2395A-199.9716
X8.1936A-196.8749
X8.1481A-193.6462
X8.1030A-190.2940
X8.0584A-186.8265
X8.0141A-183.2518
X7.9701A-179.5783
X7.9264A-175.8141
X7.8830A-171.9675
X7.8398A-168.0467
X7.7541A-160.0157
X7.6691A-151.7870
X7.5002A-134.9999
X7.4158A-126.5734
X7.3312A-118.2128
X7.2462A-109.9840
X7.2035A-105.9397
X7.1605A-101.9530
X7.1174A-98.0322
X7.0740A-94.1857
X7.0303A-90.4215
X6.9863A-86.7479
X6.9420A-83.1732
X6.8973A-79.7057
X6.8522A-76.3535
X6.8067A-73.1249
X6.7608A-70.0281
X6.7144A-67.0714
X6.6675A-64.2630
X6.6201A-61.6112
X6.5722A-59.1242
X6.5236A-56.8102
X6.4745A-54.6774
X6.4247A-52.7342
X6.3742A-50.9888
X6.3487A-50.1928
X6.3231A-49.4493
X6.2972A-48.7594
X6.2712A-48.1241
X6.2450A-47.5444
X6.2186A-47.0213
X6.1920A-46.5560 F50
X6.1652A-46.1493 F50
X6.1382A-45.8024 F50
X6.1110A-45.5162 F50
X6.0836A-45.2919 F50
X6.0560A-45.1303 F50
X6.0282A-45.0326 F50
X6.0002A-44.9999 F50
X5.9721A-45.0326 F50
X5.9443A-45.1303 F50
X5.9167A-45.2919 F50
X5.8893A-45.5162 F50
X5.8621A-45.8024 F50
X5.8351A-46.1493 F50
X5.8083A-46.5560 F50
X5.7817A-47.0213 F50
X5.7553A-47.5444
X5.7291A-48.1241
X5.7031A-48.7594
X5.6773A-49.4493
X5.6516A-50.1928
X5.6261A-50.9888
X5.5757A-52.7342
X5.5259A-54.6774
X5.4767A-56.8102
X5.4282A-59.1242
X5.3802A-61.6112
X5.3328A-64.2630
X5.2859A-67.0714
X5.2395A-70.0281
X5.1936A-73.1249
X5.1481A-76.3535
X5.1030A-79.7057
X5.0584A-83.1732
X5.0141A-86.7479
X4.9701A-90.4215
X4.9264A-94.1857
X4.8830A-98.0322
X4.8398A-101.9530
X4.7541A-109.9840
X4.6691A-118.2128
X4.5002A-134.9999
X4.4158A-143.4264
X4.3312A-151.7870
X4.2462A-160.0157
X4.2035A-164.0601
X4.1605A-168.0467
X4.1174A-171.9675
X4.0740A-175.8141
X4.0303A-179.5783
X3.9863A-183.2518
X3.9420A-186.8265
X3.8973A-190.2940
X3.8522A-193.6462
X3.8067A-196.8749
X3.7608A-199.9716
X3.7144A-202.9283
X3.6675A-205.7367
X3.6201A-208.3885
X3.5722A-210.8756
X3.5236A-213.1896
X3.4745A-215.3223
X3.4247A-217.2655
X3.3742A-219.0109
X3.3487A-219.8069
X3.3231A-220.5504
X3.2972A-221.2403
X3.2712A-221.8756
X3.2450A-222.4553
X3.2186A-222.9784
X3.1920A-223.4437 F50
X3.1652A-223.8504 F50
X3.1382A-224.1973 F50
X3.1110A-224.4835 F50
X3.0836A-224.7079 F50
X3.0560A-224.8694 F50
X3.0282A-224.9671 F50
X3.0002A-224.9999 F50
X2.9991A-224.9996 F50
X3.0002A-224.9994 F50
X3.0005A-224.9994 F50
G1Z-0.0143F6.5
G1X3.0002A-224.9994 F50
X2.9991A-224.9996 F50
X3.0002A-224.9999 F50
X3.0282A-224.9671 F50
X3.0560A-224.8694 F50
X3.0836A-224.7079 F50
X3.1110A-224.4835 F50
X3.1382A-224.1973 F50
X3.1652A-223.8504 F50
X3.1920A-223.4437 F50
X3.2186A-222.9784 F50
X3.2450A-222.4553
X3.2712A-221.8756
X3.2972A-221.2403
X3.3231A-220.5504
X3.3487A-219.8069
X3.3742A-219.0109
X3.4247A-217.2655
X3.4745A-215.3223
X3.5236A-213.1896
X3.5722A-210.8756
X3.6201A-208.3885
X3.6675A-205.7367
X3.7144A-202.9283
X3.7608A-199.9716
X3.8067A-196.8749
X3.8522A-193.6462
X3.8973A-190.2940
X3.9420A-186.8265
X3.9863A-183.2518
X4.0303A-179.5783
X4.0740A-175.8141
X4.1174A-171.9675
X4.1605A-168.0467
X4.2035A-164.0601
X4.2462A-160.0157
X4.3312A-151.7870
X4.4158A-143.4264
X4.5002A-134.9999
X4.6691A-118.2128
X4.7541A-109.9840
X4.8398A-101.9530
X4.8830A-98.0322
X4.9264A-94.1857
X4.9701A-90.4215
X5.0141A-86.7479
X5.0584A-83.1732
X5.1030A-79.7057
X5.1481A-76.3535
X5.1936A-73.1249
X5.2395A-70.0281
X5.2859A-67.0714
X5.3328A-64.2630
X5.3802A-61.6112
X5.4282A-59.1242
X5.4767A-56.8102
X5.5259A-54.6774
X5.5757A-52.7342
X5.6261A-50.9888
X5.6516A-50.1928
X5.6773A-49.4493
X5.7031A-48.7594
X5.7291A-48.1241
X5.7553A-47.5444
X5.7817A-47.0213
X5.8083A-46.5560 F50
X5.8351A-46.1493 F50
X5.8621A-45.8024 F50
X5.8893A-45.5162 F50
X5.9167A-45.2919 F50
X5.9443A-45.1303 F50
X5.9721A-45.0326 F50
X6.0002A-44.9999 F50
X6.0282A-45.0326 F50
X6.0560A-45.1303 F50
X6.0836A-45.2919 F50
X6.1110A-45.5162 F50
X6.1382A-45.8024 F50
X6.1652A-46.1493 F50
X6.1920A-46.5560 F50
X6.2186A-47.0213 F50
X6.2450A-47.5444
X6.2712A-48.1241
X6.2972A-48.7594
X6.3231A-49.4493
X6.3487A-50.1928
X6.3742A-50.9888
X6.4247A-52.7342
X6.4745A-54.6774
X6.5236A-56.8102
X6.5722A-59.1242
X6.6201A-61.6112
X6.6675A-64.2630
X6.7144A-67.0714
X6.7608A-70.0281
X6.8067A-73.1249
X6.8522A-76.3535
X6.8973A-79.7057
X6.9420A-83.1732
X6.9863A-86.7479
X7.0303A-90.4215
X7.0740A-94.1857
X7.1174A-98.0322
X7.1605A-101.9530
X7.2035A-105.9397
X7.2462A-109.9840
X7.3312A-118.2128
X7.4158A-126.5734
X7.5002A-134.9999
X7.6691A-151.7870
X7.7541A-160.0157
X7.8398A-168.0467
X7.8830A-171.9675
X7.9264A-175.8141
X7.9701A-179.5783
X8.0141A-183.2518
X8.0584A-186.8265
X8.1030A-190.2940
X8.1481A-193.6462
X8.1936A-196.8749
X8.2395A-199.9716
X8.2859A-202.9283
X8.3328A-205.7367
X8.3802A-208.3885
X8.4282A-210.8756
X8.4767A-213.1896
X8.5259A-215.3223
X8.5757A-217.2655
X8.6261A-219.0109
X8.6516A-219.8069
X8.6773A-220.5504
X8.7031A-221.2403
X8.7291A-221.8756
X8.7553A-222.4553
X8.7817A-222.9784
X8.8083A-223.4437 F50
X8.8351A-223.8504 F50
X8.8621A-224.1973 F50
X8.8893A-224.4835 F50
X8.9167A-224.7079 F50
X8.9443A-224.8694 F50
X8.9721A-224.9671 F50
X9.0002A-224.9999 F50
X9.0009A-224.9996 F50
X9.0002A-224.9994 F50
X8.9999A-224.9994 F50
G1Z-0.0214F6.5
G1X9.0002A-224.9994 F50
X9.0009A-224.9996 F50
X9.0002A-224.9999 F50
X8.9721A-224.9671 F50
X8.9443A-224.8694 F50
X8.9167A-224.7079 F50
X8.8893A-224.4835 F50
X8.8621A-224.1973 F50
X8.8351A-223.8504 F50
X8.8083A-223.4437 F50
X8.7817A-222.9784 F50
X8.7553A-222.4553
X8.7291A-221.8756
X8.7031A-221.2403
X8.6773A-220.5504
X8.6516A-219.8069
X8.6261A-219.0109
X8.5757A-217.2655
X8.5259A-215.3223
X8.4767A-213.1896
X8.4282A-210.8756
X8.3802A-208.3885
X8.3328A-205.7367
X8.2859A-202.9283
X8.2395A-199.9716
X8.1936A-196.8749
X8.1481A-193.6462
X8.1030A-190.2940
X8.0584A-186.8265
X8.0141A-183.2518
X7.9701A-179.5783
X7.9264A-175.8141
X7.8830A-171.9675
X7.8398A-168.0467
X7.7541A-160.0157
X7.6691A-151.7870
X7.5002A-134.9999
X7.4158A-126.5734
X7.3312A-118.2128
X7.2462A-109.9840
X7.2035A-105.9397
X7.1605A-101.9530
X7.1174A-98.0322
X7.0740A-94.1857
X7.0303A-90.4215
X6.9863A-86.7479
X6.9420A-83.1732
X6.8973A-79.7057
X6.8522A-76.3535
X6.8067A-73.1249
X6.7608A-70.0281
X6.7144A-67.0714
X6.6675A-64.2630
X6.6201A-61.6112
X6.5722A-59.1242
X6.5236A-56.8102
X6.4745A-54.6774
X6.4247A-52.7342
X6.3742A-50.9888
X6.3487A-50.1928
X6.3231A-49.4493
X6.2972A-48.7594
X6.2712A-48.1241
X6.2450A-47.5444
X6.2186A-47.0213
X6.1920A-46.5560 F50
X6.1652A-46.1493 F50
X6.1382A-45.8024 F50
X6.1110A-45.5162 F50
X6.0836A-45.2919 F50
X6.0560A-45.1303 F50
X6.0282A-45.0326 F50
X6.0002A-44.9999 F50
X5.9721A-45.0326 F50
X5.9443A-45.1303 F50
X5.9167A-45.2919 F50
X5.8893A-45.5162 F50
X5.8621A-45.8024 F50
X5.8351A-46.1493 F50
X5.8083A-46.5560 F50
X5.7817A-47.0213 F50
X5.7553A-47.5444
X5.7291A-48.1241
X5.7031A-48.7594
X5.6773A-49.4493
X5.6516A-50.1928
X5.6261A-50.9888
X5.5757A-52.7342
X5.5259A-54.6774
X5.4767A-56.8102
X5.4282A-59.1242
X5.3802A-61.6112
X5.3328A-64.2630
X5.2859A-67.0714
X5.2395A-70.0281
X5.1936A-73.1249
X5.1481A-76.3535
X5.1030A-79.7057
X5.0584A-83.1732
X5.0141A-86.7479
X4.9701A-90.4215
X4.9264A-94.1857
X4.8830A-98.0322
X4.8398A-101.9530
X4.7541A-109.9840
X4.6691A-118.2128
X4.5002A-134.9999
X4.4158A-143.4264
X4.3312A-151.7870
X4.2462A-160.0157
X4.2035A-164.0601
X4.1605A-168.0467
X4.1174A-171.9675
X4.0740A-175.8141
X4.0303A-179.5783
X3.9863A-183.2518
X3.9420A-186.8265
X3.8973A-190.2940
X3.8522A-193.6462
X3.8067A-196.8749
X3.7608A-199.9716
X3.7144A-202.9283
X3.6675A-205.7367
X3.6201A-208.3885
X3.5722A-210.8756
X3.5236A-213.1896
X3.4745A-215.3223
X3.4247A-217.2655
X3.3742A-219.0109
X3.3487A-219.8069
X3.3231A-220.5504
X3.2972A-221.2403
X3.2712A-221.8756
X3.2450A-222.4553
X3.2186A-222.9784
X3.1920A-223.4437 F50
X3.1652A-223.8504 F50
X3.1382A-224.1973 F50
X3.1110A-224.4835 F50
X3.0836A-224.7079 F50
X3.0560A-224.8694 F50
X3.0282A-224.9671 F50
X3.0002A-224.9999 F50
X2.9991A-224.9996 F50
X3.0002A-224.9994 F50
X3.0005A-224.9994 F50
G1Z-0.0286F6.5
G1X3.0002A-224.9994 F50
X2.9991A-224.9996 F50
X3.0002A-224.9999 F50
X3.0282A-224.9671 F50
