(VECTRIC POST REV.)
(4943E22A0867EDC45D91771F33798195)
T1M6
G17
G0Z1.0000
G0X0.0000A-89.8757S19000M3
G0X0.0000A-89.9979
G0Z0.2000
G1Z-0.0071F6.5
G1X12.0000Z-0.0071A-449.9979 F380.0
G1Z-0.0143F6.5
G1X0.0000Z-0.2643A-89.9979 F380.0
G1Z-0.0214F6.5
G1X12.0000Z-0.0214A-449.9979 F380.0
G1Z-0.0286F6.5
G1X0.0000Z-0.2786A-89.9979 F380.0
G1Z-0.0357F6.5
G1X12.0000Z-0.0357A-449.9979 F380.0
G1Z-0.0429F6.5
G1X0.0000Z-0.2929A-89.9979 F380.0
G1Z-0.0500F6.5
G1X12.0000Z-0.0500A-449.9979 F380.0
G1Z-0.0571F6.5
G1X0.0000Z-0.3071A-89.9979 F380.0
G1Z-0.0643F6.5
G1X12.0000Z-0.0643A-449.9979 F380.0
G1Z-0.0714F6.5
G1X0.0000Z-0.3214A-89.9979 F380.0
G1Z-0.0786F6.5
G1X12.0000Z-0.0786A-449.9979 F380.0
G1Z-0.0857F6.5
G1X0.0000Z-0.3357A-89.9979 F380.0
G1Z-0.0929F6.5
G1X12.0000Z-0.0929A-449.9979 F380.0
G1Z-0.1000F6.5
G1X0.0000Z-0.3500A-89.9979 F380.0
G0Z0.2000
G0A0.0000
G1Z-0.0071F6.5
G1X12.0000Z-0.0071A-360.0000 F380.0
G1Z-0.0143F6.5
G1X0.0000Z-0.2643A0.0000 F380.0
G1Z-0.0214F6.5
G1X12.0000Z-0.0214A-360.0000 F380.0
G1Z-0.0286F6.5
G1X0.0000Z-0.2786A0.0000 F380.0
G1Z-0.0357F6.5
G1X12.0000Z-0.0357A-360.0000 F380.0
G1Z-0.0429F6.5
G1X0.0000Z-0.2929A0.0000 F380.0
G1Z-0.0500F6.5
G1X12.0000Z-0.0500A-360.0000 F380.0
G1Z-0.0571F6.5
G1X0.0000Z-0.3071A0.0000 F380.0
G1Z-0.0643F6.5
G1X12.0000Z-0.0643A-360.0000 F380.0
G1Z-0.0714F6.5
G1X0.0000Z-0.3214A0.0000 F380.0
G1Z-0.0786F6.5
G1X12.0000Z-0.0786A-360.0000 F380.0
G1Z-0.0857F6.5
G1X0.0000Z-0.3357A0.0000 F380.0
G1Z-0.0929F6.5
G1X12.0000Z-0.0929A-360.0000 F380.0
G1Z-0.1000F6.5
G1X0.0000Z-0.3500A0.0000 F380.0
G0Z0.2000
G0A-179.9986
G1Z-0.0071F6.5
G1X12.0000Z-0.0071A-539.9986 F380.0
G1Z-0.0143F6.5
G1X0.0000Z-0.2643A-179.9986 F380.0
G1Z-0.0214F6.5
G1X12.0000Z-0.0214A-539.9986 F380.0
G1Z-0.0286F6.5
G1X0.0000Z-0.2786A-179.9986 F380.0
G1Z-0.0357F6.5
G1X12.0000Z-0.0357A-539.9986 F380.0
G1Z-0.0429F6.5
G1X0.0000Z-0.2929A-179.9986 F380.0
G1Z-0.0500F6.5
G1X12.0000Z-0.0500A-539.9986 F380.0
G1Z-0.0571F6.5
G1X0.0000Z-0.3071A-179.9986 F380.0
G1Z-0.0643F6.5
G1X12.0000Z-0.0643A-539.9986 F380.0
G1Z-0.0714F6.5
G1X0.0000Z-0.3214A-179.9986 F380.0
G1Z-0.0786F6.5
G1X12.0000Z-0.0786A-539.9986 F380.0
G1Z-0.0857F6.5
G1X0.0000Z-0.3357A-179.9986 F380.0
G1Z-0.0929F6.5
G1X12.0000Z-0.0929A-539.9986 F380.0
G1Z-0.1000F6.5
G1X0.0000Z-0.3500A-179.9986 F380.0
G0Z0.2000
G0A-269.9993
G1Z-0.0071F6.5
G1X12.0000Z-0.0071A-629.9993 F380.0
G1Z-0.0143F6.5
G1X0.0000Z-0.2643A-269.9993 F380.0
G1Z-0.0214F6.5
G1X12.0000Z-0.0214A-629.9993 F380.0
G1Z-0.0286F6.5
G1X0.0000Z-0.2786A-269.9993 F380.0
G1Z-0.0357F6.5
G1X12.0000Z-0.0357A-629.9993 F380.0
G1Z-0.0429F6.5
G1X0.0000Z-0.2929A-269.9993 F380.0
G1Z-0.0500F6.5
G1X12.0000Z-0.0500A-629.9993 F380.0
G1Z-0.0571F6.5
G1X0.0000Z-0.3071A-269.9993 F380.0
G1Z-0.0643F6.5
G1X12.0000Z-0.0643A-629.9993 F380.0
G1Z-0.0714F6.5
G1X0.0000Z-0.3214A-269.9993 F380.0
G1Z-0.0786F6.5
G1X12.0000Z-0.0786A-629.9993 F380.0
G1Z-0.0857F6.5
G1X0.0000Z-0.3357A-269.9993 F380.0
G1Z-0.0929F6.5
G1X12.0000Z-0.0929A-629.9993 F380.0
G1Z-0.1000F6.5
G1X0.0000Z-0.3500A-269.9993F21.0
G0Z0.2000
G0Z1.0000
G0X0.0000A-89.8757
M30
